; generated by Slic3r 1.1.7 on 2014-11-19 at 21:13:50

; perimeters extrusion width = 0.40mm
; infill extrusion width = 0.42mm
; solid infill extrusion width = 0.42mm
; top infill extrusion width = 0.42mm

G21 ; set units to millimeters
M107
G28 ; home all axes

G90 ; use absolute coordinates
G92 E0
M82 ; use absolute distances for extrusion
G1 F1800.000 E-1.00000
G92 E0
G1 Z0.400 F7800.000
G1 X67.473 Y86.435 F7800.000
G1 E1.00000 F1800.000
G1 X68.484 Y85.725 E1.14674 F1080.000
G1 X74.148 Y82.487 E1.92155
G1 X75.156 Y82.013 E2.05384
G1 X82.593 Y79.322 E2.99319
G1 X89.577 Y77.844 E3.84097
G1 X90.556 Y77.703 E3.95845
G1 X97.806 Y77.203 E4.82149
G1 X98.866 Y77.203 E4.94749
G1 X107.017 Y77.820 E5.91821 F1080.000
G1 X115.028 Y79.581 E6.89241
G1 X122.464 Y82.429 E7.83813
G1 X128.189 Y85.693 E8.62083
G1 X129.199 Y86.400 E8.76723
G1 X134.623 Y91.097 E9.61936
G1 X134.897 Y91.431 E9.67063
G1 X138.329 Y95.895 E10.33947
G1 X139.161 Y97.305 E10.53384
G1 X141.296 Y102.201 E11.16821
G1 X141.789 Y103.941 E11.38301
G1 X142.516 Y109.068 E11.99797
G1 X142.512 Y110.914 E12.21726
G1 X141.795 Y116.005 E12.82787
G1 X141.303 Y117.748 E13.04296
G1 X138.789 Y123.386 E13.77603
G1 X138.337 Y124.053 E13.87172
G1 X134.869 Y128.566 E14.54775
G1 X133.889 Y129.595 E14.71646
G1 X129.227 Y133.552 E15.44276
G1 X128.215 Y134.261 E15.58951
G1 X122.551 Y137.500 E16.36434
G1 X121.543 Y137.973 E16.49660
G1 X114.108 Y140.665 E17.43574
G1 X106.134 Y142.288 E18.40215
G1 X98.522 Y142.803 E19.30829
G1 X97.833 Y142.784 E19.39016
G1 X89.663 Y142.163 E20.36329
G1 X81.703 Y140.417 E21.33107
G1 X74.196 Y137.536 E22.28604
G1 X68.511 Y134.294 E23.06339
G1 X67.536 Y133.618 E23.20421
G1 X62.830 Y129.632 E23.93668
G1 X61.847 Y128.602 E24.10580
G1 X58.379 Y124.092 E24.78149
G1 X57.564 Y122.721 E24.97084
G1 X55.411 Y117.790 E25.60987
G1 X54.917 Y116.048 E25.82492
G1 X54.194 Y110.957 E26.43561
G1 X54.193 Y109.076 E26.65906
G1 X54.910 Y103.984 E27.26977
G1 X55.403 Y102.241 E27.48488
G1 X57.550 Y97.309 E28.12377
G1 X58.364 Y95.938 E28.31316
G1 X61.828 Y91.424 E28.98892
G1 X62.810 Y90.392 E29.15811
G1 X67.427 Y86.474 E29.87728
G1 F1800.000 E28.87728
G92 E0
G1 X123.226 Y127.218 F7800.000
G1 E1.00000 F1800.000
G1 X123.124 Y127.242 E1.01236 F378.000
G1 X118.064 Y130.104 E1.70280
G1 X117.976 Y130.183 E1.71687
G1 X117.851 Y130.241 E1.73328
G1 X111.887 Y132.449 E2.48854
G1 X105.308 Y133.838 E3.28712
G1 X98.517 Y134.299 E4.09554
G1 X91.609 Y133.837 E4.91782
G1 X84.885 Y132.441 E5.73341
G1 X78.907 Y130.252 E6.48948
G1 X73.570 Y127.249 E7.21671
G1 X69.181 Y123.571 E7.89691
G1 X65.913 Y119.361 E8.52983
G1 X63.890 Y114.776 E9.12500
G1 X63.203 Y109.993 E9.69893
G1 X63.885 Y105.209 E10.27287
G1 X65.903 Y100.623 E10.86799
G1 X69.173 Y96.407 E11.50157
G1 X73.560 Y92.725 E12.18175
G1 X78.888 Y89.712 E12.90869
G1 X84.886 Y87.502 E13.66788
G1 X91.507 Y86.110 E14.47147
G1 X95.814 Y85.805 E14.98421
G1 X96.041 Y85.772 E15.01146
G1 X104.884 Y86.070 E16.06232
G1 X105.219 Y86.090 E16.10223 F378.000
G1 X111.802 Y87.461 E16.90083
G1 X117.877 Y89.692 E17.66942
G1 X123.208 Y92.699 E18.39634
G1 X123.282 Y92.760 E18.40777
G1 X127.600 Y96.378 E19.07673
G1 X130.871 Y100.577 E19.70897
G1 X132.863 Y105.091 E20.29493
G1 X132.890 Y105.119 E20.29953
G1 X133.613 Y110.153 E20.90356
G1 X133.533 Y110.213 E20.91544
G1 X132.892 Y114.768 E21.46181
G1 X130.886 Y119.327 E22.05325
G1 X127.661 Y123.485 E22.67832
G1 X123.272 Y127.180 E23.35966
G1 F1800.000 E22.35966
G92 E0
G1 X104.836 Y85.738 F7800.000
G1 X94.481 Y119.016 F7800.000
G1 E1.00000 F1800.000
G1 X91.412 Y119.016 E1.36453 F540.000
G1 X91.421 Y100.594 E3.55239
G1 X94.889 Y100.594 E3.96426
G1 X94.893 Y110.527 E5.14397
G1 X94.484 Y118.956 E6.14621
G1 X95.162 Y119.730 F7800.000
G1 X90.697 Y119.730 E6.67649 F540.000
G1 X90.706 Y99.880 E9.03399
G1 X95.603 Y99.880 E9.61550
G1 X95.607 Y109.607 E10.77074
G1 X95.653 Y109.607 E10.77619
G1 X95.165 Y119.670 E11.97280
G1 X96.340 Y110.166 F7800.000
G1 X95.842 Y120.444 E13.19489 F540.000
G1 X89.981 Y120.444 E13.89094
G1 X89.995 Y110.167 E15.11155
G1 X82.586 Y110.171 E15.99158
G1 X82.585 Y108.897 E16.14292
G1 X89.996 Y108.893 E17.02309
G1 X89.992 Y99.166 E18.17826
G1 X96.317 Y99.165 E18.92940
G1 X96.321 Y108.892 E20.08465
G1 X103.413 Y108.888 E20.92698
G1 X103.414 Y110.163 E21.07833
G1 X96.400 Y110.166 E21.91127
G1 F1800.000 E20.91127
G92 E0
G1 X94.621 Y135.435 F7800.000
G1 E1.00000 F1800.000
G1 X91.101 Y135.195 E1.41908 F378.000
G1 X84.118 Y133.725 E2.26656
G1 X77.692 Y131.340 E3.08065
G1 X72.063 Y128.130 E3.85019
G1 X67.461 Y124.231 E4.56659
G1 X64.047 Y119.791 E5.23176
G1 X61.953 Y114.994 E5.85343
G1 X61.245 Y110.013 E6.45092
G1 X61.947 Y105.031 E7.04845
G1 X64.036 Y100.232 E7.67005
G1 X67.445 Y95.790 E8.33500
G1 X72.048 Y91.883 E9.05211
G1 X77.668 Y88.670 E9.82093
G1 X84.095 Y86.275 E10.63555
G1 X91.073 Y84.799 E11.48265
G1 X98.384 Y84.300 E12.35289
G1 X105.599 Y84.791 E13.21181 F378.000
G1 X112.580 Y86.261 E14.05903
G1 X119.009 Y88.648 E14.87359
G1 X124.633 Y91.855 E15.64240
G1 X129.261 Y95.772 E16.36249
G1 X132.653 Y100.184 E17.02345
G1 X134.750 Y104.989 E17.64615
G1 X135.459 Y109.977 E18.24453
G1 X134.756 Y114.964 E18.84260
G1 X132.681 Y119.732 E19.46024
G1 X129.255 Y124.197 E20.12857
G1 X124.651 Y128.104 E20.84568
G1 X119.032 Y131.317 E21.61451
G1 X112.604 Y133.711 E22.42913
G1 X105.612 Y135.193 E23.27803
G1 X98.413 Y135.690 E24.13503
G1 X94.681 Y135.439 E24.57921
G1 F1800.000 E23.57921
G92 E0
G1 X98.721 Y84.516 F7800.000
G1 X94.351 Y101.092 F7800.000
G1 E1.00000 F1800.000
G1 X94.391 Y101.132 E1.00672 F1080.000
G1 X94.392 Y102.176 E1.13071
G1 X93.308 Y101.092 E1.31277
G1 X92.264 Y101.092 E1.43670
G1 X94.392 Y103.220 E1.79409
G1 X94.393 Y104.264 E1.91808
G1 X91.918 Y101.789 E2.33371
G1 X91.917 Y102.832 E2.45759
G1 X94.393 Y105.308 E2.87337
G1 X94.393 Y106.352 E2.99736
G1 X91.917 Y103.875 E3.41330
G1 X91.916 Y104.918 E3.53718
G1 X94.394 Y107.396 E3.95328
G1 X94.394 Y108.440 E4.07727
G1 X91.916 Y105.962 E4.49352
G1 X91.916 Y107.005 E4.61740
G1 X94.395 Y109.484 E5.03380
G1 X94.395 Y110.527 E5.15772
G1 X91.915 Y108.048 E5.57418
G1 X91.915 Y109.091 E5.69806
G1 X94.346 Y111.523 E6.10651
G1 X94.298 Y112.518 E6.22485
G1 X91.914 Y110.134 E6.62527
G1 X91.914 Y111.177 E6.74915
G1 X94.250 Y113.513 E7.14155
G1 X94.202 Y114.508 E7.25990
G1 X91.913 Y112.220 E7.64428
G1 X91.913 Y113.263 E7.76816
G1 X94.153 Y115.504 E8.14452
G1 X94.105 Y116.499 E8.26286
G1 X91.912 Y114.306 E8.63120
G1 X91.912 Y115.349 E8.75508
G1 X94.057 Y117.494 E9.11540
G1 X94.003 Y118.484 E9.23308
G1 X91.911 Y116.392 E9.58438
G1 X91.911 Y117.435 E9.70826
G1 X92.994 Y118.518 E9.89017
G1 X91.950 Y118.518 E10.01411
G1 X91.910 Y118.478 E10.02082
G1 X90.350 Y109.529 F7800.000
G1 X82.942 Y109.534 E10.51361 F360.000
G1 X96.014 Y109.529 F7800.000
G1 X103.056 Y109.526 E10.98207 F360.000
G1 F1800.000 E9.98207
G92 E0
G1 X99.772 Y85.147 F7800.000
G1 E1.00000 F1800.000
G1 X104.911 Y85.408 E1.34225 F360.000
G1 X105.507 Y85.461 E1.38208
G1 X111.962 Y86.812 E1.82073
G1 X112.386 Y86.932 E1.85004
G1 X118.190 Y89.078 E2.26169
G1 X118.701 Y89.315 E2.29915
G1 X123.643 Y92.118 E2.67710
G1 F1800.000 E1.67710
G92 E0
G1 X99.246 Y84.858 F7800.000
G1 E1.00000 F1800.000
G1 X99.287 Y84.899 E1.00681 F1080.000
G1 X98.134 Y85.346 E1.15371
G1 X98.093 Y85.305 E1.16061
G1 F1800.000 E0.16061
G92 E0
G1 X123.642 Y92.120 F7800.000
G1 E1.00000 F1800.000
G1 X124.183 Y92.497 E1.12228 F360.000
G1 X128.185 Y95.874 E2.09251
G1 X128.654 Y96.363 E2.21805
G1 X131.610 Y100.191 E3.11417
G1 X131.877 Y100.642 E3.21127
G1 X133.743 Y104.880 E4.06928
G1 X133.848 Y105.245 E4.13963
G1 X134.524 Y109.978 E5.02541
G1 X134.524 Y110.238 E5.07362
G1 X134.407 Y110.725 E5.16642
G1 X133.842 Y114.706 E5.91137
G1 X133.798 Y114.884 E5.94539
G1 X133.736 Y115.069 E5.98154
G1 X131.897 Y119.271 E6.83134
G1 X131.640 Y119.706 E6.92507
G1 X128.637 Y123.609 E7.83741
G1 X128.273 Y123.990 E7.93506
G1 X124.192 Y127.448 E8.92629
G1 X123.494 Y127.935 E9.08395
G1 X122.394 Y128.523 F7800.000
G1 X118.708 Y130.620 E9.86970 F360.000
G1 X118.243 Y130.836 E9.96467
G1 X118.101 Y130.530 F7800.000
G1 X117.918 Y130.974 E9.99661 F360.000
G1 X112.403 Y133.017 E10.38786
G1 X111.977 Y133.139 E10.41733
G1 X105.452 Y134.512 E10.86086
G1 X98.389 Y134.994 E11.33178
G1 X91.491 Y134.524 E11.79167
G1 X91.199 Y134.484 E11.81128
G1 X84.711 Y133.127 E12.25221
G1 X84.320 Y133.017 E12.27922
G1 X78.898 Y131.014 E12.66377
G1 X78.707 Y130.552 E12.69702
G1 X78.552 Y130.885 F7800.000
G1 X78.020 Y130.638 E12.80576 F360.000
G1 X73.114 Y127.856 E13.85058
G1 X72.535 Y127.453 E13.98132
G1 X68.630 Y124.163 E14.92742
G1 X68.103 Y123.618 E15.06794
G1 X65.127 Y119.756 E15.97135
G1 X64.863 Y119.309 E16.06754
G1 X63.020 Y115.112 E16.91692
G1 X62.898 Y114.726 E16.99192
G1 X62.235 Y110.080 E17.86136
G1 X62.237 Y109.907 E17.89348
G1 X62.891 Y105.297 E18.75609
G1 X62.968 Y105.026 E18.80843
G1 X64.846 Y100.709 E19.68064
G1 X65.128 Y100.233 E19.78316
G1 X68.079 Y96.394 E20.68037
G1 X68.568 Y95.884 E20.81132
G1 X72.514 Y92.547 E21.76874
G1 X73.310 Y91.992 E21.94854
G1 X73.321 Y92.009 F7800.000
G1 X77.986 Y89.356 E22.30551 F360.000
G1 X78.567 Y89.086 E22.34810
G1 X84.294 Y86.961 E22.75449
G1 X84.664 Y86.854 E22.78006
G1 X91.167 Y85.480 E23.22224
G1 X91.393 Y85.449 E23.23742
G1 X96.030 Y85.114 E23.54666
G1 X97.591 Y85.087 E23.65050
M106 S111
G1 F1800.000 E22.65050
G92 E0
G1 Z0.800 F7800.000
G1 X94.707 Y134.165 F7800.000
G1 E1.00000 F1800.000
G1 X91.704 Y133.964 E1.20016 F1800.000
G1 X88.768 Y133.355 E1.39962
G1 X88.217 Y133.258 E1.43689
G1 X84.675 Y132.513 E1.67763
G1 X79.060 Y130.450 E2.07556
G1 X78.841 Y130.387 E2.09073
G1 X73.885 Y127.591 E2.46923
G1 X73.479 Y127.383 E2.49953
G1 X69.077 Y123.692 E2.88170
G1 X65.786 Y119.444 E3.23915
G1 X63.742 Y114.816 E3.57569
G1 X63.047 Y109.980 E3.90070
G1 X63.737 Y105.143 E4.22573
G1 X65.776 Y100.513 E4.56224
G1 X69.073 Y96.264 E4.92000
G1 X73.489 Y92.559 E5.30346
G1 X78.843 Y89.532 E5.71262
G1 X84.738 Y87.359 E6.13051
G1 X85.073 Y87.268 E6.15364
G1 X91.451 Y85.941 E6.58699
G1 X95.449 Y85.658 E6.85360
G1 X96.099 Y85.561 E6.89729
G1 X104.319 Y85.839 E7.44439
G1 X105.275 Y85.895 E7.50809 F1800.000
G1 X111.883 Y87.271 E7.95711
G1 X117.985 Y89.511 E8.38952
G1 X123.343 Y92.532 E8.79867
G1 X127.765 Y96.235 E9.18229
G1 X130.908 Y100.280 E9.52308
G1 X131.068 Y100.462 E9.53920
G1 X133.102 Y105.049 E9.87299
G1 X133.810 Y109.957 E10.20283
G1 X133.751 Y110.341 E10.22866
G1 X133.699 Y110.379 E10.23294
G1 X133.086 Y114.678 E10.52183
G1 X133.074 Y114.891 E10.53598
G1 X131.086 Y119.410 E10.86441
G1 X127.905 Y123.511 E11.20965
G1 X127.772 Y123.642 E11.22208
G1 X123.424 Y127.293 E11.59972
G1 X123.176 Y127.351 E11.61668
G1 X118.406 Y130.049 E11.98126
G1 X118.160 Y130.271 E12.00326
G1 X117.888 Y130.397 E12.02321
G1 X112.296 Y132.458 E12.41965
G1 X112.049 Y132.574 E12.43780
G1 X105.814 Y133.889 E12.86165
G1 X105.470 Y133.980 E12.88532
G1 X98.753 Y134.432 E13.33318
G1 X98.450 Y134.430 E13.35331
G1 X94.766 Y134.169 E13.59897
G1 X94.733 Y133.766 F7800.000
G1 X91.758 Y133.566 E13.79731 F1260.000
G1 X88.843 Y132.962 E13.99535
G1 X88.298 Y132.866 E14.03217
G1 X84.787 Y132.128 E14.27086
G1 X79.184 Y130.070 E14.66788
G1 X78.997 Y130.015 E14.68088
G1 X74.074 Y127.238 E15.05682
G1 X73.702 Y127.048 E15.08467
G1 X69.371 Y123.417 E15.46058
G1 X66.132 Y119.238 E15.81231
G1 X64.130 Y114.704 E16.14203
G1 X63.451 Y109.980 E16.45947
G1 X64.125 Y105.255 E16.77693
G1 X66.122 Y100.719 E17.10661
G1 X69.362 Y96.544 E17.45816
G1 X73.715 Y92.890 E17.83623
G1 X79.012 Y89.896 E18.24099
G1 X84.860 Y87.741 E18.65555
G1 X85.164 Y87.658 E18.67652
G1 X91.507 Y86.338 E19.10748
G1 X95.493 Y86.056 E19.37332
G1 X96.122 Y85.962 E19.41561 F1260.000
G1 X104.300 Y86.239 E19.95993
G1 X105.222 Y86.293 E20.02139
G1 X111.775 Y87.657 E20.46659
G1 X117.817 Y89.876 E20.89477
G1 X123.117 Y92.864 E21.29951
G1 X127.475 Y96.514 E21.67765
G1 X130.727 Y100.680 E22.02918
G1 X132.672 Y105.088 E22.34968
G1 X132.681 Y105.185 E22.35618
G1 X132.726 Y105.233 E22.36053
G1 X133.405 Y109.956 E22.67796
G1 X133.381 Y110.117 E22.68879
G1 X133.326 Y110.157 E22.69327
G1 X132.687 Y114.639 E22.99443
G1 X132.679 Y114.796 E23.00491
G1 X130.739 Y119.204 E23.32523
G1 X127.605 Y123.245 E23.66547
G1 X123.240 Y126.925 E24.04521
G1 X123.029 Y126.975 E24.05964
G1 X118.171 Y129.723 E24.43095
G1 X117.937 Y129.933 E24.45186
G1 X117.734 Y130.027 E24.46673
G1 X111.792 Y132.229 E24.88827
G1 X105.722 Y133.499 E25.30077
G1 X105.404 Y133.583 E25.32268
G1 X98.740 Y134.032 E25.76694
G1 X98.467 Y134.030 E25.78512
G1 X94.793 Y133.770 E26.03012
G1 F1800.000 E25.03012
G92 E0
G1 X95.445 Y85.659 F7800.000
G1 X78.396 Y130.595 F7800.000
G1 E1.00000 F1800.000
G1 X78.272 Y130.863 E1.01967 F1800.000
G1 X77.993 Y130.760 E1.03944
G1 X73.810 Y128.374 E1.35977
G1 X73.968 Y128.096 E1.38101
G1 X78.344 Y130.566 E1.71527
G1 F1800.000 E0.71527
G92 E0
G1 X90.566 Y119.852 F7800.000
G1 E1.00000 F1800.000
G1 X90.575 Y99.773 E2.33568 F1800.000
G1 X95.717 Y99.772 E2.67774
G1 X95.721 Y109.493 E3.32435
G1 X95.772 Y109.493 E3.32778
G1 X95.270 Y119.852 E4.01771
G1 X90.626 Y119.852 E4.32663
G1 X90.177 Y109.967 F7800.000
G1 X82.915 Y109.972 E4.80972 F1800.000
G1 X82.915 Y109.097 E4.86788
G1 X90.179 Y109.093 E5.35109
G1 X90.175 Y99.373 E5.99764
G1 X96.117 Y99.372 E6.39290
G1 X96.121 Y109.093 E7.03952
G1 X103.070 Y109.089 E7.50182
G1 X103.071 Y109.963 E7.55998
G1 X96.150 Y109.967 E8.02037
G1 X95.651 Y120.252 E8.70536
G1 X90.165 Y120.252 E9.07027
G1 X90.178 Y110.027 E9.75047
G1 X89.779 Y110.368 F7800.000
G1 X82.515 Y110.372 E10.23363 F1800.000
G1 X82.514 Y108.697 E10.34501
G1 X89.778 Y108.693 E10.82821
G1 X89.774 Y98.973 E11.47480
G1 X96.516 Y98.972 E11.92329
G1 X96.520 Y108.693 E12.56990
G1 X103.470 Y108.689 E13.03219
G1 X103.471 Y110.363 E13.14357
G1 X96.531 Y110.367 E13.60523
G1 X96.032 Y120.652 E14.29024
G1 X89.765 Y120.652 E14.70715
G1 X89.779 Y110.428 E15.38731
G1 F1800.000 E14.38731
G92 E0
G1 X98.143 Y85.230 F7800.000
G1 E1.00000 F1800.000
G1 X98.138 Y84.926 E1.02023 F1800.000
G1 X98.369 Y84.910 E1.03564
G1 X98.745 Y84.936 E1.06072
G1 X98.729 Y85.250 E1.08164
G1 X98.203 Y85.232 E1.11666
G1 F1800.000 E0.11666
G92 E0
G1 X98.526 Y84.921 F7800.000
G1 X98.728 Y81.928 F7800.000
G1 X85.256 Y83.595 F7800.000
G1 X67.621 Y92.539 F7800.000
G1 X67.176 Y97.195 F7800.000
G1 X73.174 Y92.300 F7800.000
G1 E1.00000 F1800.000
G1 X68.784 Y95.984 E1.38119 F1800.000
G1 X65.429 Y100.307 E1.74517
G1 X63.349 Y105.031 E2.08851
G1 X62.643 Y109.980 E2.42110
G1 X63.354 Y114.929 E2.75368
G1 X65.440 Y119.651 E3.09705
G1 X68.782 Y123.968 E3.46022
G1 X73.274 Y127.733 E3.85013
G1 X73.107 Y127.973 E3.86959
G1 X72.456 Y127.603 E3.91942
G1 X67.950 Y123.787 E4.31219
G1 X64.621 Y119.457 E4.67552
G1 X62.592 Y114.810 E5.01283
G1 X61.908 Y109.999 E5.33607
G1 X62.587 Y105.187 E5.65934
G1 X64.611 Y100.538 E5.99661
G1 X67.934 Y96.208 E6.35972
G1 X72.444 Y92.381 E6.75320
G1 X73.006 Y92.059 E6.79631
G1 X73.139 Y92.251 E6.81185
G1 F1800.000 E5.81185
G92 E0
G1 X67.176 Y97.195 F7800.000
G1 X67.621 Y92.539 F7800.000
G1 X85.256 Y83.595 F7800.000
G1 X108.652 Y82.986 F7800.000
G1 X126.919 Y90.637 F7800.000
G1 X126.438 Y94.161 F7800.000
G1 X123.840 Y92.424 F7800.000
G1 E1.00000 F1800.000
G1 X124.007 Y92.184 E1.01946 F1800.000
G1 X124.303 Y92.353 E1.04215
G1 X128.869 Y96.212 E1.43982
G1 X132.146 Y100.470 E1.79725
G1 X134.184 Y105.139 E2.13613
G1 X134.871 Y109.971 E2.46080
G1 X134.190 Y114.797 E2.78501
G1 X132.199 Y119.372 E3.11692
G1 X128.832 Y123.752 E3.48443
G1 X124.321 Y127.579 E3.87793
G1 X123.811 Y127.871 E3.91701
G1 X123.644 Y127.631 E3.93647
G1 X128.042 Y123.938 E4.31847
G1 X128.205 Y123.777 E4.33373
G1 X131.432 Y119.616 E4.68399
G1 X133.469 Y114.985 E5.02052
G1 X133.484 Y114.718 E5.03835
G1 X134.071 Y110.601 E5.31495
G1 X134.121 Y110.565 E5.31904
G1 X134.214 Y109.958 E5.35987
G1 X133.479 Y104.866 E5.70212
G1 X133.421 Y104.805 E5.70771
G1 X131.409 Y100.245 E6.03925
G1 X131.217 Y100.025 E6.05866
G1 X128.054 Y95.956 E6.40151
G1 X123.886 Y92.463 E6.76329
G1 F1800.000 E5.76329
G92 E0
G1 X123.640 Y127.654 F7800.000
G1 E1.00000 F1800.000
G1 X123.741 Y127.911 E1.01840 F1800.000
G1 X118.799 Y130.736 E1.39708
