; generated by Slic3r 1.1.7 on 2014-11-19 at 21:04:21

; perimeters extrusion width = 0.40mm
; infill extrusion width = 0.42mm
; solid infill extrusion width = 0.42mm
; top infill extrusion width = 0.42mm

G21 ; set units to millimeters
M107
G28 ; home all axes

G90 ; use absolute coordinates
G92 E0
M82 ; use absolute distances for extrusion
G1 F1800.000 E-1.00000
G92 E0
G1 Z0.400 F7800.000
G1 X74.268 Y87.711 F7800.000
G1 E1.00000 F1800.000
G1 X75.316 Y86.927 E1.15536 F1080.000
G1 X81.316 Y83.397 E1.98213
G1 X86.973 Y81.135 E2.70576
G1 X87.908 Y80.850 E2.82179
G1 X94.959 Y79.328 E3.67852
G1 X102.246 Y78.867 E4.54569
G1 X109.538 Y79.484 E5.41488
G1 X116.486 Y81.134 E6.26295 F1080.000
G1 X123.202 Y83.933 E7.12712
G1 X128.966 Y87.586 E7.93757
G1 X133.116 Y91.377 E8.60513
G1 X133.950 Y92.295 E8.75240
G1 X137.035 Y96.623 E9.38367
G1 X137.791 Y98.001 E9.57033
G1 X139.625 Y102.541 E10.15191
G1 X140.051 Y104.137 E10.34813
G1 X140.675 Y108.908 E10.91952
G1 X140.674 Y110.656 E11.12713
G1 X140.045 Y115.425 E11.69847
G1 X139.618 Y117.021 E11.89467
G1 X137.778 Y121.560 E12.47632
G1 X137.021 Y122.937 E12.66299
G1 X133.932 Y127.262 E13.29424
G1 X133.096 Y128.180 E13.44163
G1 X129.079 Y131.845 E14.08743
G1 X128.070 Y132.605 E14.23755
G1 X123.073 Y135.674 E14.93390
G1 X122.154 Y136.126 E15.05558
G1 X115.563 Y138.673 E15.89471
G1 X109.476 Y140.053 E16.63604
G1 X108.512 Y140.195 E16.75181
G1 X101.225 Y140.656 E17.61898
G1 X93.932 Y140.039 E18.48816
G1 X86.985 Y138.389 E19.33618
G1 X80.268 Y135.590 E20.20040
G1 X75.378 Y132.578 E20.88256
G1 X74.441 Y131.881 E21.02119
G1 X70.298 Y128.138 E21.68433
G1 X69.331 Y127.051 E21.85711
G1 X66.376 Y122.902 E22.46212
G1 X65.619 Y121.521 E22.64906
G1 X63.801 Y117.019 E23.22566
G1 X63.369 Y115.369 E23.42825
G1 X62.700 Y109.786 E24.09614
G1 X62.756 Y108.882 E24.20372
G1 X63.374 Y104.122 E24.77374
G1 X63.802 Y102.482 E24.97507
G1 X65.625 Y97.946 E25.55565
G1 X66.390 Y96.550 E25.74462
G1 X69.348 Y92.404 E26.34957
G1 X70.287 Y91.345 E26.51770
G1 X74.224 Y87.751 E27.15072
G1 F1800.000 E26.15072
G92 E0
G1 X84.889 Y112.382 F7800.000
G1 E1.00000 F1800.000
G1 X84.105 Y113.024 E1.12039 F540.000
G1 X83.210 Y113.501 E1.24081
G1 X82.240 Y113.794 E1.36120
G1 X81.461 Y113.870 E1.45405
G1 X81.230 Y113.893 E1.48161
G1 X80.222 Y113.793 E1.60201
G1 X79.252 Y113.498 E1.72242
G1 X78.357 Y113.021 E1.84280
G1 X77.574 Y112.378 E1.96322
G1 X76.930 Y111.594 E2.08363
G1 X76.452 Y110.700 E2.20406
G1 X76.157 Y109.730 E2.32448
G1 X76.058 Y108.721 E2.44491
G1 X76.158 Y107.712 E2.56533
G1 X76.454 Y106.742 E2.68573
G1 X76.933 Y105.848 E2.80616
G1 X77.577 Y105.065 E2.92659
G1 X78.362 Y104.423 E3.04702
G1 X79.256 Y103.947 E3.16740
G1 X80.227 Y103.654 E3.28778
G1 X81.236 Y103.555 E3.40819
G1 X81.467 Y103.578 E3.43575
G1 X82.245 Y103.655 E3.52859 F540.000
G1 X83.215 Y103.949 E3.64900
G1 X84.109 Y104.427 E3.76940
G1 X84.893 Y105.070 E3.88981
G1 X85.536 Y105.853 E4.01023
G1 X86.015 Y106.747 E4.13066
G1 X86.309 Y107.718 E4.25107
G1 X86.408 Y108.727 E4.37148
G1 X86.308 Y109.736 E4.49192
G1 X86.013 Y110.706 E4.61233
G1 X85.534 Y111.599 E4.73274
G1 X84.927 Y112.336 E4.84605
G1 X84.383 Y111.874 F7800.000
G1 X83.707 Y112.427 E4.94975 F540.000
G1 X82.936 Y112.838 E5.05346
G1 X82.100 Y113.090 E5.15718
G1 X81.392 Y113.159 E5.24169
G1 X81.231 Y113.175 E5.26091
G1 X80.362 Y113.089 E5.36463
G1 X79.526 Y112.835 E5.46835
G1 X78.756 Y112.424 E5.57206
G1 X78.081 Y111.870 E5.67577
G1 X77.527 Y111.195 E5.77948
G1 X77.115 Y110.426 E5.88318
G1 X76.861 Y109.590 E5.98687
G1 X76.776 Y108.721 E6.09055
G1 X76.862 Y107.852 E6.19424
G1 X77.116 Y107.017 E6.29792
G1 X77.529 Y106.248 E6.40161
G1 X78.084 Y105.574 E6.50532
G1 X78.760 Y105.021 E6.60903
G1 X79.530 Y104.610 E6.71274
G1 X80.366 Y104.357 E6.81644
G1 X80.527 Y104.342 E6.83566
G1 X81.235 Y104.273 E6.92017 F540.000
G1 X82.104 Y104.359 E7.02389
G1 X82.940 Y104.612 E7.12762
G1 X83.710 Y105.024 E7.23133
G1 X84.386 Y105.577 E7.33504
G1 X84.940 Y106.252 E7.43875
G1 X85.352 Y107.022 E7.54245
G1 X85.605 Y107.858 E7.64613
G1 X85.690 Y108.726 E7.74981
G1 X85.604 Y109.595 E7.85351
G1 X85.350 Y110.430 E7.95719
G1 X84.938 Y111.200 E8.06087
G1 X84.421 Y111.828 E8.15746
G1 X83.876 Y111.366 F7800.000
G1 X83.309 Y111.830 E8.24446 F378.000
G1 X82.662 Y112.174 E8.33148
G1 X81.961 Y112.386 E8.41851
G1 X81.323 Y112.449 E8.49468
G1 X81.231 Y112.458 E8.50556
G1 X80.502 Y112.385 E8.59261
G1 X79.801 Y112.173 E8.67964
G1 X79.154 Y111.827 E8.76667
G1 X78.588 Y111.363 E8.85369
G1 X78.123 Y110.797 E8.94068
G1 X77.778 Y110.151 E9.02766
G1 X77.565 Y109.450 E9.11461
G1 X77.494 Y108.722 E9.20156
G1 X77.566 Y107.993 E9.28851
G1 X77.779 Y107.293 E9.37546
G1 X78.125 Y106.647 E9.46242
G1 X78.590 Y106.082 E9.54941
G1 X79.157 Y105.618 E9.63641
G1 X79.804 Y105.273 E9.72343
G1 X80.505 Y105.061 E9.81046
G1 X81.235 Y104.990 E9.89751
G1 X81.326 Y104.999 E9.90839
G1 X81.964 Y105.062 E9.98455 F378.000
G1 X82.666 Y105.275 E10.07159
G1 X83.312 Y105.620 E10.15862
G1 X83.878 Y106.085 E10.24564
G1 X84.343 Y106.651 E10.33263
G1 X84.689 Y107.297 E10.41961
G1 X84.901 Y107.997 E10.50656
G1 X84.973 Y108.726 E10.59350
G1 X84.901 Y109.455 E10.68045
G1 X84.687 Y110.155 E10.76741
G1 X84.341 Y110.800 E10.85437
G1 X83.914 Y111.320 E10.93423
G1 F1800.000 E9.93423
G92 E0
G1 X81.288 Y104.601 F7800.000
G1 X89.100 Y110.744 F7800.000
G1 E1.00000 F1800.000
G1 X88.899 Y109.059 E1.20148 F540.000
G1 X88.890 Y108.635 E1.25187
G1 X89.151 Y106.459 E1.51213
G1 X89.231 Y106.096 E1.55630
G1 X89.876 Y103.972 E1.81998
G1 X91.041 Y101.795 E2.11316
G1 X92.608 Y99.888 E2.40636
G1 X94.517 Y98.323 E2.69954
G1 X96.695 Y97.161 E2.99269
G1 X99.057 Y96.445 E3.28587
G1 X101.514 Y96.205 E3.57904
G1 X101.833 Y96.237 E3.61707
G1 X103.971 Y96.448 E3.87223 F540.000
G1 X106.333 Y97.166 E4.16541
G1 X108.509 Y98.331 E4.45862
G1 X110.417 Y99.899 E4.75183
G1 X111.982 Y101.808 E5.04503
G1 X113.145 Y103.986 E5.33825
G1 X113.860 Y106.348 E5.63143
G1 X113.892 Y106.667 E5.66946
G1 X114.101 Y108.805 E5.92464
G1 X113.858 Y111.262 E6.21782
G1 X113.141 Y113.624 E6.51101
G1 X111.976 Y115.800 E6.80418
G1 X110.409 Y117.708 E7.09738
G1 X108.500 Y119.273 E7.39053
G1 X106.604 Y120.284 E7.64568
G1 X106.322 Y120.435 E7.68371
G1 X103.959 Y121.150 E7.97689
G1 X101.502 Y121.391 E8.27006
G1 X99.364 Y121.179 E8.52523
G1 X99.046 Y121.147 E8.56326
G1 X96.684 Y120.429 E8.85643
G1 X94.507 Y119.264 E9.14963
G1 X92.600 Y117.697 E9.44284
G1 X91.035 Y115.788 E9.73604
G1 X89.872 Y113.610 E10.02926
G1 X89.162 Y111.266 E10.32017
G1 X89.107 Y110.803 E10.37547
G1 X89.809 Y110.659 F7800.000
G1 X89.612 Y109.009 E10.57285 F540.000
G1 X89.605 Y108.670 E10.61313
G1 X89.856 Y106.579 E10.86326
G1 X89.922 Y106.277 E10.89998
G1 X90.539 Y104.247 E11.15199
G1 X91.637 Y102.194 E11.42845
G1 X93.115 Y100.395 E11.70493
G1 X94.915 Y98.920 E11.98140
G1 X96.969 Y97.824 E12.25784
G1 X99.197 Y97.149 E12.53432
G1 X99.446 Y97.125 E12.56399
G1 X101.514 Y96.923 E12.81079 F540.000
G1 X103.830 Y97.152 E13.08727
G1 X106.058 Y97.829 E13.36374
G1 X108.110 Y98.928 E13.64025
G1 X108.303 Y99.086 E13.66992
G1 X109.909 Y100.406 E13.91675
G1 X111.385 Y102.206 E14.19325
G1 X112.482 Y104.260 E14.46976
G1 X113.157 Y106.488 E14.74623
G1 X113.384 Y108.805 E15.02273
G1 X113.154 Y111.122 E15.29921
G1 X112.478 Y113.349 E15.57569
G1 X111.379 Y115.401 E15.85214
G1 X109.902 Y117.200 E16.12863
G1 X108.101 Y118.676 E16.40508
G1 X106.048 Y119.772 E16.68154
G1 X103.820 Y120.446 E16.95802
G1 X101.503 Y120.673 E17.23449
G1 X99.186 Y120.443 E17.51097
G1 X96.959 Y119.766 E17.78744
G1 X94.906 Y118.668 E18.06394
G1 X93.107 Y117.190 E18.34045
G1 X91.631 Y115.389 E18.61694
G1 X90.535 Y113.336 E18.89345
G1 X89.864 Y111.119 E19.16855
G1 X89.816 Y110.719 E19.21638
G1 X90.518 Y110.575 F7800.000
G1 X90.325 Y108.959 E19.40966 F378.000
G1 X90.320 Y108.705 E19.43984
G1 X90.561 Y106.698 E19.67984
G1 X90.614 Y106.458 E19.70911
G1 X91.202 Y104.521 E19.94943
G1 X92.234 Y102.593 E20.20918
G1 X93.622 Y100.903 E20.46895
G1 X95.314 Y99.517 E20.72870
G1 X97.243 Y98.487 E20.98844
G1 X99.337 Y97.853 E21.24822
G1 X101.513 Y97.640 E21.50798
G1 X101.692 Y97.658 E21.52930
G1 X103.690 Y97.856 E21.76776 F378.000
G1 X105.783 Y98.492 E22.02752
G1 X107.711 Y99.524 E22.28732
G1 X109.402 Y100.913 E22.54713
G1 X110.788 Y102.605 E22.80692
G1 X111.819 Y104.534 E23.06672
G1 X112.453 Y106.628 E23.32649
G1 X112.470 Y106.806 E23.34780
G1 X112.666 Y108.805 E23.58627
G1 X112.451 Y110.981 E23.84604
G1 X111.815 Y113.074 E24.10581
G1 X110.783 Y115.002 E24.36556
G1 X109.395 Y116.692 E24.62532
G1 X107.703 Y118.079 E24.88507
G1 X105.932 Y119.024 E25.12350
G1 X105.774 Y119.109 E25.14482
G1 X103.680 Y119.742 E25.40459
G1 X101.503 Y119.955 E25.66436
G1 X99.505 Y119.757 E25.90282
G1 X99.327 Y119.740 E25.92413
G1 X97.234 Y119.103 E26.18390
G1 X95.305 Y118.071 E26.44370
G1 X93.615 Y116.682 E26.70350
G1 X92.228 Y114.991 E26.96329
G1 X91.198 Y113.061 E27.22309
G1 X90.565 Y110.972 E27.48237
G1 X90.525 Y110.634 E27.52274
G1 F1800.000 E26.52274
G92 E0
G1 X101.809 Y97.276 F7800.000
G1 X78.348 Y123.880 F7800.000
G1 E1.00000 F1800.000
G1 X76.087 Y121.811 E1.36398 F540.000
G1 X73.460 Y118.122 E1.90185
G1 X71.817 Y114.055 E2.42275
G1 X71.256 Y109.766 E2.93649
G1 X71.830 Y105.418 E3.45741
G1 X73.502 Y101.289 E3.98644
G1 X76.189 Y97.523 E4.53592
G1 X79.768 Y94.257 E5.11136
G1 X84.634 Y91.270 E5.78948
G1 X89.929 Y89.151 E6.46682
G1 X95.719 Y87.838 E7.17192
G1 X101.747 Y87.395 E7.88974
G1 X107.774 Y87.844 E8.60756
G1 X113.562 Y89.164 E9.31256 F540.000
G1 X118.855 Y91.288 E9.98994
G1 X123.474 Y94.135 E10.63435
G1 X127.211 Y97.552 E11.23578
G1 X129.951 Y101.401 E11.79690
G1 X131.618 Y105.529 E12.32560
G1 X132.174 Y109.777 E12.83446
G1 X131.614 Y114.025 E13.34331
G1 X129.942 Y118.152 E13.87208
G1 X127.201 Y121.993 E14.43250
G1 X123.449 Y125.418 E15.03591
G1 X118.846 Y128.247 E15.67763
G1 X113.532 Y130.374 E16.35733
G1 X107.755 Y131.685 E17.06095
G1 X101.723 Y132.127 E17.77921
G1 X95.696 Y131.679 E18.49703
G1 X89.908 Y130.359 E19.20202
G1 X84.615 Y128.234 E19.87941
G1 X79.998 Y125.389 E20.52350
G1 X78.392 Y123.920 E20.78200
G1 X77.866 Y124.407 F7800.000
G1 X75.549 Y122.287 E21.15497 F540.000
G1 X72.829 Y118.468 E21.71184
G1 X71.121 Y114.238 E22.25357
G1 X70.536 Y109.766 E22.78926
G1 X71.134 Y105.234 E23.33214
G1 X72.872 Y100.943 E23.88200
G1 X75.652 Y97.047 E24.45047
G1 X79.344 Y93.676 E25.04421
G1 X84.313 Y90.630 E25.73635
G1 X89.716 Y88.467 E26.42763
G1 X95.613 Y87.129 E27.14580
G1 X101.747 Y86.679 E27.87625 F540.000
G1 X107.881 Y87.136 E28.60671
G1 X113.776 Y88.480 E29.32477
G1 X119.178 Y90.648 E30.01610
G1 X123.906 Y93.562 E30.67578
G1 X127.749 Y97.077 E31.29422
G1 X130.582 Y101.056 E31.87433
G1 X132.315 Y105.346 E32.42386
G1 X132.894 Y109.778 E32.95469
G1 X132.310 Y114.209 E33.48549
G1 X130.572 Y118.498 E34.03509
G1 X127.739 Y122.469 E34.61451
G1 X123.881 Y125.991 E35.23493
G1 X119.168 Y128.888 E35.89193
G1 X113.745 Y131.058 E36.58557
G1 X107.860 Y132.393 E37.30225
G1 X101.723 Y132.843 E38.03315
G1 X95.589 Y132.387 E38.76360
G1 X89.695 Y131.043 E39.48167
G1 X84.293 Y128.874 E40.17299
G1 X79.566 Y125.962 E40.83235
G1 X77.910 Y124.447 E41.09888
G1 X77.384 Y124.934 F7800.000
G1 X75.135 Y122.877 E41.46091 F378.000
G1 X75.052 Y122.821 E41.47279
G1 X72.198 Y118.813 E42.05702
G1 X70.425 Y114.421 E42.61958
G1 X69.815 Y109.766 E43.17724
G1 X70.437 Y105.051 E43.74208
G1 X72.242 Y100.597 E44.31275
G1 X75.115 Y96.570 E44.90023
G1 X78.991 Y93.032 E45.52361
G1 X79.158 Y92.960 E45.54517
G1 X83.991 Y89.990 E46.21884
G1 X89.503 Y87.783 E46.92406
G1 X95.508 Y86.421 E47.65529
G1 X101.748 Y85.963 E48.39838
G1 X107.987 Y86.427 E49.14148
G1 X113.989 Y87.796 E49.87260 F378.000
G1 X119.500 Y90.008 E50.57787
G1 X124.339 Y92.990 E51.25283
G1 X128.287 Y96.601 E51.88829
G1 X131.212 Y100.710 E52.48739
G1 X133.011 Y105.163 E53.05775
G1 X133.614 Y109.778 E53.61054
G1 X133.006 Y114.393 E54.16330
G1 X131.203 Y118.844 E54.73372
G1 X128.276 Y122.946 E55.33214
G1 X124.312 Y126.564 E55.96958
G1 X119.490 Y129.528 E56.64185
G1 X113.958 Y131.742 E57.34944
G1 X107.966 Y133.101 E58.07925
G1 X101.723 Y133.559 E58.82271
G1 X95.483 Y133.095 E59.56580
G1 X89.481 Y131.727 E60.29693
G1 X83.970 Y129.514 E61.00220
G1 X79.134 Y126.535 E61.67683
G1 X77.428 Y124.974 E61.95138
G1 F1800.000 E60.95138
G92 E0
G1 X108.242 Y86.736 F7800.000
G1 X115.252 Y90.378 F7800.000
G1 E1.00000 F1800.000
G1 X131.224 Y106.350 E3.68265 F1080.000
G1 X131.376 Y107.515 E3.82216
G1 X113.560 Y89.699 E6.81450
G1 X112.216 Y89.367 E6.97901
G1 X131.528 Y108.680 E10.22279
G1 X131.665 Y109.829 E10.36022
G1 X110.904 Y89.068 E13.84725
G1 X109.592 Y88.769 E14.00702
G1 X131.547 Y110.724 E17.69454
G1 X131.429 Y111.618 E17.80170
G1 X108.281 Y88.470 E21.68971
G1 X107.090 Y88.292 E21.83264
G1 X131.311 Y112.513 E25.90075
G1 X131.193 Y113.407 E26.00791
G1 X105.997 Y88.211 E30.23994
G1 X104.903 Y88.129 E30.37021
G1 X130.997 Y114.223 E34.75292
G1 X130.705 Y114.944 E34.84526
G1 X103.809 Y88.048 E39.36267
G1 X102.715 Y87.967 E39.49294
G1 X130.413 Y115.664 E44.14504
G1 X130.121 Y116.385 E44.23737
G1 X101.638 Y87.903 E49.02126
G1 X100.695 Y87.972 E49.13359
G1 X129.829 Y117.106 E54.02688
G1 X129.537 Y117.826 E54.11922
G1 X99.752 Y88.041 E59.12192
G1 X98.808 Y88.110 E59.23425
G1 X108.414 Y97.716 E60.84765
G1 X106.332 Y96.646 F7800.000
G1 X97.865 Y88.179 E62.26968 F1080.000
G1 X96.922 Y88.249 E62.38201
G1 X104.877 Y96.204 E63.71813
G1 X103.569 Y95.908 E63.87735
G1 X95.979 Y88.318 E65.15227
G1 X95.130 Y88.482 E65.25490
G1 X102.445 Y95.797 E66.48357
G1 X101.356 Y95.720 E66.61325
G1 X94.305 Y88.669 E67.79758
G1 X93.480 Y88.856 E67.89808
G1 X100.434 Y95.811 E69.06612
G1 X99.512 Y95.901 E69.17617
G1 X92.654 Y89.044 E70.32792
G1 X91.829 Y89.231 E70.42843
G1 X98.648 Y96.049 E71.57368
G1 X97.870 Y96.285 E71.67013
G1 X91.004 Y89.418 E72.82344
G1 X90.178 Y89.605 E72.92394
G1 X97.093 Y96.520 E74.08532
G1 X96.344 Y96.783 E74.17962
G1 X89.443 Y89.882 E75.33874
G1 X88.720 Y90.172 E75.43124
G1 X95.684 Y97.136 E76.60093
G1 X95.024 Y97.488 E76.68981
G1 X87.997 Y90.461 E77.87008
G1 X87.274 Y90.750 E77.96258
G1 X94.364 Y97.840 E79.15342
G1 X93.788 Y98.277 E79.23925
G1 X86.550 Y91.040 E80.45482
G1 X85.827 Y91.329 E80.54732
G1 X93.231 Y98.733 E81.79088
G1 X92.675 Y99.189 E81.87633
G1 X85.104 Y91.619 E83.14789
G1 X84.444 Y91.971 E83.23675
G1 X92.143 Y99.670 E84.52979
G1 X91.686 Y100.226 E84.61523
G1 X83.817 Y92.356 E85.93696
G1 X83.189 Y92.741 E86.02439
G1 X91.229 Y100.781 E87.37481
G1 X90.773 Y101.337 E87.46025
G1 X82.562 Y93.126 E88.83935
G1 X81.934 Y93.511 E88.92679
G1 X90.386 Y101.963 E90.34637
G1 X90.033 Y102.623 E90.43522
G1 X81.307 Y93.896 E91.90092
G1 X80.679 Y94.281 E91.98835
G1 X89.680 Y103.282 E93.50016
G1 X89.356 Y103.971 E93.59052
G1 X80.054 Y94.669 E95.15283
G1 X79.525 Y95.152 E95.23795
G1 X89.120 Y104.747 E96.84954
G1 X88.884 Y105.524 E96.94593
G1 X78.996 Y95.635 E98.60679
G1 X78.466 Y96.119 E98.69191
G1 X88.671 Y106.323 E100.40586
G1 X88.558 Y107.222 E100.51351
G1 X77.937 Y96.602 E102.29736
G1 X77.408 Y97.085 E102.38248
G1 X84.273 Y103.950 E103.53558
G1 X82.532 Y103.222 F7800.000
G1 X76.879 Y97.569 E104.48509 F1080.000
G1 X76.393 Y98.095 E104.57019
G1 X81.365 Y103.068 E105.40538
G1 X80.420 Y103.135 E105.51796
G1 X75.971 Y98.686 E106.26514
G1 X75.550 Y99.277 E106.35135
G1 X79.597 Y103.324 E107.03109
G1 X78.856 Y103.596 E107.12479
G1 X75.128 Y99.868 E107.75096
G1 X74.706 Y100.459 E107.83717
G1 X78.196 Y103.948 E108.42321
G1 X77.621 Y104.386 E108.50901
G1 X74.285 Y101.050 E109.06940
G1 X73.887 Y101.665 E109.15637
G1 X77.093 Y104.870 E109.69479
G1 X76.636 Y105.426 E109.78022
G1 X73.595 Y102.385 E110.29089
G1 X73.303 Y103.106 E110.38323
G1 X76.256 Y106.058 E110.87906
G1 X75.932 Y106.747 E110.96945
G1 X73.012 Y103.826 E111.45995
G1 X72.720 Y104.547 E111.55229
G1 X75.696 Y107.523 E112.05213
G1 X75.587 Y108.427 E112.16029
G1 X72.428 Y105.268 E112.69097
G1 X72.242 Y106.095 E112.79166
G1 X75.633 Y109.486 E113.36118
G1 X75.973 Y110.838 E113.52684
G1 X72.124 Y106.989 E114.17333
G1 X72.006 Y107.884 E114.28048
G1 X95.171 Y131.049 E118.17126
G1 X96.365 Y131.230 E118.31459
G1 X79.111 Y113.976 E121.21249
G1 X80.465 Y114.317 E121.37828
