; generated by Slic3r 1.1.7 on 2014-11-19 at 18:03:29

; perimeters extrusion width = 0.40mm
; infill extrusion width = 0.42mm
; solid infill extrusion width = 0.42mm
; top infill extrusion width = 0.42mm

G21 ; set units to millimeters
M107
G28 ; home all axes

G90 ; use absolute coordinates
G92 E0
M82 ; use absolute distances for extrusion
G1 F1800.000 E-1.00000
G92 E0
G1 Z0.400 F7800.000
G1 X79.150 Y89.276 F7800.000
G1 E1.00000 F1800.000
G1 X82.721 Y86.438 E1.54170 F1080.000
G1 X83.811 Y85.732 E1.69595
G1 X87.886 Y83.623 E2.24088
G1 X89.078 Y83.144 E2.39348
G1 X93.499 Y81.844 E2.94079
G1 X94.752 Y81.602 E3.09240
G1 X99.351 Y81.161 E3.64104
G1 X100.624 Y81.160 E3.79222
G1 X104.926 Y81.566 E4.30541
G1 X105.229 Y81.595 E4.34163 F1080.000
G1 X106.475 Y81.835 E4.49229
G1 X110.916 Y83.134 E5.04191
G1 X112.091 Y83.606 E5.19218
G1 X116.193 Y85.723 E5.74047
G1 X117.258 Y86.414 E5.89121
G1 X120.859 Y89.268 E6.43692
G1 X121.778 Y90.160 E6.58908
G1 X124.734 Y93.640 E7.13134
G1 X125.469 Y94.709 E7.28548
G1 X127.664 Y98.676 E7.82383
G1 X128.180 Y99.888 E7.98027
G1 X129.530 Y104.183 E8.51499
G1 X129.798 Y105.493 E8.67383
G1 X130.253 Y109.947 E9.20559
G1 X130.253 Y111.302 E9.36644
G1 X129.802 Y115.749 E9.89736
G1 X129.529 Y117.078 E10.05844
G1 X128.190 Y121.355 E10.59075
G1 X127.660 Y122.594 E10.75079
G1 X125.483 Y126.537 E11.28568
G1 X124.727 Y127.633 E11.44385
G1 X121.797 Y131.089 E11.98200
G1 X120.852 Y132.004 E12.13818
G1 X117.281 Y134.842 E12.67988
G1 X116.191 Y135.548 E12.83413
G1 X112.117 Y137.657 E13.37905
G1 X109.849 Y138.359 E13.66091
G1 X106.401 Y138.783 E14.07356
G1 X105.344 Y138.863 E14.19939
G1 X93.870 Y138.822 E15.56215
G1 X90.125 Y138.365 E16.01021
G1 X87.911 Y137.674 E16.28562
G1 X83.809 Y135.557 E16.83390
G1 X82.744 Y134.866 E16.98466
G1 X79.143 Y132.012 E17.53035
G1 X78.224 Y131.120 E17.68251
G1 X75.462 Y127.870 E18.18906
G1 X75.268 Y127.640 E18.22479
G1 X74.532 Y126.570 E18.37894
G1 X72.338 Y122.604 E18.91726
G1 X71.822 Y121.392 E19.07371
G1 X70.472 Y117.097 E19.60844
G1 X70.204 Y115.786 E19.76732
G1 X69.749 Y111.332 E20.29908
G1 X69.749 Y109.979 E20.45979
G1 X70.200 Y105.531 E20.99074
G1 X70.473 Y104.201 E21.15195
G1 X71.813 Y99.924 E21.68424
G1 X72.342 Y98.686 E21.84414
G1 X74.519 Y94.744 E22.37904
G1 X75.275 Y93.647 E22.53727
G1 X78.205 Y90.191 E23.07542
G1 X79.107 Y89.317 E23.22447
G1 F1800.000 E22.22447
G92 E0
G1 X109.160 Y119.476 F7800.000
G1 E1.00000 F1800.000
G1 X107.256 Y121.040 E1.29264 F540.000
G1 X105.083 Y122.202 E1.58532
G1 X102.734 Y122.915 E1.87689
G1 X100.397 Y123.142 E2.15570
G1 X100.147 Y123.142 E2.18543
G1 X97.819 Y122.921 E2.46313
G1 X95.461 Y122.208 E2.75569
G1 X93.287 Y121.048 E3.04831
G1 X91.381 Y119.487 E3.34093
G1 X89.816 Y117.584 E3.63354
G1 X88.654 Y115.412 E3.92610
G1 X87.937 Y113.056 E4.21866
G1 X87.694 Y110.604 E4.51121
G1 X87.935 Y108.153 E4.80377
G1 X88.649 Y105.795 E5.09632
G1 X89.810 Y103.622 E5.38892
G1 X91.373 Y101.718 E5.68153
G1 X93.278 Y100.154 E5.97419
G1 X95.451 Y98.992 E6.26686
G1 X97.809 Y98.276 E6.55953
G1 X100.261 Y98.033 E6.85221
G1 X102.442 Y98.246 E7.11243
G1 X102.713 Y98.273 E7.14488 F540.000
G1 X105.072 Y98.986 E7.43754
G1 X107.246 Y100.146 E7.73017
G1 X109.152 Y101.707 E8.02278
G1 X110.717 Y103.610 E8.31540
G1 X111.880 Y105.781 E8.60795
G1 X112.597 Y108.138 E8.90051
G1 X112.840 Y110.589 E9.19308
G1 X112.599 Y113.041 E9.48562
G1 X111.885 Y115.398 E9.77819
G1 X110.723 Y117.571 E10.07080
G1 X109.198 Y119.430 E10.35629
G1 X108.653 Y118.969 F7800.000
G1 X106.857 Y120.443 E10.63222 F540.000
G1 X104.808 Y121.539 E10.90821
G1 X102.590 Y122.213 E11.18351
G1 X100.366 Y122.428 E11.44889
G1 X100.178 Y122.428 E11.47124
G1 X97.959 Y122.217 E11.73594
G1 X95.735 Y121.544 E12.01185
G1 X93.685 Y120.451 E12.28777
G1 X91.888 Y118.979 E12.56368
G1 X90.413 Y117.185 E12.83957
G1 X89.316 Y115.137 E13.11541
G1 X88.641 Y112.915 E13.39125
G1 X88.412 Y110.604 E13.66707
G1 X88.639 Y108.293 E13.94292
G1 X89.312 Y106.070 E14.21875
G1 X90.407 Y104.021 E14.49464
G1 X91.881 Y102.225 E14.77055
G1 X93.676 Y100.751 E15.04650
G1 X95.725 Y99.655 E15.32247
G1 X97.949 Y98.979 E15.59845
G1 X98.151 Y98.959 E15.62256
G1 X100.261 Y98.750 E15.87443 F540.000
G1 X102.574 Y98.977 E16.15041
G1 X104.798 Y99.649 E16.42638
G1 X106.848 Y100.743 E16.70231
G1 X108.645 Y102.214 E16.97821
G1 X110.121 Y104.009 E17.25410
G1 X111.217 Y106.056 E17.52994
G1 X111.893 Y108.278 E17.80578
G1 X112.122 Y110.590 E18.08162
G1 X111.895 Y112.901 E18.35745
G1 X111.221 Y115.124 E18.63330
G1 X110.127 Y117.173 E18.90919
G1 X108.691 Y118.922 E19.17798
G1 X108.145 Y118.461 F7800.000
G1 X106.458 Y119.846 E19.43722 F378.000
G1 X104.533 Y120.876 E19.69650
G1 X102.446 Y121.510 E19.95553
G1 X100.335 Y121.713 E20.20747
G1 X98.099 Y121.513 E20.47409
G1 X96.009 Y120.881 E20.73334
G1 X94.084 Y119.854 E20.99256
G1 X92.395 Y118.471 E21.25176
G1 X91.009 Y116.786 E21.51093
G1 X89.979 Y114.862 E21.77006
G1 X89.344 Y112.775 E22.02918
G1 X89.129 Y110.604 E22.28828
G1 X89.342 Y108.432 E22.54741
G1 X89.975 Y106.344 E22.80652
G1 X91.004 Y104.420 E23.06570
G1 X92.388 Y102.732 E23.32490
G1 X94.075 Y101.347 E23.58415
G1 X96.000 Y100.318 E23.84343
G1 X98.089 Y99.683 E24.10270
G1 X100.262 Y99.468 E24.36199
G1 X102.302 Y99.668 E24.60552
G1 X102.435 Y99.681 E24.62128 F378.000
G1 X104.524 Y100.313 E24.88055
G1 X106.450 Y101.340 E25.13978
G1 X108.139 Y102.722 E25.39897
G1 X108.223 Y102.825 E25.41474
G1 X109.524 Y104.408 E25.65815
G1 X110.554 Y106.331 E25.91727
G1 X111.189 Y108.419 E26.17640
G1 X111.404 Y110.590 E26.43551
G1 X111.191 Y112.761 E26.69462
G1 X110.558 Y114.849 E26.95375
G1 X109.530 Y116.774 E27.21293
G1 X108.184 Y118.415 E27.46500
G1 F1800.000 E26.46500
G92 E0
G1 X102.293 Y99.535 F7800.000
G1 X105.926 Y130.234 F7800.000
G1 E1.00000 F1800.000
G1 X105.557 Y129.912 E1.05826 F540.000
G1 X104.522 Y128.363 E1.27943
G1 X102.452 Y126.980 E1.57507
G1 X100.011 Y126.495 E1.87069
G1 X97.569 Y126.980 E2.16633
G1 X95.500 Y128.363 E2.46195
G1 X94.454 Y129.929 E2.68558
G1 X94.093 Y130.244 E2.74244
G1 X91.540 Y129.934 E3.04786
G1 X87.912 Y128.062 E3.53274
G1 X84.619 Y125.453 E4.03169
G1 X81.920 Y122.277 E4.52666
G1 X79.917 Y118.658 E5.01791
G1 X78.684 Y114.735 E5.50636
G1 X78.267 Y110.656 E5.99328
G1 X78.681 Y106.577 E6.48026
G1 X79.911 Y102.652 E6.96880
G1 X81.911 Y99.029 E7.46030
G1 X84.608 Y95.849 E7.95549
G1 X87.900 Y93.235 E8.45471
G1 X91.660 Y91.289 E8.95758
G1 X95.744 Y90.088 E9.46313
G1 X99.994 Y89.681 E9.97017
G1 X104.244 Y90.083 E10.47718
G1 X108.329 Y91.277 E10.98268
G1 X112.090 Y93.218 E11.48532
G1 X115.383 Y95.827 E11.98426
G1 X118.082 Y99.002 E12.47923
G1 X120.085 Y102.621 E12.97048
G1 X121.318 Y106.545 E13.45894
G1 X121.735 Y110.624 E13.94589
G1 X121.321 Y114.703 E14.43284
G1 X120.092 Y118.628 E14.92139
G1 X118.091 Y122.251 E15.41287
G1 X115.394 Y125.431 E15.90808
G1 X112.102 Y128.045 E16.40731
G1 X108.477 Y129.920 E16.89203
G1 X105.986 Y130.227 E17.19016
G1 X106.013 Y130.943 F7800.000
G1 X105.697 Y130.982 E17.22803 F540.000
G1 X105.016 Y130.387 E17.33543
G1 X104.007 Y128.878 E17.55101
G1 X102.174 Y127.653 E17.81290
G1 X100.011 Y127.223 E18.07478
G1 X97.848 Y127.653 E18.33667
G1 X96.015 Y128.878 E18.59856
G1 X94.995 Y130.404 E18.81657
G1 X94.323 Y130.991 E18.92249
G1 X91.327 Y130.627 E19.28094
G1 X87.522 Y128.664 E19.78949
G1 X84.119 Y125.968 E20.30507
G1 X81.329 Y122.684 E20.81686
G1 X79.257 Y118.940 E21.32509
G1 X77.981 Y114.879 E21.83065
G1 X77.549 Y110.656 E22.33474
G1 X77.977 Y106.433 E22.83890
G1 X79.250 Y102.370 E23.34453
G1 X81.320 Y98.623 E23.85298
G1 X84.108 Y95.335 E24.36495
G1 X87.508 Y92.633 E24.88076
G1 X91.391 Y90.623 E25.40006
G1 X95.607 Y89.384 E25.92192
G1 X99.795 Y88.982 E26.42158
G1 X99.993 Y88.963 E26.44521 F540.000
G1 X104.379 Y89.378 E26.96847
G1 X108.596 Y90.612 E27.49029
G1 X112.481 Y92.616 E28.00938
G1 X115.883 Y95.312 E28.52496
G1 X118.673 Y98.596 E29.03674
G1 X120.745 Y102.340 E29.54498
G1 X122.021 Y106.401 E30.05055
G1 X122.453 Y110.624 E30.55467
G1 X122.025 Y114.847 E31.05880
G1 X120.752 Y118.910 E31.56444
G1 X118.682 Y122.657 E32.07288
G1 X115.894 Y125.945 E32.58486
G1 X112.494 Y128.647 E33.10068
G1 X108.693 Y130.613 E33.60894
G1 X106.073 Y130.936 E33.92244
G1 X106.101 Y131.652 F7800.000
G1 X105.468 Y131.730 E33.99817 F378.000
G1 X104.479 Y130.870 E34.15374
G1 X103.492 Y129.393 E34.36473
G1 X101.895 Y128.326 E34.59288
G1 X100.011 Y127.951 E34.82102
G1 X98.127 Y128.326 E35.04917
G1 X96.530 Y129.393 E35.27732
G1 X95.536 Y130.880 E35.48971
G1 X94.553 Y131.738 E35.64470
G1 X91.110 Y131.319 E36.05665
G1 X87.131 Y129.266 E36.58836
G1 X83.619 Y126.483 E37.12057
G1 X80.738 Y123.091 E37.64917
G1 X78.721 Y119.448 E38.14360
G1 X78.597 Y119.221 E38.17439
G1 X77.278 Y115.023 E38.69706
G1 X76.831 Y110.656 E39.21834
G1 X77.274 Y106.289 E39.73967
G1 X78.590 Y102.089 E40.26238
G1 X80.728 Y98.216 E40.78779
G1 X83.607 Y94.820 E41.31653
G1 X87.117 Y92.032 E41.84894
G1 X91.123 Y89.958 E42.38467
G1 X95.470 Y88.680 E42.92283
G1 X99.992 Y88.246 E43.46238
G1 X104.249 Y88.648 E43.97020
G1 X104.515 Y88.674 E44.00188 F378.000
G1 X108.864 Y89.946 E44.54003
G1 X112.871 Y92.014 E45.07558
G1 X116.383 Y94.797 E45.60778
G1 X119.264 Y98.189 E46.13638
G1 X121.405 Y102.059 E46.66160
G1 X122.724 Y106.257 E47.18428
G1 X123.171 Y110.624 E47.70558
G1 X122.728 Y114.991 E48.22688
G1 X121.413 Y119.191 E48.74962
G1 X119.274 Y123.064 E49.27501
G1 X116.395 Y126.460 E49.80377
G1 X112.885 Y129.248 E50.33618
G1 X108.909 Y131.306 E50.86794
G1 X106.160 Y131.644 E51.19685
G1 F1800.000 E50.19685
G92 E0
G1 X104.476 Y88.788 F7800.000
G1 X107.255 Y91.482 F7800.000
G1 E1.00000 F1800.000
G1 X120.099 Y104.326 E3.15723 F1080.000
G1 X120.565 Y105.807 E3.34166
G1 X105.819 Y91.062 E5.81825
G1 X104.383 Y90.642 E5.99592
G1 X120.878 Y107.137 E8.76639
G1 X120.994 Y108.269 E8.90149
G1 X103.210 Y90.485 E11.88845
G1 X102.088 Y90.379 E12.02229
G1 X121.110 Y109.400 E15.21713
G1 X121.226 Y110.532 E15.35223
G1 X100.967 Y90.273 E18.75496
G1 X99.871 Y90.193 E18.88546
G1 X121.149 Y111.471 E22.45939
G1 X121.056 Y112.393 E22.56949
G1 X98.944 Y90.281 E26.28339
G1 X98.017 Y90.370 E26.39399
G1 X107.207 Y99.560 E27.93753
G1 X105.107 Y98.477 F7800.000
G1 X97.090 Y90.459 E29.28415 F1080.000
G1 X96.163 Y90.548 E29.39474
G1 X103.651 Y98.036 E30.65247
G1 X102.334 Y97.736 E30.81285
G1 X95.328 Y90.729 E31.98963
G1 X94.543 Y90.960 E32.08681
G1 X101.208 Y97.625 E33.20633
G1 X100.114 Y97.547 E33.33660
G1 X93.758 Y91.191 E34.40420
G1 X92.973 Y91.422 E34.50139
G1 X99.190 Y97.639 E35.54560
G1 X98.266 Y97.730 E35.65592
G1 X92.188 Y91.652 E36.67674
G1 X91.468 Y91.949 E36.76917
G1 X97.399 Y97.880 E37.76537
G1 X96.620 Y98.116 E37.86209
G1 X90.799 Y92.295 E38.83985
G1 X90.129 Y92.641 E38.92937
G1 X95.841 Y98.353 E39.88871
G1 X95.092 Y98.620 E39.98318
G1 X89.460 Y92.988 E40.92907
G1 X88.790 Y93.334 E41.01859
G1 X94.430 Y98.973 E41.96576
G1 X93.768 Y99.327 E42.05490
G1 X88.129 Y93.688 E43.00203
G1 X87.563 Y94.138 E43.08790
G1 X93.106 Y99.681 E44.01895
G1 X92.531 Y100.123 E44.10499
G1 X86.996 Y94.588 E45.03463
G1 X86.430 Y95.038 E45.12050
G1 X91.974 Y100.581 E46.05153
G1 X91.416 Y101.039 E46.13725
G1 X85.864 Y95.487 E47.06967
G1 X85.298 Y95.937 E47.15554
G1 X90.887 Y101.526 E48.09422
G1 X90.429 Y102.084 E48.17995
G1 X84.771 Y96.426 E49.13016
G1 X84.305 Y96.976 E49.21576
G1 X89.971 Y102.642 E50.16738
G1 X89.513 Y103.200 E50.25311
G1 X83.839 Y97.526 E51.20612
G1 X83.373 Y98.075 E51.29172
G1 X89.132 Y103.835 E52.25909
G1 X88.779 Y104.497 E52.34824
G1 X82.907 Y98.625 E53.33449
G1 X82.441 Y99.175 E53.42009
G1 X88.425 Y105.159 E54.42522
G1 X88.110 Y105.860 E54.51646
G1 X82.053 Y99.803 E55.53378
G1 X81.691 Y100.457 E55.62257
G1 X87.873 Y106.639 E56.66090
G1 X87.637 Y107.419 E56.75764
G1 X81.330 Y101.112 E57.81699
G1 X80.969 Y101.766 E57.90578
G1 X87.428 Y108.225 E58.99063
G1 X87.337 Y109.150 E59.10103
G1 X80.607 Y102.420 E60.23134
G1 X80.287 Y103.116 E60.32229
G1 X87.246 Y110.075 E61.49114
G1 X87.242 Y111.087 E61.61129
G1 X80.044 Y103.889 E62.82015
G1 X79.802 Y104.663 E62.91642
G1 X87.353 Y112.214 E64.18474
G1 X87.521 Y113.397 E64.32662
G1 X79.560 Y105.436 E65.66371
G1 X79.317 Y106.210 E65.75998
G1 X87.964 Y114.857 E67.21234
G1 X88.763 Y116.672 F7800.000
G1 X79.134 Y107.042 E68.82971 F1080.000
G1 X79.040 Y107.964 E68.93981
G1 X97.552 Y126.476 E72.04904
G1 X96.893 Y126.833 E72.13803
G1 X78.947 Y108.887 E75.15235
G1 X78.853 Y109.809 E75.26245
G1 X96.284 Y127.240 E78.19020
G1 X95.675 Y127.647 E78.27718
G1 X78.777 Y110.748 E81.11550
G1 X78.892 Y111.880 E81.25059
G1 X95.091 Y128.079 E83.97134
G1 X94.684 Y128.688 E84.05833
G1 X79.008 Y113.012 E86.69130
G1 X79.124 Y114.143 E86.82639
G1 X94.277 Y129.297 E89.37159
G1 X93.654 Y129.689 E89.45909
G1 X79.438 Y115.473 E91.84684
G1 X79.903 Y116.954 E92.03127
G1 X92.498 Y129.549 E94.14664
G1 X91.058 Y129.125 E94.32481
G1 X80.369 Y118.436 E96.12025
G1 X81.614 Y120.697 F7800.000
G1 X88.960 Y128.043 E97.35409 F1080.000
G1 X85.103 Y125.202 F7800.000
G1 X84.806 Y124.904 E97.40408 F1080.000
G1 X94.180 Y122.088 F7800.000
G1 X98.399 Y126.308 E98.11278 F1080.000
G1 X99.247 Y126.139 E98.21539
G1 X95.997 Y122.890 E98.76119
G1 X97.453 Y123.330 E98.94188
G1 X100.135 Y126.012 E99.39234
G1 X101.403 Y126.264 E99.54590
G1 X98.638 Y123.499 E100.01042
G1 X99.760 Y123.605 E100.14436
G1 X102.707 Y126.552 E100.63924
G1 X102.630 Y123.427 F7800.000
G1 X108.534 Y129.331 E101.63081 F1080.000
G1 X109.203 Y128.985 E101.72033
G1 X103.440 Y123.221 E102.68836
G1 X104.219 Y122.984 E102.78507
G1 X109.873 Y128.638 E103.73468
G1 X110.542 Y128.292 E103.82420
G1 X104.998 Y122.748 E104.75539
G1 X105.701 Y122.435 E104.84681
G1 X111.212 Y127.946 E105.77229
G1 X111.873 Y127.591 E105.86143
G1 X106.363 Y122.081 E106.78688
G1 X107.025 Y121.727 E106.87603
G1 X112.439 Y127.142 E107.78541
G1 X113.006 Y126.692 E107.87128
G1 X107.663 Y121.349 E108.76862
G1 X108.221 Y120.891 E108.85434
G1 X113.572 Y126.242 E109.75308
G1 X114.138 Y125.793 E109.83895
G1 X108.779 Y120.433 E110.73908
G1 X109.337 Y119.975 E110.82480
G1 X114.704 Y125.343 E111.72633
G1 X115.231 Y124.854 E111.81170
G1 X109.826 Y119.449 E112.71941
G1 X110.284 Y118.891 E112.80513
G1 X115.697 Y124.304 E113.71425
G1 X116.163 Y123.754 E113.79985
G1 X110.742 Y118.333 E114.71036
G1 X111.186 Y117.762 E114.79634
G1 X116.629 Y123.205 E115.71056
G1 X117.095 Y122.655 E115.79616
G1 X111.540 Y117.099 E116.72926
G1 X111.894 Y116.437 E116.81841
G1 X117.561 Y122.105 E117.77038
G1 X117.949 Y121.477 E117.85804
G1 X112.247 Y115.775 E118.81574
G1 X112.517 Y115.029 E118.91000
G1 X118.311 Y120.823 E119.88319
G1 X118.672 Y120.169 E119.97198
G1 X112.753 Y114.249 E120.96621
G1 X112.989 Y113.470 E121.06296
G1 X119.034 Y119.514 E122.07822
G1 X119.395 Y118.860 E122.16700
G1 X113.142 Y112.606 E123.21735
G1 X113.232 Y111.681 E123.32774
G1 X119.716 Y118.164 E124.41663
G1 X119.958 Y117.391 E124.51290
G1 X113.323 Y110.756 E125.62723
G1 X113.248 Y109.665 E125.75711
G1 X120.200 Y116.617 E126.92476
G1 X120.442 Y115.844 E127.02103
G1 X113.136 Y108.538 E128.24814
G1 X112.839 Y107.224 E128.40805
G1 X120.685 Y115.070 E129.72580
G1 X120.868 Y114.238 E129.82703
G1 X112.395 Y105.765 E131.25017
G1 X111.311 Y103.665 F7800.000
G1 X120.962 Y113.316 E132.87107 F1080.000
G1 X119.633 Y102.844 F7800.000
G1 X108.944 Y92.155 E134.66650 F1080.000
G1 X111.042 Y93.237 F7800.000
G1 X118.388 Y100.583 E135.90031 F1080.000
G1 X115.196 Y96.376 F7800.000
G1 X114.899 Y96.078 E135.95031 F1080.000
G1 X107.701 Y129.514 F7800.000
G1 X101.704 Y123.517 E136.95757 F1080.000
G1 X100.777 Y123.606 E137.06820
G1 X106.797 Y129.626 E138.07926
G1 F1800.000 E137.07926
G92 E0
G1 Z0.800 F7800.000
G1 X103.146 Y121.925 F7800.000
G1 E1.00000 F1800.000
G1 X102.567 Y122.100 E1.04023 F1800.000
G1 X102.176 Y122.121 E1.06624
G1 X100.454 Y122.291 E1.18138
G1 X100.090 Y122.291 E1.20561
G1 X98.367 Y122.123 E1.32073
G1 X97.981 Y122.104 E1.34643
G1 X95.779 Y121.438 E1.49948
G1 X93.749 Y120.356 E1.65253
G1 X91.969 Y118.898 E1.80557
G1 X90.508 Y117.121 E1.95860
G1 X89.422 Y115.093 E2.11160
G1 X88.753 Y112.893 E2.26461
G1 X88.527 Y110.604 E2.41760
G1 X88.751 Y108.315 E2.57060
G1 X89.418 Y106.114 E2.72360
G1 X90.502 Y104.085 E2.87662
