; generated by Slic3r 1.1.7 on 2014-11-19 at 21:10:53

; perimeters extrusion width = 0.40mm
; infill extrusion width = 0.42mm
; solid infill extrusion width = 0.42mm
; top infill extrusion width = 0.42mm

G21 ; set units to millimeters
M107
G28 ; home all axes

G90 ; use absolute coordinates
G92 E0
M82 ; use absolute distances for extrusion
G1 F1800.000 E-1.00000
G92 E0
G1 Z0.400 F7800.000
G1 X65.471 Y93.703 F7800.000
G1 E1.00000 F1800.000
G1 X69.041 Y91.208 E1.51721 F1080.000
G1 X70.405 Y90.610 E1.69410
G1 X75.252 Y89.115 E2.29653
G1 X75.511 Y89.074 E2.32766
G1 X76.815 Y88.951 E2.48322
G1 X81.798 Y89.019 E3.07517
G1 X130.202 Y96.058 E8.88428 F1080.000
G1 X131.892 Y96.570 E9.09401
G1 X133.105 Y97.071 E9.24989
G1 X134.665 Y97.903 E9.45986
G1 X135.774 Y98.645 E9.61833
G1 X137.136 Y99.767 E9.82793
G1 X138.052 Y100.683 E9.98180
G1 X139.172 Y102.045 E10.19116
G1 X139.911 Y103.150 E10.34906
G1 X140.743 Y104.711 E10.55921
G1 X141.242 Y105.916 E10.71401
G1 X141.756 Y107.604 E10.92358
G1 X142.016 Y108.906 E11.08124
G1 X142.193 Y110.731 E11.29901
G1 X142.209 Y111.642 E11.40723
G1 X142.015 Y113.728 E11.65606
G1 X141.758 Y115.025 E11.81311
G1 X141.244 Y116.717 E12.02313
G1 X140.743 Y117.925 E12.17847
G1 X140.627 Y118.139 E12.20735
G1 X139.002 Y120.796 E12.57722
G1 X138.054 Y121.949 E12.75452
G1 X137.132 Y122.871 E12.90942
G1 X135.770 Y123.991 E13.11888
G1 X134.671 Y124.726 E13.27589
G1 X133.111 Y125.560 E13.48597
G1 X131.892 Y126.065 E13.64263
G1 X130.202 Y126.577 E13.85237
G1 X128.917 Y126.833 E14.00795
G1 X127.087 Y127.014 E14.22642
G1 X80.843 Y131.049 E19.73945
G1 X75.758 Y130.965 E20.34342
G1 X74.246 Y130.643 E20.52705
G1 X69.390 Y128.974 E21.13685
G1 X68.089 Y128.215 E21.31577
G1 X64.026 Y125.163 E21.91933
G1 X62.982 Y124.003 E22.10460
G1 X60.066 Y119.847 E22.70758
G1 X59.429 Y118.420 E22.89317
G1 X57.932 Y113.519 E23.50185
G1 X57.781 Y112.013 E23.68158
G1 X57.857 Y106.977 E24.27971
G1 X58.185 Y105.414 E24.46944
G1 X59.836 Y100.601 E25.07378
G1 X60.621 Y99.246 E25.25982
G1 X63.485 Y95.395 E25.82974
G1 X63.747 Y95.117 E25.87508
G1 X64.829 Y94.151 E26.04735
G1 X65.422 Y93.737 E26.13323
G1 F1800.000 E25.13323
G92 E0
G1 X77.573 Y120.704 F7800.000
G1 E1.00000 F1800.000
G1 X77.200 Y121.853 E1.14347 F540.000
G1 X76.718 Y121.778 E1.20132
G1 X76.714 Y120.572 E1.34448
G1 X76.502 Y120.508 E1.37078
G1 X76.498 Y120.089 E1.42057
G1 X76.684 Y120.028 E1.44381
G1 X77.207 Y119.649 E1.52050
G1 X77.745 Y120.040 E1.59953
G1 X78.335 Y120.232 E1.67323
G1 X78.253 Y120.718 E1.73177
G1 X77.632 Y120.705 E1.80547
G1 X80.088 Y120.702 F7800.000
G1 X79.420 Y120.717 E1.88481 F540.000
G1 X79.338 Y120.231 E1.94345
G1 X79.924 Y120.040 E2.01668
G1 X80.507 Y119.617 E2.10221
G1 X81.565 Y120.385 E2.25751
G1 X80.954 Y120.572 E2.33346
G1 X80.940 Y121.776 E2.47638
G1 X80.461 Y121.849 E2.53403
G1 X80.107 Y120.759 E2.67014
G1 X83.425 Y119.950 F7800.000
G1 X84.124 Y119.443 E2.77270 F540.000
G1 X84.482 Y120.560 E2.91206
G1 X84.054 Y120.782 E2.96935
G1 X83.461 Y119.998 E3.08614
G1 X74.298 Y119.869 F7800.000
G1 X73.603 Y120.789 E3.22306 F540.000
G1 X73.176 Y120.571 E3.27994
G1 X73.555 Y119.330 E3.43405
G1 X74.249 Y119.834 E3.53592
G1 X72.702 Y119.678 F7800.000
G1 X72.215 Y119.337 E3.60652 F378.000
G1 X72.341 Y118.937 E3.65630
G1 X72.513 Y118.937 E3.67678
G1 X73.024 Y118.771 E3.74059
G1 X73.460 Y118.455 E3.80450
G1 X73.868 Y117.892 E3.88711
G1 X74.117 Y118.656 E3.98258
G1 X74.424 Y119.078 E4.04456
G1 X74.846 Y119.384 E4.10637
G1 X75.340 Y119.545 E4.16808
G1 X75.861 Y119.545 E4.23003
G1 X76.356 Y119.384 E4.29179
G1 X76.777 Y119.078 E4.35365
G1 X77.209 Y118.483 E4.44096
G1 X77.649 Y119.088 E4.52978
G1 X78.073 Y119.396 E4.59208
G1 X78.571 Y119.558 E4.65428
G1 X79.097 Y119.558 E4.71673
G1 X79.596 Y119.396 E4.77898
G1 X80.021 Y119.087 E4.84133
G1 X80.508 Y118.415 E4.93998
G1 X81.003 Y119.094 E5.03979
G1 X81.430 Y119.404 E5.10245
G1 X81.930 Y119.567 E5.16500
G1 X82.459 Y119.567 E5.22781
G1 X82.961 Y119.404 E5.29042
G1 X83.388 Y119.094 E5.35311
G1 X83.698 Y118.666 E5.41591
G1 X83.963 Y117.852 E5.51765
G1 X84.320 Y118.342 E5.58964
G1 X84.751 Y118.654 E5.65288
G1 X85.256 Y118.819 E5.71601
G1 X85.485 Y118.819 E5.74313
G1 X85.610 Y119.219 E5.79292
G1 X84.950 Y119.680 E5.88861
G1 X85.199 Y120.457 E5.98550
G1 X85.283 Y120.971 E6.04734
G1 X85.314 Y121.527 E6.11347
G1 X85.297 Y122.121 E6.18404
G1 X85.243 Y122.595 E6.24072
G1 X84.826 Y122.354 E6.29798
G1 X84.343 Y122.025 E6.36733
G1 X83.914 Y121.670 E6.43351
G1 X83.546 Y121.295 E6.49583
G1 X83.060 Y120.652 E6.59157
G1 X81.662 Y121.102 E6.76603
G1 X81.653 Y121.911 E6.86209
G1 X81.574 Y122.438 E6.92538
G1 X81.440 Y122.968 E6.99028
G1 X81.240 Y123.521 E7.06016
G1 X81.039 Y123.957 E7.11720
G1 X80.714 Y123.602 E7.17448
G1 X80.360 Y123.140 E7.24354
G1 X80.057 Y122.673 E7.30970
G1 X79.826 Y122.208 E7.37137
G1 X79.573 Y121.428 E7.46869
G1 X78.857 Y121.445 E7.55382
G1 X78.088 Y121.429 E7.64513
G1 X77.836 Y122.206 E7.74213
G1 X77.599 Y122.672 E7.80425
G1 X77.300 Y123.140 E7.87025
G1 X76.942 Y123.601 E7.93953
G1 X76.617 Y123.958 E7.99683
G1 X76.420 Y123.523 E8.05357
G1 X76.222 Y122.968 E8.12350
G1 X76.087 Y122.437 E8.18863
G1 X76.005 Y121.911 E8.25182
G1 X76.002 Y121.102 E8.34789
G1 X74.602 Y120.651 E8.52253
G1 X74.116 Y121.295 E8.61833
G1 X73.745 Y121.669 E8.68098
G1 X73.314 Y122.025 E8.74724
G1 X72.829 Y122.354 E8.81689
G1 X72.415 Y122.596 E8.87389
G1 X72.362 Y122.121 E8.93071
G1 X72.343 Y121.526 E9.00135
G1 X72.375 Y120.973 E9.06716
G1 X72.465 Y120.456 E9.12946
G1 X72.685 Y119.735 E9.21900
G1 X72.896 Y119.328 F7800.000
G1 F1800.000 E8.21900
G92 E0
G1 X70.983 Y108.099 F7800.000
G1 E1.00000 F1800.000
G1 X70.983 Y103.870 E1.50218 F540.000
G1 X86.655 Y103.870 E3.36353
G1 X86.655 Y108.099 E3.86571
G1 X71.043 Y108.099 E5.71993
G1 X71.697 Y107.385 F7800.000
G1 X71.697 Y104.585 E6.05247 F378.000
G1 X85.941 Y104.585 E7.74419
G1 X85.941 Y107.385 E8.07673
G1 X71.757 Y107.385 E9.76132
G1 X71.297 Y107.385 F7800.000
G1 X71.203 Y111.841 F7800.000
G1 X71.702 Y112.003 E9.82368 F378.000
G1 X72.127 Y112.312 E9.88613 F378.000
G1 X72.436 Y112.737 E9.94854
G1 X72.599 Y113.238 E10.01102
G1 X72.599 Y113.669 E10.06221
G1 X72.628 Y113.674 E10.06571
G1 X72.436 Y114.262 E10.13919
G1 X72.127 Y114.688 E10.20170
G1 X71.702 Y114.997 E10.26413
G1 X71.203 Y115.159 E10.32644
G1 X70.677 Y115.159 E10.38895
G1 X70.178 Y114.997 E10.45124
G1 X69.753 Y114.688 E10.51360
G1 X69.443 Y114.262 E10.57614
G1 X69.280 Y113.763 E10.63852
G1 X69.280 Y113.238 E10.70092
G1 X69.443 Y112.737 E10.76345
G1 X69.753 Y112.312 E10.82591
G1 X70.177 Y112.003 E10.88829
G1 X70.677 Y111.841 E10.95062
G1 X71.143 Y111.841 E11.00601
G1 X72.038 Y111.785 F7800.000
G1 X73.304 Y113.058 F7800.000
G1 X73.623 Y112.621 E11.07022 F378.000
G1 X74.059 Y112.303 E11.13439
G1 X74.572 Y112.136 E11.19846
G1 X75.114 Y112.136 E11.26274
G1 X75.627 Y112.303 E11.32686
G1 X76.064 Y112.621 E11.39107 F378.000
G1 X76.382 Y113.058 E11.45525
G1 X76.549 Y113.573 E11.51948
G1 X76.549 Y114.112 E11.58359
G1 X76.382 Y114.625 E11.64765
G1 X76.064 Y115.064 E11.71193
G1 X75.627 Y115.381 E11.77611
G1 X75.114 Y115.548 E11.84019
G1 X74.572 Y115.548 E11.90447
G1 X74.060 Y115.381 E11.96850
G1 X73.623 Y115.064 E12.03264
G1 X73.304 Y114.626 E12.09695
G1 X73.137 Y114.113 E12.16107
G1 X73.137 Y113.666 E12.21406
G1 X73.108 Y113.662 E12.21755
G1 X73.286 Y113.115 E12.28588
G1 F1800.000 E11.28588
G92 E0
G1 X75.908 Y112.018 F7800.000
G1 X69.329 Y115.320 F7800.000
G1 E1.00000 F1800.000
G1 X68.274 Y115.650 E1.13131 F540.000
G1 X68.054 Y115.223 E1.18835
G1 X68.830 Y114.634 E1.30407
G1 X69.294 Y115.271 E1.39761
G1 X70.269 Y108.813 F7800.000
G1 X87.370 Y108.813 E3.42860 F540.000
G1 X87.370 Y105.427 E3.83076
G1 X87.768 Y105.300 E3.88042
G1 X87.924 Y105.521 E3.91245
G1 X88.818 Y108.421 E4.27285
G1 X88.844 Y110.014 E4.46213
G1 X88.823 Y111.217 E4.60508
G1 X87.915 Y110.556 E4.73845
G1 X86.958 Y110.245 E4.85805
G1 X85.950 Y110.245 E4.97775
G1 X84.992 Y110.556 E5.09731
G1 X84.263 Y111.088 E5.20446
G1 X83.147 Y110.724 E5.34391
G1 X82.157 Y110.724 E5.46139
G1 X81.218 Y111.030 E5.57867
G1 X80.775 Y111.353 E5.64380
G1 X80.311 Y111.015 E5.71203
G1 X79.359 Y110.705 E5.83087
G1 X78.357 Y110.705 E5.94986
G1 X77.406 Y111.015 E6.06864
G1 X76.846 Y111.423 E6.15100
G1 X76.284 Y111.015 E6.23345
G1 X75.340 Y110.707 E6.35138
G1 X74.346 Y110.707 E6.46948
G1 X73.402 Y111.015 E6.58738
G1 X73.087 Y111.244 E6.63367
G1 X72.360 Y110.715 E6.74050
G1 X71.429 Y110.412 E6.85668
G1 X70.450 Y110.412 E6.97299
G1 X69.520 Y110.715 E7.08916
G1 X68.829 Y111.218 E7.19059
G1 X68.813 Y110.001 E7.33516
G1 X68.834 Y108.443 E7.52015
G1 X69.305 Y106.904 E7.71135
G1 X69.791 Y105.483 E7.88968
G1 X70.269 Y105.563 E7.94717
G1 X70.269 Y108.753 E8.32608
G1 X71.917 Y103.156 F7800.000
G1 X71.787 Y102.766 E8.37499 F540.000
G1 X72.941 Y101.899 E8.54637
G1 X74.208 Y101.017 E8.72977
G1 X75.757 Y100.468 E8.92490
G1 X77.332 Y99.993 E9.12023
G1 X78.849 Y99.984 E9.30039
G1 X80.450 Y100.020 E9.49064
G1 X81.923 Y100.475 E9.67373
G1 X83.382 Y100.975 E9.85690
G1 X84.717 Y101.900 E10.04984
G1 X85.895 Y102.761 E10.22310
G1 X85.767 Y103.156 E10.27244
G1 X71.977 Y103.156 E11.91013
G1 X70.899 Y102.708 F7800.000
G1 X70.195 Y101.705 E12.05562 F540.000
G1 X70.535 Y101.366 E12.11270
G1 X71.529 Y102.067 E12.25714
G1 X72.522 Y101.321 E12.40462
G1 X73.537 Y100.614 E12.55150
G1 X73.178 Y99.437 E12.69767
G1 X73.609 Y99.221 E12.75490
G1 X74.339 Y100.213 E12.90119
G1 X75.527 Y99.792 E13.05095
G1 X76.714 Y99.433 E13.19814
G1 X76.718 Y98.226 E13.34153
G1 X77.198 Y98.149 E13.39922
G1 X77.572 Y99.279 E13.54054
G1 X78.841 Y99.270 E13.69124
G1 X80.084 Y99.297 E13.83892
G1 X80.462 Y98.153 E13.98204
G1 X80.940 Y98.227 E14.03951
G1 X80.954 Y99.428 E14.18207
G1 X82.144 Y99.795 E14.33005
G1 X83.331 Y100.202 E14.47901
G1 X84.047 Y99.228 E14.62264
G1 X84.479 Y99.448 E14.68028
G1 X84.108 Y100.609 E14.82501
G1 X85.135 Y101.321 E14.97337
G1 X86.145 Y102.061 E15.12203
G1 X87.132 Y101.358 E15.26587
G1 X87.473 Y101.695 E15.32280
G1 X86.779 Y102.702 E15.46808
G1 X88.231 Y104.718 E15.76307
G1 X89.378 Y104.357 E15.90586
G1 X89.598 Y104.785 E15.96297
G1 X88.661 Y105.493 E16.10252
G1 X89.400 Y107.881 E16.39938
G1 X90.605 Y107.890 E16.54252
G1 X90.682 Y108.367 E16.59990
G1 X89.538 Y108.754 E16.74337
G1 X89.558 Y110.014 E16.89306
G1 X89.537 Y111.253 E17.04022
G1 X90.682 Y111.632 E17.18356
G1 X90.608 Y112.111 E17.24104
G1 X89.401 Y112.124 E17.38440
G1 X89.226 Y112.693 E17.45510
G1 X88.807 Y112.696 E17.50483
G1 X88.676 Y112.291 E17.55541
G1 X88.217 Y111.660 E17.64807
G1 X87.586 Y111.200 E17.74075
G1 X86.844 Y110.959 E17.83343
G1 X86.063 Y110.959 E17.92624
G1 X85.321 Y111.200 E18.01887
G1 X84.691 Y111.659 E18.11142
G1 X84.360 Y112.113 E18.17814
G1 X83.757 Y111.674 E18.26675
G1 X83.033 Y111.439 E18.35714
G1 X82.271 Y111.439 E18.44771
G1 X81.547 Y111.674 E18.53807
G1 X80.775 Y112.237 E18.65152
G1 X79.982 Y111.659 E18.76805
G1 X79.246 Y111.420 E18.85997
G1 X78.471 Y111.420 E18.95206
G1 X77.735 Y111.659 E19.04393
G1 X77.110 Y112.114 E19.13573
G1 X76.844 Y112.479 E19.18940
G1 X76.576 Y112.110 E19.24359
G1 X75.956 Y111.659 E19.33465
G1 X75.227 Y111.422 E19.42568
G1 X74.459 Y111.422 E19.51687
G1 X73.731 Y111.659 E19.60786
G1 X72.949 Y112.228 E19.72271
G1 X72.639 Y111.801 E19.78535
G1 X72.031 Y111.359 E19.87465
G1 X71.316 Y111.126 E19.96391
G1 X70.563 Y111.126 E20.05333
G1 X69.849 Y111.359 E20.14258
G1 X69.242 Y111.801 E20.23172
G1 X68.480 Y112.845 E20.38518
G1 X68.259 Y112.124 E20.47472
G1 X67.049 Y112.111 E20.61850
G1 X66.974 Y111.633 E20.67591
G1 X68.116 Y111.252 E20.81882
G1 X68.099 Y110.001 E20.96751
G1 X68.116 Y108.755 E21.11540
G1 X66.975 Y108.366 E21.25855
G1 X67.052 Y107.890 E21.31587
G1 X68.259 Y107.881 E21.45922
G1 X68.625 Y106.683 E21.60797
G1 X69.027 Y105.509 E21.75539
G1 X68.060 Y104.785 E21.89890
G1 X68.280 Y104.356 E21.95612
G1 X69.442 Y104.720 E22.10072
G1 X70.161 Y103.676 E22.25127
G1 X70.863 Y102.755 E22.38872
G1 F1800.000 E21.38872
G92 E0
G1 X88.161 Y115.264 F7800.000
G1 E1.00000 F1800.000
G1 X88.695 Y114.527 E1.10812 F540.000
G1 X89.604 Y115.223 E1.24406
G1 X89.384 Y115.648 E1.30101
G1 X88.218 Y115.282 E1.44608
G1 X90.260 Y110.740 F7800.000
G1 X91.032 Y110.996 E1.54266 F378.000
G1 X91.498 Y111.229 E1.60456
G1 X91.967 Y111.533 E1.67093
G1 X92.434 Y111.886 E1.74052
G1 X92.788 Y112.212 E1.79770
G1 X92.349 Y112.412 E1.85501
G1 X91.799 Y112.606 E1.92431
G1 X91.259 Y112.748 E1.99062
G1 X90.742 Y112.823 E2.05269
G1 X89.930 Y112.832 E2.14907
G1 X89.481 Y114.229 E2.32333
G1 X90.123 Y114.720 E2.41941
G1 X90.498 Y115.084 E2.48147
G1 X90.851 Y115.514 E2.54747
G1 X91.183 Y115.997 E2.61719
G1 X91.421 Y116.416 E2.67431
G1 X90.942 Y116.470 E2.73157
G1 X90.364 Y116.489 E2.80028
G1 X89.803 Y116.451 E2.86706
G1 X89.288 Y116.367 E2.92904
G1 X88.516 Y116.125 E3.02504
G1 X87.656 Y117.318 E3.19975
G1 X88.114 Y117.977 E3.29499
G1 X88.356 Y118.441 E3.35723
G1 X88.562 Y118.965 E3.42405
G1 X88.726 Y119.524 E3.49327
G1 X88.823 Y119.994 E3.55026
G1 X88.351 Y119.897 E3.60748
G1 X87.789 Y119.732 E3.67711
G1 X87.269 Y119.527 E3.74348
G1 X86.805 Y119.285 E3.80565
G1 X86.111 Y118.789 E3.90693
G1 X86.727 Y118.341 E3.99735
G1 X87.041 Y117.909 E4.06075
G1 X87.245 Y117.280 E4.13932
G1 X87.205 Y117.267 E4.14433
G1 X87.205 Y116.871 E4.19135
G1 X87.041 Y116.364 E4.25470
G1 X86.727 Y115.933 E4.31800
G1 X86.225 Y115.567 E4.39187
G1 X86.353 Y115.172 E4.44114
G1 X86.731 Y115.172 E4.48605
G1 X87.257 Y115.001 E4.55177
G1 X87.706 Y114.676 E4.61757
G1 X88.032 Y114.226 E4.68349
G1 X88.203 Y113.700 E4.74919
G1 X88.203 Y113.147 E4.81492
G1 X88.032 Y112.619 E4.88079
G1 X87.706 Y112.171 E4.94661
G1 X87.258 Y111.844 E5.01244
G1 X86.731 Y111.673 E5.07820
G1 X86.176 Y111.673 E5.14411
G1 X85.650 Y111.844 E5.20983
G1 X85.202 Y112.171 E5.27562
G1 X84.876 Y112.619 E5.34146
G1 X84.660 Y113.280 E5.42410
G1 X84.245 Y113.280 E5.47341
G1 X84.176 Y113.066 E5.50013
G1 X83.861 Y112.633 E5.56367
G1 X83.428 Y112.318 E5.62725
G1 X82.920 Y112.153 E5.69073
G1 X82.384 Y112.153 E5.75439
G1 X81.876 Y112.318 E5.81784
G1 X81.444 Y112.633 E5.88136
G1 X81.128 Y113.066 E5.94494
G1 X80.980 Y113.521 E6.00182
G1 X80.565 Y113.521 E6.05113
G1 X80.419 Y113.069 E6.10754
G1 X80.096 Y112.626 E6.17262
G1 X79.653 Y112.303 E6.23772
G1 X79.133 Y112.134 E6.30273
G1 X78.584 Y112.134 E6.36791
G1 X78.064 Y112.303 E6.43287
G1 X77.621 Y112.625 E6.49791
G1 X77.298 Y113.068 E6.56303
G1 X77.128 Y113.590 E6.62822
G1 X77.128 Y114.138 E6.69326
G1 X77.298 Y114.659 E6.75828
G1 X77.621 Y115.102 E6.82349
G1 X78.064 Y115.424 E6.88851
G1 X78.584 Y115.593 E6.95342
G1 X79.133 Y115.593 E7.01861
G1 X79.653 Y115.424 E7.08358
G1 X80.096 Y115.102 E7.14865
G1 X80.419 Y114.658 E7.21382
G1 X80.572 Y114.185 E7.27286
G1 X80.987 Y114.185 E7.32212
G1 X81.128 Y114.618 E7.37625
G1 X81.444 Y115.052 E7.43992
G1 X81.876 Y115.366 E7.50342
G1 X82.384 Y115.531 E7.56682
G1 X82.920 Y115.531 E7.63048
G1 X83.428 Y115.366 E7.69393
G1 X83.861 Y115.052 E7.75747
G1 X84.176 Y114.618 E7.82112
G1 X84.382 Y113.985 E7.90021
G1 X84.796 Y113.984 E7.94947
G1 X84.876 Y114.227 E7.97975
G1 X85.202 Y114.676 E8.04570
G1 X85.731 Y115.059 E8.12326
G1 X85.603 Y115.454 E8.17257
G1 X85.256 Y115.454 E8.21371
G1 X84.750 Y115.619 E8.27688
G1 X84.320 Y115.933 E8.34016
G1 X84.006 Y116.363 E8.40348
G1 X83.737 Y117.188 E8.50652
G1 X83.388 Y116.708 E8.57708
G1 X82.961 Y116.397 E8.63980
G1 X82.459 Y116.234 E8.70246
G1 X81.930 Y116.234 E8.76526
G1 X81.429 Y116.397 E8.82786
G1 X81.003 Y116.708 E8.89054
G1 X80.508 Y117.385 E8.99019
G1 X80.021 Y116.715 E9.08868
G1 X79.596 Y116.405 E9.15105
G1 X79.097 Y116.243 E9.21335
G1 X78.571 Y116.243 E9.27580
G1 X78.073 Y116.406 E9.33804
G1 X77.649 Y116.714 E9.40037
G1 X77.209 Y117.318 E9.48904
G1 X76.777 Y116.724 E9.57621
G1 X76.356 Y116.417 E9.63810
G1 X75.861 Y116.256 E9.69990
G1 X75.340 Y116.256 E9.76185
G1 X74.845 Y116.417 E9.82360
G1 X74.424 Y116.724 E9.88543
G1 X74.035 Y117.257 E9.96387
G1 X73.776 Y116.458 E10.06365
G1 X73.460 Y116.023 E10.12756
G1 X73.025 Y115.706 E10.19150
G1 X72.513 Y115.540 E10.25535
G1 X71.974 Y115.540 E10.31937
G1 X71.463 Y115.706 E10.38318
G1 X71.029 Y116.023 E10.44707
G1 X70.711 Y116.458 E10.51102
G1 X70.544 Y116.970 E10.57504
