; generated by Slic3r 1.1.7 on 2014-12-26 at 14:37:43

; perimeters extrusion width = 0.40mm
; infill extrusion width = 0.42mm
; solid infill extrusion width = 0.42mm
; top infill extrusion width = 0.42mm

G21 ; set units to millimeters
M107
G28 ; home all axes

G90 ; use absolute coordinates
G92 E0
M82 ; use absolute distances for extrusion
G1 F1800.000 E-1.00000
G92 E0
G1 Z0.350 F7800.000
G1 X32.209 Y41.687 F7800.000
G1 E1.00000 F1800.000
G1 X34.186 Y40.521 E1.21230 F1080.000
G1 X36.085 Y40.111 E1.39193
G1 X54.255 Y38.922 E3.07611
G1 X55.669 Y38.980 E3.20699
G1 X94.110 Y44.733 E6.80207 F1080.000
G1 X168.652 Y60.225 E13.84380
G1 X171.491 Y61.576 E14.13465
G1 X176.837 Y65.929 E14.77231
G1 X178.340 Y67.665 E14.98461
G1 X179.161 Y69.808 E15.19690
G1 X179.283 Y71.075 E15.31464
G1 X179.283 Y149.429 E22.56166
G1 X178.886 Y151.690 E22.77396
G1 X177.743 Y153.680 E22.98625
G1 X176.839 Y154.573 E23.10383
G1 X171.480 Y158.938 E23.74306
G1 X168.961 Y160.216 E24.00434
G1 X127.778 Y170.933 E27.94018
G1 X90.443 Y180.305 E31.50052
G1 X89.042 Y180.501 E31.63140
G1 X70.842 Y181.089 E33.31559
G1 X68.646 Y180.790 E33.52052
G1 X42.063 Y172.474 E36.09670
G1 X39.631 Y171.695 E36.33295
G1 X38.379 Y171.146 E36.45941
G1 X36.166 Y169.890 E36.69470
G1 X35.050 Y169.094 E36.82153
G1 X33.144 Y167.405 E37.05703
G1 X32.207 Y166.380 E37.18545
G1 X30.707 Y164.347 E37.41919
G1 X30.001 Y163.145 E37.54815
G1 X28.963 Y160.847 E37.78132
G1 X28.526 Y159.523 E37.91029
G1 X27.947 Y156.833 E38.16478
G1 X20.450 Y115.170 E42.08014
G1 X20.388 Y113.237 E42.25900
G1 X24.419 Y78.249 E45.51650
G1 X29.977 Y45.619 E48.57796
G1 X30.748 Y43.457 E48.79025
G1 X32.171 Y41.733 E48.99700
G1 F1800.000 E47.99700
G92 E0
G1 X166.304 Y152.808 F7800.000
G1 E1.00000 F1800.000
G1 X163.883 Y152.808 E1.22390 F540.000
G1 X163.883 Y150.693 E1.41949
G1 X166.304 Y150.693 E1.64339
G1 X166.304 Y152.748 E1.83344
G1 X166.939 Y153.444 F7800.000
G1 X163.247 Y153.444 E2.17492 F378.000
G1 X163.247 Y150.058 E2.48809
G1 X166.939 Y150.058 E2.82957
G1 X166.939 Y153.384 E3.13719
G1 X166.593 Y153.244 F7800.000
G1 X165.823 Y151.134 F7800.000
G1 X165.863 Y151.174 E3.14243 F1080.000
G1 X165.710 Y152.367 E3.25368
G1 X164.477 Y151.134 E3.41498
G1 X164.324 Y152.327 E3.52624
G1 X164.364 Y152.367 E3.53148
G1 F1800.000 E2.53148
G92 E0
G1 X166.316 Y69.822 F7800.000
G1 E1.00000 F1800.000
G1 X163.895 Y69.822 E1.22390 F540.000
G1 X163.895 Y67.707 E1.41949
G1 X166.316 Y67.707 E1.64339
G1 X166.316 Y69.762 E1.83344
G1 X166.951 Y70.458 F7800.000
G1 X163.259 Y70.458 E2.17491 F378.000
G1 X163.259 Y67.072 E2.48809
G1 X166.951 Y67.072 E2.82956
G1 X166.951 Y70.398 E3.13719
G1 X166.605 Y70.258 F7800.000
G1 X165.835 Y68.148 F7800.000
G1 X165.875 Y68.188 E3.14242 F1080.000
G1 X165.722 Y69.381 E3.25368
G1 X164.489 Y68.148 E3.41498
G1 X164.336 Y69.341 E3.52624
G1 X164.376 Y69.381 E3.53147
G1 F1800.000 E2.53147
G92 E0
G1 X158.705 Y145.163 F7800.000
G1 E1.00000 F1800.000
G1 X161.802 Y144.480 E1.29339 F540.000
G1 X162.303 Y144.832 E1.34998
G1 X162.985 Y145.167 E1.42024
G1 X163.840 Y148.340 E1.72424
G1 X163.816 Y148.117 E1.74498
G1 X165.482 Y147.753 E1.90275
G1 X169.688 Y146.625 E2.30554
G1 X169.002 Y143.523 E2.59931
G1 X169.234 Y143.232 E2.63372
G1 X169.608 Y142.523 E2.70783
G1 X169.683 Y142.346 E2.72571
G1 X171.662 Y141.804 E2.91545
G1 X171.662 Y148.572 E3.54143
G1 X157.856 Y148.571 E4.81833
G1 X157.856 Y143.721 E5.26690
G1 X158.298 Y143.663 E5.30809
G1 X158.689 Y145.105 E5.44631
G1 F1800.000 E4.44631
G92 E0
G1 X160.162 Y134.183 F7800.000
G1 E1.00000 F1800.000
G1 X160.835 Y137.271 E1.29233 F540.000
G1 X160.405 Y137.939 E1.36581
G1 X160.172 Y138.461 E1.41869
G1 X157.856 Y139.078 E1.64038
G1 X157.856 Y71.931 E7.85086
G1 X171.662 Y71.931 E9.12776
G1 X171.662 Y135.925 E15.04661
G1 X171.222 Y135.985 E15.08772
G1 X171.127 Y135.642 E15.12061
G1 X168.052 Y136.318 E15.41182
G1 X167.938 Y136.218 E15.42589
G1 X167.184 Y135.772 E15.50691
G1 X166.869 Y135.650 E15.53814
G1 X166.056 Y132.664 E15.82438
G1 X164.354 Y133.043 E15.98562
G1 X160.220 Y134.168 E16.38192
G1 X160.914 Y134.637 F7800.000
G1 X161.535 Y137.436 E16.64705 F378.000
G1 X161.369 Y137.618 E16.66983
G1 X160.960 Y138.250 E16.73951
G1 X160.638 Y138.992 E16.81425
G1 X157.941 Y139.713 E17.07247
G1 X158.182 Y140.809 E17.17621
G1 X159.159 Y144.412 E17.52148
G1 X161.928 Y143.791 E17.78394
G1 X162.621 Y144.280 E17.86236
G1 X163.291 Y144.608 E17.93140
G1 X163.509 Y144.681 E17.95266
G1 X164.238 Y147.375 E18.21076
G1 X165.332 Y147.135 E18.31433
G1 X168.936 Y146.169 E18.65948
G1 X168.307 Y143.379 E18.92391
G1 X168.699 Y142.881 E18.98254
G1 X169.056 Y142.206 E19.05314
G1 X169.190 Y141.823 E19.09068
G1 X172.298 Y140.970 E19.38876
G1 X172.298 Y149.208 E20.15067
G1 X157.449 Y149.208 E21.52405
G1 X157.221 Y149.152 E21.54577
G1 X157.221 Y71.352 E28.74159
G1 X157.449 Y71.296 E28.76337
G1 X172.298 Y71.296 E30.13669
G1 X172.298 Y140.757 E36.56120
G1 X171.844 Y140.806 E36.60336
G1 X171.662 Y139.984 E36.68125
G1 X170.674 Y136.392 E37.02581
G1 X167.890 Y137.018 E37.28972
G1 X167.563 Y136.735 E37.32973
G1 X166.900 Y136.343 E37.40100
G1 X166.342 Y136.128 E37.45626
G1 X165.602 Y133.416 E37.71628
G1 X164.507 Y133.660 E37.82005
G1 X160.972 Y134.622 E38.15890
G1 X160.525 Y134.730 F7800.000
G1 F1800.000 E37.15890
G92 E0
G1 X165.998 Y148.101 F7800.000
G1 E1.00000 F1800.000
G1 X167.152 Y147.949 E1.06111 F360.000
G1 F1800.000 E0.06111
G92 E0
G1 X162.551 Y145.445 F7800.000
G1 E1.00000 F1800.000
G1 X162.623 Y145.517 E1.00943 F1080.000
G1 X162.986 Y146.866 E1.13864
G1 X161.188 Y145.067 E1.37388
G1 X160.380 Y145.245 E1.45037
G1 X163.265 Y148.131 E1.82780
G1 X162.280 Y148.131 E1.91897
G1 X159.572 Y145.423 E2.27311
G1 X158.765 Y145.601 E2.34961
G1 X161.294 Y148.131 E2.68048
G1 X160.308 Y148.131 E2.77164
G1 X158.297 Y146.119 E3.03472
G1 X158.297 Y147.105 E3.12588
G1 X159.323 Y148.131 E3.26004
G1 X158.337 Y148.131 E3.35120
G1 X158.297 Y148.091 E3.35643
G1 X157.842 Y141.930 F7800.000
G1 X157.690 Y140.790 E3.41681 F360.000
G1 F1800.000 E2.41681
G92 E0
G1 X167.615 Y148.087 F7800.000
G1 E1.00000 F1800.000
G1 X167.658 Y148.131 E1.00566 F1080.000
G1 X168.585 Y148.131 E1.09136
G1 X167.991 Y147.537 E1.16907
G1 X168.721 Y147.341 E1.23904
G1 X169.511 Y148.131 E1.34239
G1 X170.438 Y148.131 E1.42810
G1 X169.452 Y147.145 E1.55708
G1 X170.182 Y146.949 E1.62705
G1 X171.221 Y147.987 E1.76292
G1 X171.221 Y147.061 E1.84862
G1 X169.956 Y145.796 E2.01407
G1 X169.693 Y144.606 E2.12676
G1 X171.221 Y146.134 E2.32662
G1 X171.221 Y145.207 E2.41232
G1 X169.553 Y143.539 E2.63056
G1 X169.884 Y142.944 E2.69357
G1 X171.221 Y144.281 E2.86846
G1 X171.221 Y143.354 E2.95417
G1 X170.458 Y142.591 E3.05405
G1 X171.221 Y142.428 E3.12627
G1 X171.185 Y142.391 E3.13101
G1 F1800.000 E2.13101
G92 E0
G1 X167.000 Y134.454 F7800.000
G1 E1.00000 F1800.000
G1 X168.348 Y135.802 E1.17630 F1080.000
G1 X169.092 Y135.638 E1.24677
G1 X166.660 Y133.206 E1.56483
G1 F1800.000 E0.56483
G92 E0
G1 X158.297 Y138.459 F7800.000
G1 E1.00000 F1800.000
G1 X158.333 Y138.495 E1.00475 F1080.000
G1 X159.050 Y138.304 E1.07336
G1 X158.297 Y137.551 E1.17187
G1 X158.297 Y136.643 E1.25583
G1 X159.767 Y138.113 E1.44810
G1 X160.123 Y137.562 E1.50881
G1 X158.297 Y135.736 E1.74770
G1 X158.297 Y134.828 E1.83166
G1 X160.285 Y136.816 E2.09166
G1 X160.032 Y135.655 E2.20156
G1 X158.297 Y133.920 E2.42844
G1 X158.297 Y133.012 E2.51240
G1 X159.779 Y134.494 E2.70617
G1 X159.971 Y133.778 E2.77468
G1 X158.297 Y132.105 E2.99360
G1 X158.297 Y131.197 E3.07756
G1 X160.684 Y133.584 E3.38982
G1 X161.398 Y133.390 E3.45822
G1 X158.297 Y130.289 E3.86381
G1 X158.297 Y129.382 E3.94777
G1 X162.112 Y133.196 E4.44670
G1 X162.825 Y133.002 E4.51510
G1 X158.297 Y128.474 E5.10738
G1 X158.297 Y127.566 E5.19133
G1 X163.539 Y132.808 E5.87694
G1 X164.252 Y132.614 E5.94535
G1 X158.297 Y126.659 E6.72432
G1 X158.297 Y125.751 E6.80827
G1 X164.995 Y132.449 E7.68435
G1 X165.737 Y132.283 E7.75469
G1 X158.297 Y124.843 E8.72787
G1 X158.297 Y123.935 E8.81182
G1 X169.836 Y135.474 E10.32115
G1 X170.580 Y135.311 E10.39162
G1 X158.297 Y123.028 E11.99828
G1 X158.297 Y122.120 E12.08224
G1 X171.221 Y135.044 E13.77273
G1 X171.221 Y134.136 E13.85669
G1 X158.297 Y121.212 E15.54718
G1 X158.297 Y120.305 E15.63113
G1 X171.221 Y133.229 E17.32163
G1 X171.221 Y132.321 E17.40558
G1 X158.297 Y119.397 E19.09607
G1 X158.297 Y118.489 E19.18003
G1 X171.221 Y131.413 E20.87052
G1 X171.221 Y130.506 E20.95448
G1 X158.297 Y117.581 E22.64497
G1 X158.297 Y116.674 E22.72892
G1 X171.221 Y129.598 E24.41942
G1 X171.221 Y128.690 E24.50337
G1 X158.297 Y115.766 E26.19386
G1 X158.297 Y114.858 E26.27782
G1 X171.221 Y127.782 E27.96831
G1 X171.221 Y126.875 E28.05227
G1 X158.297 Y113.951 E29.74276
G1 X158.297 Y113.043 E29.82672
G1 X171.221 Y125.967 E31.51721
G1 X171.221 Y125.059 E31.60116
G1 X158.297 Y112.135 E33.29166
G1 X158.297 Y111.227 E33.37561
G1 X171.221 Y124.152 E35.06610
G1 X171.221 Y123.244 E35.15006
G1 X158.297 Y110.320 E36.84055
G1 X158.297 Y109.412 E36.92451
G1 X171.221 Y122.336 E38.61500
G1 X171.221 Y121.428 E38.69895
G1 X158.297 Y108.504 E40.38945
G1 X158.297 Y107.597 E40.47340
G1 X171.221 Y120.521 E42.16389
G1 X171.221 Y119.613 E42.24785
G1 X158.297 Y106.689 E43.93834
G1 X158.297 Y105.781 E44.02230
G1 X171.221 Y118.705 E45.71279
G1 X171.221 Y117.798 E45.79674
G1 X158.297 Y104.874 E47.48724
G1 X158.297 Y103.966 E47.57119
G1 X171.221 Y116.890 E49.26169
G1 X171.221 Y115.982 E49.34564
G1 X158.297 Y103.058 E51.03613
G1 X158.297 Y102.150 E51.12009
G1 X171.221 Y115.074 E52.81058
G1 X171.221 Y114.167 E52.89454
G1 X158.297 Y101.243 E54.58503
G1 X158.297 Y100.335 E54.66898
G1 X171.221 Y113.259 E56.35948
G1 X171.221 Y112.351 E56.44343
G1 X158.297 Y99.427 E58.13392
G1 X158.297 Y98.520 E58.21788
G1 X171.221 Y111.444 E59.90837
G1 X171.221 Y110.536 E59.99233
G1 X158.297 Y97.612 E61.68282
G1 X158.297 Y96.704 E61.76677
G1 X171.221 Y109.628 E63.45727
G1 X171.221 Y108.721 E63.54122
G1 X158.297 Y95.796 E65.23172
G1 X158.297 Y94.889 E65.31567
G1 X171.221 Y107.813 E67.00616
G1 X171.221 Y106.905 E67.09012
G1 X158.297 Y93.981 E68.78061
G1 X158.297 Y93.073 E68.86457
G1 X171.221 Y105.997 E70.55506
G1 X171.221 Y105.090 E70.63901
G1 X158.297 Y92.166 E72.32951
G1 X158.297 Y91.258 E72.41346
G1 X171.221 Y104.182 E74.10395
G1 X171.221 Y103.274 E74.18791
G1 X158.297 Y90.350 E75.87840
G1 X158.297 Y89.443 E75.96236
G1 X171.221 Y102.367 E77.65285
G1 X171.221 Y101.459 E77.73680
G1 X158.297 Y88.535 E79.42730
G1 X158.297 Y87.627 E79.51125
G1 X171.221 Y100.551 E81.20174
G1 X171.221 Y99.643 E81.28570
G1 X158.297 Y86.719 E82.97619
G1 X158.297 Y85.812 E83.06015
G1 X171.221 Y98.736 E84.75064
G1 X171.221 Y97.828 E84.83459
G1 X158.297 Y84.904 E86.52509
G1 X158.297 Y83.996 E86.60904
G1 X171.221 Y96.920 E88.29954
G1 X171.221 Y96.013 E88.38349
G1 X158.297 Y83.089 E90.07398
G1 X158.297 Y82.181 E90.15794
G1 X171.221 Y95.105 E91.84843
G1 X171.221 Y94.197 E91.93239
G1 X158.297 Y81.273 E93.62288
G1 X158.297 Y80.365 E93.70683
G1 X171.221 Y93.290 E95.39733
G1 X171.221 Y92.382 E95.48128
G1 X158.297 Y79.458 E97.17177
G1 X158.297 Y78.550 E97.25573
G1 X171.221 Y91.474 E98.94622
G1 X171.221 Y90.566 E99.03018
G1 X158.297 Y77.642 E100.72067
G1 X158.297 Y76.735 E100.80462
G1 X171.221 Y89.659 E102.49512
G1 X171.221 Y88.751 E102.57907
G1 X158.297 Y75.827 E104.26957
G1 X158.297 Y74.919 E104.35352
G1 X171.221 Y87.843 E106.04401
G1 X171.221 Y86.936 E106.12797
G1 X158.297 Y74.012 E107.81846
G1 X158.297 Y73.104 E107.90242
G1 X171.221 Y86.028 E109.59291
G1 X171.221 Y85.120 E109.67686
G1 X158.473 Y72.372 E111.34431
G1 X159.381 Y72.372 E111.42827
G1 X171.221 Y84.212 E112.97699
G1 X171.221 Y83.305 E113.06094
G1 X160.289 Y72.372 E114.49093
G1 X161.196 Y72.372 E114.57489
G1 X171.221 Y82.397 E115.88615
G1 X171.221 Y81.489 E115.97010
G1 X162.104 Y72.372 E117.16263
G1 X163.012 Y72.372 E117.24659
G1 X171.221 Y80.582 E118.32039
G1 X171.221 Y79.674 E118.40434
G1 X163.920 Y72.372 E119.35941
G1 X164.827 Y72.372 E119.44337
G1 X171.221 Y78.766 E120.27971
G1 X171.221 Y77.859 E120.36366
G1 X165.735 Y72.372 E121.08127
G1 X166.643 Y72.372 E121.16523
G1 X171.221 Y76.951 E121.76411
G1 X171.221 Y76.043 E121.84806
G1 X167.550 Y72.372 E122.32821
G1 X168.458 Y72.372 E122.41217
G1 X171.221 Y75.135 E122.77359
G1 X171.221 Y74.228 E122.85755
G1 X169.366 Y72.372 E123.10024
G1 X170.273 Y72.372 E123.18419
G1 X171.221 Y73.320 E123.30815
G1 X171.221 Y72.412 E123.39211
G1 X171.181 Y72.372 E123.39734
G1 F1800.000 E122.39734
G92 E0
G1 X132.886 Y71.208 F7800.000
G1 E1.00000 F1800.000
G1 X132.819 Y72.226 E1.09434 F540.000
G1 X132.552 Y73.219 E1.18950
G1 X132.096 Y74.142 E1.28466
G1 X131.468 Y74.957 E1.37983
G1 X130.694 Y75.635 E1.47501
G1 X129.802 Y76.149 E1.57020
G1 X128.827 Y76.479 E1.66541
G1 X127.807 Y76.612 E1.76061
G1 X126.779 Y76.545 E1.85582
G1 X125.785 Y76.278 E1.95102
G1 X124.862 Y75.823 E2.04622
G1 X124.046 Y75.196 E2.14141
G1 X123.367 Y74.423 E2.23657
G1 X122.853 Y73.532 E2.33174
G1 X122.519 Y72.549 E2.42772
G1 X122.293 Y70.548 E2.61398
G1 X122.360 Y69.530 E2.70831
G1 X122.627 Y68.537 E2.80347
G1 X123.083 Y67.614 E2.89863
G1 X123.711 Y66.799 E2.99381
G1 X124.485 Y66.121 E3.08900
G1 X125.377 Y65.607 E3.18418
G1 X126.352 Y65.277 E3.27939
G1 X127.373 Y65.144 E3.37459
G1 X127.503 Y65.152 E3.38671
G1 X128.400 Y65.211 E3.46980 F540.000
G1 X129.394 Y65.478 E3.56499
G1 X130.317 Y65.933 E3.66019
G1 X131.133 Y66.560 E3.75537
G1 X131.812 Y67.333 E3.85055
G1 X132.326 Y68.224 E3.94571
G1 X132.660 Y69.207 E4.04169
G1 X132.880 Y71.148 E4.22239
G1 X132.248 Y71.223 F7800.000
G1 X132.189 Y72.121 E4.30566 F378.000
G1 X131.954 Y72.994 E4.38923
G1 X131.554 Y73.804 E4.47281
G1 X130.951 Y74.565 E4.56262
G1 X130.322 Y75.115 E4.63989
G1 X129.539 Y75.567 E4.72351
G1 X128.683 Y75.856 E4.80714
G1 X127.786 Y75.974 E4.89078
G1 X126.884 Y75.914 E4.97442
G1 X126.010 Y75.680 E5.05805
G1 X125.199 Y75.280 E5.14167
G1 X124.482 Y74.730 E5.22528
G1 X123.886 Y74.051 E5.30887
G1 X123.434 Y73.268 E5.39245
G1 X123.143 Y72.409 E5.47630
G1 X122.931 Y70.533 E5.65097
G1 X122.990 Y69.635 E5.73424
G1 X123.225 Y68.762 E5.81780
G1 X123.625 Y67.952 E5.90138
G1 X124.176 Y67.236 E5.98497
G1 X124.857 Y66.641 E6.06858
G1 X125.640 Y66.189 E6.15219
G1 X126.565 Y65.891 E6.24206
G1 X127.393 Y65.782 E6.31935 F378.000
G1 X128.295 Y65.842 E6.40299
G1 X129.169 Y66.076 E6.48662
G1 X129.980 Y66.476 E6.57025
G1 X130.697 Y67.026 E6.65385
G1 X131.293 Y67.705 E6.73744
G1 X131.745 Y68.488 E6.82102
G1 X132.036 Y69.346 E6.90488
G1 X132.242 Y71.163 E7.07399
G1 F1800.000 E6.07399
G92 E0
G1 X126.400 Y65.526 F7800.000
G1 X135.364 Y95.009 F7800.000
G1 E1.00000 F1800.000
G1 X135.546 Y95.010 E1.01683 F540.000
G1 X136.394 Y95.066 E1.09541 F540.000
G1 X137.340 Y95.320 E1.18600
G1 X138.218 Y95.753 E1.27658
G1 X138.995 Y96.349 E1.36715
G1 X139.641 Y97.085 E1.45771
G1 X140.130 Y97.933 E1.54826
G1 X140.445 Y98.860 E1.63881
G1 X140.572 Y99.831 E1.72935
G1 X140.508 Y100.807 E1.81990
G1 X140.253 Y101.753 E1.91045
G1 X139.819 Y102.630 E2.00100
G1 X139.222 Y103.407 E2.09156
G1 X138.485 Y104.051 E2.18213
G1 X137.637 Y104.540 E2.27271
G1 X136.709 Y104.854 E2.36330
G1 X135.738 Y104.981 E2.45388
G1 X134.761 Y104.917 E2.54447
G1 X133.815 Y104.663 E2.63505
G1 X132.936 Y104.230 E2.72563
G1 X132.159 Y103.634 E2.81621
G1 X131.514 Y102.898 E2.90676
G1 X131.024 Y102.050 E2.99732
G1 X130.710 Y101.123 E3.08787
G1 X130.582 Y100.152 E3.17841
G1 X130.647 Y99.176 E3.26895
G1 X130.901 Y98.230 E3.35951
G1 X131.335 Y97.353 E3.45005
G1 X131.932 Y96.576 E3.54062
G1 X132.669 Y95.932 E3.63119
G1 X133.518 Y95.443 E3.72177
G1 X134.445 Y95.129 E3.81236
G1 X135.305 Y95.016 E3.89249
G1 X135.437 Y95.640 F7800.000
G1 X136.290 Y95.696 E3.97152 F378.000
G1 X137.115 Y95.917 E4.05053
G1 X137.881 Y96.295 E4.12954
G1 X138.559 Y96.815 E4.20853
G1 X139.122 Y97.457 E4.28751
G1 X139.548 Y98.197 E4.36647
G1 X139.823 Y99.005 E4.44543
G1 X139.934 Y99.851 E4.52438
G1 X139.877 Y100.703 E4.60333
G1 X139.656 Y101.527 E4.68228
G1 X139.277 Y102.293 E4.76125
G1 X138.757 Y102.969 E4.84022
G1 X138.114 Y103.532 E4.91922
G1 X137.374 Y103.958 E4.99822
G1 X136.565 Y104.232 E5.07724
G1 X135.717 Y104.343 E5.15626
G1 X134.865 Y104.287 E5.23528
G1 X134.040 Y104.066 E5.31430
