; generated by Slic3r 1.1.7 on 2015-01-02 at 11:13:42

; perimeters extrusion width = 0.40mm
; infill extrusion width = 0.42mm
; solid infill extrusion width = 0.42mm
; top infill extrusion width = 0.42mm

G21 ; set units to millimeters
M107
G28 ; home all axes

G90 ; use absolute coordinates
G92 E0
M82 ; use absolute distances for extrusion
G1 F1800.000 E-1.00000
G92 E0
G1 Z0.350 F7800.000
G1 X86.127 Y94.734 F7800.000
G1 E1.00000 F1800.000
G1 X87.353 Y93.705 E1.14796 F1080.000
G1 X87.993 Y93.226 E1.22194
G1 X90.022 Y91.946 E1.44382
G1 X91.452 Y91.228 E1.59183
G1 X92.185 Y90.910 E1.66576
G1 X93.689 Y90.362 E1.81374
G1 X94.454 Y90.131 E1.88771
G1 X96.799 Y89.622 E2.10958
G1 X98.388 Y89.436 E2.25757
G1 X99.186 Y89.388 E2.33153
G1 X101.584 Y89.433 E2.55340
G1 X103.961 Y89.756 E2.77527 F1080.000
G1 X106.284 Y90.353 E2.99710
G1 X108.523 Y91.215 E3.21900
G1 X110.646 Y92.332 E3.44087
G1 X111.983 Y93.211 E3.58887
G1 X112.625 Y93.687 E3.66281
G1 X114.434 Y95.263 E3.88469
G1 X116.064 Y97.061 E4.10918
G1 X117.443 Y98.989 E4.32842
G1 X118.604 Y101.089 E4.55028
G1 X119.513 Y103.309 E4.77216
G1 X120.157 Y105.619 E4.99403
G1 X120.530 Y107.989 E5.21589
G1 X120.623 Y109.586 E5.36387
G1 X120.624 Y110.386 E5.43784
G1 X120.440 Y112.778 E5.65971
G1 X119.979 Y115.132 E5.88158
G1 X119.249 Y117.417 E6.10345
G1 X118.257 Y119.601 E6.32532
G1 X117.457 Y120.987 E6.47334
G1 X117.019 Y121.656 E6.54727
G1 X116.064 Y122.939 E6.69522
G1 X115.551 Y123.553 E6.76921
G1 X114.453 Y124.717 E6.91722
G1 X113.873 Y125.266 E6.99116
G1 X112.647 Y126.295 E7.13911
G1 X112.007 Y126.774 E7.21311
G1 X109.978 Y128.054 E7.43498
G1 X107.815 Y129.090 E7.65685
G1 X106.311 Y129.638 E7.80481
G1 X105.546 Y129.869 E7.87879
G1 X103.989 Y130.238 E8.02678
G1 X103.201 Y130.378 E8.10074
G1 X101.612 Y130.564 E8.24878
G1 X100.814 Y130.612 E8.32269
G1 X98.416 Y130.567 E8.54456
G1 X96.039 Y130.244 E8.76638
G1 X93.715 Y129.647 E8.98829
G1 X91.451 Y128.772 E9.21279
G1 X89.354 Y127.668 E9.43203
G1 X88.017 Y126.789 E9.58002
G1 X87.374 Y126.313 E9.65397
G1 X85.566 Y124.737 E9.87584
G1 X83.953 Y122.962 E10.09771
G1 X82.557 Y121.011 E10.31958
G1 X81.385 Y118.885 E10.54407
G1 X80.487 Y116.691 E10.76331
G1 X80.028 Y115.158 E10.91132
G1 X79.843 Y114.381 E10.98525
G1 X79.565 Y112.805 E11.13325
G1 X79.470 Y112.011 E11.20720
G1 X79.377 Y110.414 E11.35516
G1 X79.376 Y109.614 E11.42915
G1 X79.560 Y107.222 E11.65102
G1 X80.021 Y104.868 E11.87288
G1 X80.751 Y102.583 E12.09476
G1 X81.385 Y101.114 E12.24277
G1 X81.743 Y100.399 E12.31670
G1 X82.543 Y99.013 E12.46472
G1 X82.981 Y98.344 E12.53865
G1 X84.449 Y96.447 E12.76052
G1 X85.547 Y95.283 E12.90852
G1 X86.084 Y94.775 E12.97692
G1 F1800.000 E11.97692
G92 E0
G1 X100.912 Y115.032 F7800.000
G1 E1.00000 F1800.000
G1 X101.426 Y115.274 E1.05252 F540.000
G1 X101.953 Y115.703 E1.11541
G1 X102.356 Y116.252 E1.17836
G1 X102.608 Y116.884 E1.24126
G1 X102.693 Y117.556 E1.30399
G1 X102.625 Y118.098 E1.35448
G1 X102.608 Y118.229 E1.36671
G1 X102.356 Y118.861 E1.42961
G1 X101.953 Y119.409 E1.49256
G1 X101.530 Y119.759 E1.54325
G1 X101.426 Y119.839 E1.55546
G1 X100.807 Y120.123 E1.61838
G1 X100.138 Y120.243 E1.68127
G1 X99.461 Y120.191 E1.74410
G1 X98.818 Y119.971 E1.80691
G1 X98.355 Y119.678 E1.85762
G1 X98.251 Y119.597 E1.86981
G1 X97.795 Y119.094 E1.93262
G1 X97.481 Y118.492 E1.99544
G1 X97.345 Y117.961 E2.04614
G1 X97.328 Y117.830 E2.05833
G1 X97.328 Y117.283 E2.10894
G1 X97.345 Y117.152 E2.12113
G1 X97.481 Y116.621 E2.17183
G1 X97.531 Y116.499 E2.18402
G1 X97.795 Y116.019 E2.23470
G1 X97.876 Y115.915 E2.24690
G1 X98.251 Y115.515 E2.29756
G1 X99.111 Y114.955 E2.39254
G1 X98.101 Y114.666 E2.48978
G1 X97.243 Y114.211 E2.57960
G1 X97.139 Y114.146 E2.59095
G1 X96.312 Y113.430 E2.69211
G1 X95.659 Y112.553 E2.79324
G1 X95.210 Y111.556 E2.89436
G1 X95.001 Y110.608 E2.98420
G1 X94.988 Y109.514 E3.08531
G1 X95.210 Y108.444 E3.18645
G1 X95.659 Y107.447 E3.28757
G1 X95.724 Y107.343 E3.29892
G1 X96.312 Y106.570 E3.38874
G1 X97.139 Y105.854 E3.48990
G1 X98.101 Y105.334 E3.59105
G1 X99.256 Y105.005 E3.70216
G1 X99.264 Y104.627 E3.73711
G1 X98.818 Y104.471 E3.78081
G1 X98.355 Y104.177 E3.83152
G1 X98.251 Y104.097 E3.84371
G1 X97.795 Y103.593 E3.90652
G1 X97.481 Y102.991 E3.96934
G1 X97.345 Y102.460 E4.02003
G1 X97.328 Y102.330 E4.03222
G1 X97.328 Y101.782 E4.08284
G1 X97.345 Y101.652 E4.09503
G1 X97.481 Y101.121 E4.14573
G1 X97.795 Y100.519 E4.20854
G1 X98.251 Y100.015 E4.27135
G1 X98.818 Y99.641 E4.33421
G1 X98.940 Y99.591 E4.34641
G1 X99.461 Y99.421 E4.39705
G1 X100.138 Y99.370 E4.45989
G1 X100.807 Y99.490 E4.52277
G1 X101.426 Y99.773 E4.58570
G1 X101.530 Y99.854 E4.59791
G1 X101.953 Y100.203 E4.64860
G1 X102.356 Y100.752 E4.71155
G1 X102.608 Y101.383 E4.77445
G1 X102.625 Y101.514 E4.78668
G1 X102.693 Y102.056 E4.83717
G1 X102.608 Y102.729 E4.89990
G1 X102.356 Y103.360 E4.96279
G1 X101.953 Y103.909 E5.02574
G1 X101.426 Y104.339 E5.08864
G1 X100.710 Y104.663 E5.16135
G1 X100.754 Y105.044 E5.19686
G1 X101.325 Y105.138 E5.25038
G1 X102.343 Y105.538 E5.35159
G1 X103.251 Y106.149 E5.45278
G1 X104.006 Y106.941 E5.55400
G1 X104.071 Y107.045 E5.56537
G1 X104.572 Y107.877 E5.65519
G1 X104.923 Y108.914 E5.75643
G1 X105.041 Y110.000 E5.85748
G1 X104.923 Y111.086 E5.95853
G1 X104.572 Y112.123 E6.05977
G1 X104.006 Y113.059 E6.16095
G1 X103.251 Y113.851 E6.26217
G1 X102.447 Y114.396 E6.35200
G1 X102.343 Y114.462 E6.36337
G1 X100.968 Y115.010 E6.50031
G1 F1800.000 E5.50031
G92 E0
G1 X100.117 Y104.104 F7800.000
G1 E1.00000 F1800.000
G1 X99.602 Y104.068 E1.04775 F378.000
G1 X99.160 Y103.925 E1.09070
G1 X98.679 Y103.624 E1.14318
G1 X98.329 Y103.245 E1.19092
G1 X98.105 Y102.837 E1.23389
G1 X97.963 Y102.288 E1.28637
G1 X97.963 Y101.824 E1.32931
G1 X98.085 Y101.322 E1.37705
G1 X98.329 Y100.867 E1.42479
G1 X98.679 Y100.488 E1.47252
G1 X99.112 Y100.207 E1.52028
G1 X99.653 Y100.037 E1.57273
G1 X100.117 Y100.008 E1.61569 F378.000
G1 X100.625 Y100.102 E1.66346
G1 X101.093 Y100.319 E1.71124
G1 X101.492 Y100.647 E1.75901
G1 X101.797 Y101.064 E1.80680
G1 X101.995 Y101.596 E1.85924
G1 X102.053 Y102.056 E1.90214
G1 X101.988 Y102.568 E1.94985
G1 X101.797 Y103.048 E1.99762
G1 X101.524 Y103.424 E2.04061
G1 X101.093 Y103.793 E2.09307
G1 X100.625 Y104.010 E2.14085
G1 X100.176 Y104.096 E2.18307
G1 F1800.000 E1.18307
G92 E0
G1 X100.021 Y100.193 F7800.000
G1 X100.198 Y105.606 F7800.000
G1 E1.00000 F1800.000
G1 X101.167 Y105.756 E1.09068 F378.000
G1 X102.054 Y106.107 E1.17889
G1 X102.882 Y106.679 E1.27199
G1 X103.501 Y107.332 E1.35522
G1 X103.994 Y108.149 E1.44342
G1 X104.299 Y109.053 E1.53164
G1 X104.402 Y110.000 E1.61979
G1 X104.299 Y110.947 E1.70795
G1 X103.994 Y111.851 E1.79617
G1 X103.501 Y112.668 E1.88437
G1 X102.882 Y113.321 E1.96760
G1 X102.054 Y113.893 E2.06070
G1 X101.167 Y114.244 E2.14890
G1 X100.226 Y114.395 E2.23710
G1 X99.274 Y114.340 E2.32529
G1 X98.356 Y114.082 E2.41348
G1 X97.515 Y113.632 E2.50166
G1 X96.830 Y113.049 E2.58489
G1 X96.218 Y112.249 E2.67800
G1 X95.823 Y111.382 E2.76617
G1 X95.623 Y110.450 E2.85435
G1 X95.623 Y109.550 E2.93757
G1 X95.823 Y108.618 E3.02575
G1 X96.218 Y107.751 E3.11392
G1 X96.791 Y106.989 E3.20209
G1 X97.515 Y106.368 E3.29028
G1 X98.356 Y105.918 E3.37847
G1 X99.327 Y105.653 E3.47157
G1 X100.138 Y105.610 E3.54670 F378.000
G1 X99.681 Y105.841 F7800.000
G1 F1800.000 E2.54670
G92 E0
G1 X100.117 Y115.508 F7800.000
G1 E1.00000 F1800.000
G1 X100.672 Y115.622 E1.05247 F378.000
G1 X101.093 Y115.820 E1.09545
G1 X101.492 Y116.147 E1.14322
G1 X101.817 Y116.613 E1.19569
G1 X101.988 Y117.045 E1.23866
G1 X102.053 Y117.556 E1.28637
G1 X101.988 Y118.068 E1.33408
G1 X101.817 Y118.500 E1.37705
G1 X101.492 Y118.965 E1.42952
G1 X101.093 Y119.293 E1.47729
G1 X100.672 Y119.491 E1.52027
G1 X100.117 Y119.604 E1.57274
G1 X99.602 Y119.569 E1.62049
G1 X99.160 Y119.425 E1.66345
G1 X98.679 Y119.125 E1.71592
G1 X98.329 Y118.745 E1.76366
G1 X98.105 Y118.338 E1.80663
G1 X97.963 Y117.788 E1.85911
G1 X97.963 Y117.324 E1.90205
G1 X98.085 Y116.823 E1.94979
G1 X98.329 Y116.368 E1.99753
G1 X98.679 Y115.988 E2.04526
G1 X99.112 Y115.707 E2.09302
G1 X99.653 Y115.537 E2.14547
G1 X100.057 Y115.512 E2.18288 F378.000
G1 X99.636 Y115.138 F7800.000
G1 F1800.000 E1.18288
G92 E0
G1 X100.117 Y122.991 F7800.000
G1 E1.00000 F1800.000
G1 X99.243 Y122.991 E1.08077 F540.000
G1 X97.740 Y122.815 E1.22074
G1 X96.268 Y122.466 E1.36070
G1 X94.846 Y121.948 E1.50066
G1 X93.494 Y121.269 E1.64062
G1 X92.229 Y120.438 E1.78058
G1 X91.070 Y119.465 E1.92054
G1 X90.032 Y118.364 E2.06051
G1 X89.128 Y117.151 E2.20047
G1 X88.371 Y115.840 E2.34043
G1 X87.772 Y114.451 E2.48039
G1 X87.338 Y113.001 E2.62035
G1 X87.075 Y111.511 E2.76031
G1 X86.987 Y110.000 E2.90027
G1 X87.075 Y108.489 E3.04023
G1 X87.338 Y106.999 E3.18020
G1 X87.772 Y105.549 E3.32016
G1 X88.371 Y104.160 E3.46011
G1 X89.128 Y102.849 E3.60008
G1 X90.032 Y101.636 E3.74004
G1 X91.070 Y100.535 E3.88000
G1 X92.229 Y99.562 E4.01996
G1 X93.494 Y98.731 E4.15993
G1 X94.846 Y98.052 E4.29988
G1 X96.268 Y97.534 E4.43984
G1 X97.740 Y97.185 E4.57981
G1 X99.243 Y97.009 E4.71977
G1 X100.757 Y97.009 E4.85973 F540.000
G1 X102.260 Y97.185 E4.99969
G1 X103.732 Y97.534 E5.13966
G1 X105.154 Y98.052 E5.27962
G1 X106.506 Y98.731 E5.41958
G1 X107.771 Y99.562 E5.55954
G1 X108.930 Y100.535 E5.69950
G1 X109.968 Y101.636 E5.83946
G1 X110.872 Y102.849 E5.97942
G1 X111.629 Y104.160 E6.11939
G1 X112.228 Y105.549 E6.25934
G1 X112.662 Y106.999 E6.39930
G1 X112.925 Y108.489 E6.53927
G1 X113.013 Y110.000 E6.67923
G1 X112.925 Y111.511 E6.81919
G1 X112.662 Y113.001 E6.95915
G1 X112.228 Y114.451 E7.09911
G1 X111.629 Y115.840 E7.23907
G1 X110.872 Y117.151 E7.37903
G1 X109.968 Y118.364 E7.51900
G1 X108.930 Y119.465 E7.65896
G1 X107.771 Y120.438 E7.79892
G1 X106.506 Y121.269 E7.93888
G1 X105.154 Y121.948 E8.07884
G1 X103.732 Y122.466 E8.21880
G1 X102.260 Y122.815 E8.35876
G1 X100.757 Y122.991 E8.49872
G1 X100.177 Y122.991 E8.55236
G1 X100.117 Y123.626 F7800.000
G1 X99.206 Y123.626 E8.63656 F378.000
G1 X97.630 Y123.442 E8.78338
G1 X96.085 Y123.076 E8.93018
G1 X94.594 Y122.533 E9.07699
G1 X93.175 Y121.821 E9.22380
G1 X91.849 Y120.949 E9.37061
G1 X90.633 Y119.928 E9.51742
G1 X89.544 Y118.774 E9.66423
G1 X88.596 Y117.500 E9.81104
G1 X87.802 Y116.126 E9.95785
G1 X87.174 Y114.668 E10.10466
G1 X86.719 Y113.148 E10.25146
G1 X86.443 Y111.585 E10.39827
G1 X86.351 Y110.000 E10.54508
G1 X86.443 Y108.415 E10.69190
G1 X86.719 Y106.852 E10.83871
G1 X87.174 Y105.332 E10.98552
G1 X87.802 Y103.874 E11.13232
G1 X88.596 Y102.500 E11.27913
G1 X89.544 Y101.226 E11.42594
G1 X90.633 Y100.072 E11.57275
G1 X91.849 Y99.052 E11.71956
G1 X93.175 Y98.179 E11.86637
G1 X94.594 Y97.467 E12.01318
G1 X96.085 Y96.924 E12.15999
G1 X97.630 Y96.558 E12.30680
G1 X99.206 Y96.374 E12.45361
G1 X100.794 Y96.374 E12.60042
G1 X102.370 Y96.558 E12.74723
G1 X103.915 Y96.924 E12.89404 F378.000
G1 X105.406 Y97.467 E13.04085
G1 X106.825 Y98.179 E13.18766
G1 X108.151 Y99.051 E13.33446
G1 X109.367 Y100.072 E13.48127
G1 X110.456 Y101.226 E13.62809
G1 X111.404 Y102.500 E13.77489
G1 X112.198 Y103.874 E13.92171
G1 X112.826 Y105.332 E14.06851
G1 X113.281 Y106.852 E14.21532
G1 X113.557 Y108.415 E14.36213
G1 X113.649 Y110.000 E14.50894
G1 X113.557 Y111.585 E14.65575
G1 X113.281 Y113.148 E14.80256
G1 X112.826 Y114.668 E14.94937
G1 X112.198 Y116.126 E15.09618
G1 X111.404 Y117.500 E15.24299
G1 X110.456 Y118.774 E15.38980
G1 X109.367 Y119.928 E15.53660
G1 X108.151 Y120.949 E15.68342
G1 X106.825 Y121.821 E15.83023
G1 X105.406 Y122.533 E15.97704
G1 X103.915 Y123.076 E16.12385
G1 X102.370 Y123.442 E16.27065
G1 X100.794 Y123.626 E16.41746
G1 X100.177 Y123.626 E16.47453
G1 F1800.000 E15.47453
G92 E0
G1 X102.677 Y96.815 F7800.000
G1 X104.037 Y98.114 F7800.000
G1 E1.00000 F1800.000
G1 X111.894 Y105.971 E2.02778 F1080.000
G1 X112.258 Y107.245 E2.15026
G1 X102.772 Y97.760 E3.39096
G1 X101.662 Y97.559 E3.49533
G1 X112.452 Y108.349 E4.90675
G1 X112.533 Y109.340 E4.99863
G1 X100.643 Y97.450 E6.55380
G1 X99.733 Y97.450 E6.63795
G1 X112.555 Y110.272 E8.31509
G1 X112.505 Y111.132 E8.39475
G1 X103.095 Y101.722 E9.62559
G1 X103.068 Y102.604 E9.70726
G1 X112.402 Y111.938 E10.92814
G1 X112.265 Y112.712 E11.00078
G1 X102.854 Y103.300 E12.23179
G1 X102.522 Y103.878 E12.29343
G1 X112.073 Y113.430 E13.54278
G1 X111.864 Y114.130 E13.61038
G1 X102.096 Y104.362 E14.88801
G1 X101.591 Y104.767 E14.94788
G1 X98.069 Y104.885 F7800.000
G1 X92.860 Y99.675 E15.62927 F1080.000
G1 X92.329 Y100.054 E15.68960
G1 X97.453 Y105.178 E16.35985
G1 X96.869 Y105.504 E16.42170
G1 X91.834 Y100.469 E17.08030
G1 X91.356 Y100.901 E17.13988
G1 X96.381 Y105.926 E17.79717
G1 X95.913 Y106.367 E17.85671
G1 X90.901 Y101.356 E18.51219
G1 X90.460 Y101.824 E18.57172
G1 X95.524 Y106.889 E19.23418
G1 X95.174 Y107.449 E19.29525
G1 X90.060 Y102.335 E19.96415
G1 X89.672 Y102.857 E20.02429
G1 X94.892 Y108.077 E20.70706
G1 X94.689 Y108.784 E20.77510
G1 X89.314 Y103.409 E21.47819
G1 X88.981 Y103.985 E21.53979
G1 X94.547 Y109.551 E22.26780
G1 X94.547 Y110.461 E22.35196
G1 X88.669 Y104.583 E23.12081
G1 X88.395 Y105.219 E23.18484
G1 X94.767 Y111.591 E24.01839
G1 X95.953 Y113.687 F7800.000
G1 X88.136 Y105.870 E25.04086 F1080.000
G1 X87.927 Y106.570 E25.10846
G1 X97.325 Y115.968 E26.33775
G1 X97.716 Y115.450 E26.39784
G1 X96.072 Y113.806 E26.61281
G1 X97.034 Y116.588 F7800.000
G1 X87.735 Y107.288 E27.82924 F1080.000
G1 X87.598 Y108.062 E27.90188
G1 X96.887 Y117.350 E29.11683
G1 X96.994 Y118.367 E29.21143
G1 X87.495 Y108.868 E30.45395
G1 X87.445 Y109.728 E30.53361
G1 X100.267 Y122.550 E32.21075
G1 X101.130 Y122.503 E32.29070
G1 X99.195 Y120.568 E32.54383
G1 X100.214 Y120.677 E32.63859
G1 X101.945 Y122.408 E32.86501
G1 X102.703 Y122.257 E32.93656
G1 X100.977 Y120.530 E33.16241
G1 X101.600 Y120.244 E33.22587
G1 X103.439 Y122.083 E33.46637
G1 X104.121 Y121.855 E33.53291
G1 X102.114 Y119.848 E33.79549
G1 X102.536 Y119.360 E33.85515
G1 X104.788 Y121.612 E34.14980
G1 X105.412 Y121.326 E34.21325
G1 X102.863 Y118.778 E34.54657
G1 X103.072 Y118.076 E34.61427
G1 X106.017 Y121.022 E34.99958
G1 X106.591 Y120.686 E35.06109
G1 X103.091 Y117.185 E35.51896
G1 X102.446 Y115.631 F7800.000
G1 X107.140 Y120.325 E36.13298 F1080.000
G1 X107.671 Y119.946 E36.19331
G1 X102.567 Y114.842 E36.86095
G1 X103.113 Y114.478 E36.92163
G1 X108.166 Y119.531 E37.58259
G1 X108.644 Y119.099 E37.64218
G1 X103.634 Y114.089 E38.29750
G1 X104.078 Y113.623 E38.35703
G1 X109.099 Y118.644 E39.01379
G1 X109.540 Y118.176 E39.07332
G1 X104.484 Y113.120 E39.73465
G1 X104.827 Y112.553 E39.79593
G1 X109.940 Y117.665 E40.46463
G1 X110.328 Y117.143 E40.52477
G1 X105.106 Y111.922 E41.20775
G1 X105.336 Y111.241 E41.27417
G1 X110.686 Y116.591 E41.97398
G1 X111.019 Y116.015 E42.03558
G1 X105.438 Y110.433 E42.76563
G1 X105.432 Y109.518 E42.85028
G1 X111.331 Y115.417 E43.62186
G1 X111.605 Y114.781 E43.68589
G1 X105.210 Y108.386 E44.52238
G1 X111.267 Y104.434 F7800.000
G1 X105.603 Y98.770 E45.26326 F1080.000
G1 X108.451 Y100.708 F7800.000
G1 X109.099 Y101.357 E45.34808 F1080.000
G1 X98.870 Y97.497 F7800.000
G1 X100.329 Y98.956 E45.53897 F1080.000
G1 X99.443 Y98.979 E45.62103
G1 X98.055 Y97.592 E45.80247
G1 X97.297 Y97.743 E45.87402
G1 X98.752 Y99.198 E46.06430
G1 X98.178 Y99.535 E46.12578
G1 X96.561 Y97.917 E46.33731
G1 X95.879 Y98.145 E46.40385
G1 X97.700 Y99.966 E46.64214
G1 X97.310 Y100.486 E46.70225
G1 X95.212 Y98.388 E46.97677
G1 X94.588 Y98.674 E47.04022
G1 X97.028 Y101.114 E47.35930
G1 X96.887 Y101.882 E47.43160
G1 X93.983 Y98.978 E47.81146
G1 X93.409 Y99.314 E47.87297
G1 X97.005 Y102.911 E48.34342
G1 F1800.000 E47.34342
G92 E0
G1 X101.920 Y115.105 F7800.000
G1 E1.00000 F1800.000
G1 X101.939 Y115.124 E1.00248 F1080.000
G1 F1800.000 E0.00248
G92 E0
G1 X99.357 Y122.550 F7800.000
G1 E1.00000 F1800.000
G1 X87.467 Y110.660 E2.55517 F1080.000
G1 X87.548 Y111.651 E2.64704
G1 X98.338 Y122.441 E4.05847
G1 X97.228 Y122.240 E4.16284
G1 X87.742 Y112.755 E5.40354
G1 X88.106 Y114.029 E5.52602
G1 X95.963 Y121.886 E6.55380
G1 X94.397 Y121.230 F7800.000
G1 X88.733 Y115.566 E7.29469 F1080.000
G1 X90.901 Y118.643 F7800.000
G1 X91.549 Y119.292 E7.37951 F1080.000
M106 S255
G1 F1800.000 E6.37951
G92 E0
