; generated by Slic3r 1.1.7 on 2015-01-22 at 20:28:15

; perimeters extrusion width = 0.40mm
; infill extrusion width = 0.42mm
; solid infill extrusion width = 0.42mm
; top infill extrusion width = 0.42mm

G21 ; set units to millimeters
M107
G28 ; home all axes

G90 ; use absolute coordinates
G92 E0
M82 ; use absolute distances for extrusion
G1 F1800.000 E-1.00000
G92 E0
G1 Z0.350 F7800.000
G1 X61.032 Y71.510 F7800.000
G1 E1.00000 F1800.000
G1 X62.905 Y70.138 E1.21478 F1080.000
G1 X77.840 Y62.809 E2.75347
G1 X80.219 Y61.760 E2.99393
G1 X82.572 Y60.867 E3.22672
G1 X85.025 Y60.056 E3.46569
G1 X87.501 Y59.381 E3.70299
G1 X89.986 Y58.835 E3.93835
G1 X92.509 Y58.403 E4.17508
G1 X95.083 Y58.093 E4.41488
G1 X97.590 Y57.923 E4.64728
G1 X99.777 Y57.864 E4.84966
G1 X102.703 Y57.937 E5.12038
G1 X105.277 Y58.127 E5.35905 F1080.000
G1 X107.818 Y58.451 E5.59601
G1 X110.321 Y58.895 E5.83116
G1 X112.837 Y59.464 E6.06971
G1 X115.365 Y60.177 E6.31265
G1 X117.699 Y60.962 E6.54039
G1 X120.120 Y61.897 E6.78043
G1 X122.414 Y62.926 E7.01295
G1 X124.733 Y64.096 E7.25322
G1 X126.960 Y65.370 E7.49056
G1 X129.067 Y66.716 E7.72178
G1 X131.195 Y68.220 E7.96278
G1 X133.178 Y69.785 E8.19646
G1 X135.148 Y71.483 E8.43698
G1 X136.999 Y73.262 E8.67449
G1 X138.730 Y75.097 E8.90781
G1 X140.421 Y77.059 E9.14732
G1 X141.970 Y79.060 E9.38139
G1 X143.465 Y81.193 E9.62226
G1 X144.785 Y83.309 E9.85294
G1 X146.042 Y85.546 E10.09025
G1 X147.213 Y87.870 E10.33095
G1 X148.229 Y90.189 E10.56515
G1 X149.141 Y92.578 E10.80164
G1 X149.852 Y94.717 E11.01019
G1 X150.615 Y97.484 E11.27561
G1 X151.093 Y99.604 E11.47660
G1 X151.584 Y102.407 E11.73988
G1 X151.896 Y105.018 E11.98302
G1 X152.069 Y107.307 E12.19540
G1 X152.136 Y110.223 E12.46509
G1 X152.067 Y112.737 E12.69778
G1 X151.869 Y115.267 E12.93243
G1 X151.552 Y117.798 E13.16835
G1 X151.107 Y120.348 E13.40782
G1 X150.538 Y122.833 E13.64356
G1 X149.847 Y125.300 E13.88052
G1 X144.706 Y140.715 E15.38347
G1 X143.875 Y142.381 E15.55567
G1 X142.405 Y144.497 E15.79396
G1 X140.827 Y146.532 E16.03219
G1 X139.375 Y148.231 E16.23883
G1 X137.232 Y149.886 E16.48934
G1 X122.151 Y157.209 E18.03995
G1 X119.803 Y158.240 E18.27715
G1 X117.396 Y159.158 E18.51534
G1 X114.979 Y159.942 E18.75037
G1 X112.880 Y160.524 E18.95187
G1 X110.003 Y161.174 E19.22468
G1 X107.497 Y161.597 E19.45974
G1 X104.941 Y161.906 E19.69785
G1 X102.398 Y162.084 E19.93361
G1 X99.840 Y162.138 E20.17031
G1 X97.285 Y162.068 E20.40663
G1 X94.729 Y161.873 E20.64373
G1 X92.205 Y161.552 E20.87905
G1 X89.668 Y161.107 E21.11734
G1 X87.130 Y160.526 E21.35810
G1 X84.722 Y159.852 E21.58937
G1 X82.292 Y159.044 E21.82629
G1 X79.902 Y158.115 E22.06345
G1 X77.546 Y157.063 E22.30206
G1 X75.273 Y155.904 E22.53805
G1 X73.368 Y154.822 E22.74071
G1 X70.864 Y153.245 E23.01437
G1 X68.832 Y151.790 E23.24560
G1 X66.794 Y150.197 E23.48482
G1 X64.873 Y148.526 E23.72026
G1 X63.030 Y146.762 E23.95621
G1 X61.252 Y144.887 E24.19528
G1 X59.600 Y142.952 E24.43056
G1 X58.253 Y141.229 E24.63281
G1 X56.570 Y138.838 E24.90325
G1 X55.209 Y136.683 E25.13899
G1 X53.927 Y134.410 E25.38034
G1 X52.809 Y132.152 E25.61345
G1 X51.772 Y129.802 E25.85098
G1 X50.867 Y127.434 E26.08548
G1 X50.056 Y124.981 E26.32446
G1 X49.474 Y122.875 E26.52649
G1 X48.833 Y120.000 E26.79899
G1 X48.409 Y117.499 E27.03356
G1 X48.101 Y114.963 E27.26982
G1 X47.916 Y112.398 E27.50767
G1 X47.863 Y110.211 E27.71005
G1 X47.933 Y107.275 E27.98169
G1 X48.133 Y104.732 E28.21765
G1 X48.455 Y102.196 E28.45401
G1 X48.895 Y99.685 E28.68986
G1 X49.461 Y97.178 E28.92751
G1 X50.133 Y94.762 E29.15951
G1 X55.143 Y79.138 E30.67706
G1 X56.225 Y77.089 E30.89137
G1 X57.796 Y75.083 E31.12697
G1 X59.490 Y73.124 E31.36655
G1 X60.991 Y71.554 E31.56746
G1 F1800.000 E30.56746
G92 E0
G1 X88.189 Y101.926 F7800.000
G1 E1.00000 F1800.000
G1 X86.923 Y102.408 E1.12533 F540.000
G1 X85.677 Y101.893 E1.25008
G1 X84.894 Y100.799 E1.37454
G1 X84.466 Y99.451 E1.50531
G1 X84.328 Y97.960 E1.64382
G1 X84.481 Y96.456 E1.78366
G1 X84.939 Y95.119 E1.91432
G1 X85.740 Y94.033 E2.03911
G1 X87.002 Y93.548 E2.16418
G1 X88.253 Y94.072 E2.28965
G1 X89.036 Y95.158 E2.41350 F540.000
G1 X89.464 Y96.514 E2.54499
G1 X89.603 Y98.013 E2.68424
G1 X89.442 Y99.503 E2.82278
G1 X88.993 Y100.837 E2.95302
G1 X88.225 Y101.878 E3.07264
G1 X87.789 Y101.398 F7800.000
G1 X86.933 Y101.725 E3.15736 F378.000
G1 X86.088 Y101.375 E3.24193
G1 X85.469 Y100.511 E3.34025
G1 X85.093 Y99.324 E3.45539
G1 X84.966 Y97.962 E3.58186
G1 X85.106 Y96.593 E3.70922
G1 X85.508 Y95.418 E3.82409
G1 X86.141 Y94.560 E3.92266
G1 X86.992 Y94.233 E4.00695 F378.000
G1 X87.842 Y94.589 E4.09225
G1 X88.461 Y95.447 E4.19006
G1 X88.837 Y96.640 E4.30580
G1 X88.964 Y98.009 E4.43288
G1 X88.818 Y99.365 E4.55910
G1 X88.422 Y100.540 E4.67371
G1 X87.824 Y101.350 E4.76686
G1 F1800.000 E3.76686
G92 E0
G1 X85.998 Y94.187 F7800.000
G1 X107.403 Y139.080 F7800.000
G1 E1.00000 F1800.000
G1 X108.649 Y138.579 E1.12423 F540.000
G1 X109.960 Y138.301 E1.24819
G1 X111.254 Y138.281 E1.36785
G1 X111.441 Y138.350 E1.38635
G1 X112.405 Y138.716 E1.48174 F540.000
G1 X113.180 Y139.670 E1.59538
G1 X113.193 Y140.903 E1.70947
G1 X112.494 Y141.962 E1.82685
G1 X111.361 Y142.685 E1.95115
G1 X110.056 Y143.197 E2.08082
G1 X108.685 Y143.505 E2.21076
G1 X107.326 Y143.535 E2.33653
G1 X106.159 Y143.040 E2.45373
G1 X105.487 Y142.001 E2.56819
G1 X105.613 Y140.796 E2.68023
G1 X106.321 Y139.786 E2.79436
G1 X107.353 Y139.113 E2.90825
G1 X107.699 Y139.646 F7800.000
G1 X108.835 Y139.189 E3.02148 F378.000
G1 X110.032 Y138.936 E3.13470
G1 X111.056 Y138.917 E3.22938
G1 X111.142 Y138.917 E3.23739 F378.000
G1 X112.020 Y139.249 E3.32419
G1 X112.547 Y139.898 E3.40149
G1 X112.555 Y140.716 E3.47713
G1 X112.040 Y141.498 E3.56379
G1 X111.072 Y142.115 E3.66995
G1 X109.869 Y142.587 E3.78951
G1 X108.607 Y142.871 E3.90908
G1 X107.447 Y142.897 E4.01645
G1 X107.364 Y142.863 E4.02478
G1 X106.587 Y142.532 E4.10284
G1 X106.143 Y141.845 E4.17847
G1 X106.231 Y141.022 E4.25501
G1 X106.769 Y140.253 E4.34186
G1 X107.649 Y139.679 E4.43903
G1 X111.091 Y138.838 F7800.000
G1 X117.105 Y136.863 F7800.000
G1 X116.933 Y136.283 E4.49494 F540.000
G1 X117.207 Y135.091 E4.60806
G1 X117.938 Y134.024 E4.72766
G1 X118.902 Y133.093 E4.85166
G1 X120.003 Y132.321 E4.97601
G1 X121.193 Y131.813 E5.09571
G1 X122.420 Y131.775 E5.20923
G1 X123.506 Y132.360 E5.32325
G1 X123.985 Y133.494 E5.43717 F540.000
G1 X123.750 Y134.733 E5.55374
G1 X122.978 Y135.841 E5.67867
G1 X121.955 Y136.817 E5.80942
G1 X120.807 Y137.627 E5.93935
G1 X119.568 Y138.175 E6.06469
G1 X118.296 Y138.175 E6.18230
G1 X117.277 Y137.445 E6.29819
G1 X117.122 Y136.920 E6.34881
G1 X117.715 Y136.682 F7800.000
G1 X117.590 Y136.263 E6.38927 F378.000
G1 X117.800 Y135.352 E6.47574
G1 X118.427 Y134.435 E6.57853
G1 X119.308 Y133.585 E6.69172
G1 X120.311 Y132.881 E6.80505
G1 X121.334 Y132.445 E6.90792
G1 X121.417 Y132.442 E6.91561
G1 X122.269 Y132.416 E6.99445 F378.000
G1 X123.007 Y132.813 E7.07197
G1 X123.325 Y133.565 E7.14745
G1 X123.152 Y134.477 E7.23329
G1 X122.491 Y135.428 E7.34046
G1 X121.551 Y136.325 E7.46062
G1 X120.546 Y137.035 E7.57438
G1 X119.432 Y137.539 E7.68746
G1 X118.500 Y137.539 E7.77366
G1 X117.825 Y137.055 E7.85048
G1 X117.732 Y136.740 E7.88091
G1 F1800.000 E6.88091
G92 E0
G1 X121.497 Y132.050 F7800.000
G1 X126.457 Y128.744 F7800.000
G1 E1.00000 F1800.000
G1 X125.680 Y127.800 E1.11308 F540.000
G1 X125.470 Y126.591 E1.22655
G1 X125.748 Y125.311 E1.34772
G1 X126.274 Y124.089 E1.47071
G1 X127.004 Y122.949 E1.59595
G1 X127.912 Y122.030 E1.71545
G1 X129.022 Y121.528 E1.82815
G1 X130.247 Y121.647 E1.94193
G1 X131.136 Y122.511 E2.05662 F540.000
G1 X131.378 Y123.750 E2.17343
G1 X131.093 Y125.067 E2.29803
G1 X130.523 Y126.359 E2.42863
G1 X129.772 Y127.534 E2.55760
G1 X128.829 Y128.528 E2.68433
G1 X127.664 Y128.995 E2.80045
G1 X126.515 Y128.756 E2.90895
G1 X126.805 Y128.167 F7800.000
G1 X126.278 Y127.526 E2.98575 F378.000
G1 X126.118 Y126.601 E3.07258
G1 X126.356 Y125.507 E3.17611
G1 X126.837 Y124.388 E3.28879
G1 X127.503 Y123.348 E3.40301
G1 X128.283 Y122.560 E3.50549
G1 X128.358 Y122.527 E3.51311
G1 X129.130 Y122.177 E3.59153 F378.000
G1 X129.964 Y122.258 E3.66899
G1 X130.551 Y122.828 E3.74472
G1 X130.729 Y123.741 E3.83072
G1 X130.485 Y124.871 E3.93764
G1 X129.961 Y126.058 E4.05763
G1 X129.268 Y127.141 E4.17658
G1 X128.465 Y127.990 E4.28467
G1 X127.606 Y128.334 E4.37028
G1 X126.864 Y128.179 E4.44036
G1 F1800.000 E3.44036
G92 E0
G1 X128.262 Y122.138 F7800.000
G1 X131.585 Y117.162 F7800.000
G1 E1.00000 F1800.000
G1 X130.514 Y116.579 E1.11274 F540.000
G1 X129.872 Y115.551 E1.22489
G1 X129.625 Y114.262 E1.34627
G1 X129.653 Y112.932 E1.46935
G1 X129.882 Y111.613 E1.59312
G1 X130.368 Y110.402 E1.71382
G1 X131.221 Y109.517 E1.82752
G1 X132.374 Y109.161 E1.93915
G1 X133.532 Y109.614 E2.05417
G1 X134.242 Y110.659 E2.17102 F540.000
G1 X134.472 Y112.010 E2.29776
G1 X134.450 Y113.406 E2.42695
G1 X134.198 Y114.780 E2.55610
G1 X133.705 Y116.056 E2.68260
G1 X132.813 Y116.947 E2.79925
G1 X131.644 Y117.152 E2.90904
G1 X131.694 Y116.498 F7800.000
G1 X130.965 Y116.101 E2.98578 F378.000
G1 X130.474 Y115.314 E3.07163
G1 X130.262 Y114.209 E3.17564
G1 X130.287 Y112.993 E3.28815
G1 X130.497 Y111.789 E3.40118
G1 X130.913 Y110.751 E3.50466
G1 X131.565 Y110.076 E3.59140
G1 X132.350 Y109.834 E3.66740 F378.000
G1 X133.117 Y110.134 E3.74364
G1 X133.641 Y110.904 E3.82975
G1 X133.835 Y112.054 E3.93760
G1 X133.815 Y113.344 E4.05692
G1 X133.583 Y114.610 E4.17601
G1 X133.163 Y115.698 E4.28385
G1 X132.506 Y116.356 E4.36987
G1 X131.753 Y116.488 E4.44056
G1 F1800.000 E3.44056
G92 E0
G1 X131.466 Y109.689 F7800.000
G1 X131.928 Y104.505 F7800.000
G1 E1.00000 F1800.000
G1 X130.714 Y104.387 E1.11285 F540.000
G1 X129.709 Y103.665 E1.22726
G1 X129.008 Y102.584 E1.34646
G1 X128.508 Y101.335 E1.47090
G1 X128.227 Y100.014 E1.59576
G1 X128.214 Y98.728 E1.71474
G1 X128.651 Y97.574 E1.82886
G1 X129.586 Y96.799 E1.94117
G1 X130.845 Y96.780 E2.05764
G1 X131.699 Y97.351 E2.15266
G1 X131.889 Y97.481 E2.17397 F540.000
G1 X132.615 Y98.624 E2.29921
G1 X133.114 Y99.914 E2.42715
G1 X133.421 Y101.300 E2.55841
G1 X133.459 Y102.650 E2.68333
G1 X132.969 Y103.809 E2.79972
G1 X131.978 Y104.472 E2.91000
G1 X131.766 Y103.850 F7800.000
G1 X130.943 Y103.769 E2.98645 F378.000
G1 X130.179 Y103.222 E3.07333
G1 X129.556 Y102.244 E3.18063
G1 X129.118 Y101.148 E3.28979
G1 X128.863 Y99.951 E3.40300
G1 X128.851 Y98.839 E3.50580
G1 X129.184 Y97.961 E3.59269
G1 X129.822 Y97.430 E3.66946
G1 X130.525 Y97.416 E3.73445
G1 X130.653 Y97.416 E3.74631 F378.000
G1 X131.423 Y97.932 E3.83204
G1 X132.044 Y98.911 E3.93929
G1 X132.508 Y100.109 E4.05809
G1 X132.788 Y101.376 E4.17806
G1 X132.820 Y102.533 E4.28514
G1 X132.457 Y103.389 E4.37118
G1 X131.816 Y103.817 E4.44248
G1 F1800.000 E3.44248
G92 E0
G1 X130.511 Y97.289 F7800.000
G1 X127.399 Y92.675 F7800.000
G1 E1.00000 F1800.000
G1 X126.214 Y93.032 E1.11449 F540.000
G1 X125.030 Y92.751 E1.22699
G1 X123.956 Y92.019 E1.34726
G1 X123.028 Y91.053 E1.47119
G1 X122.268 Y89.957 E1.59448
G1 X121.761 Y88.757 E1.71498
G1 X121.721 Y87.530 E1.82853
G1 X122.294 Y86.451 E1.94152
G1 X123.434 Y85.960 E2.05624
G1 X124.463 Y86.154 E2.15314
G1 X124.681 Y86.200 E2.17368 F540.000
G1 X125.789 Y86.981 E2.29914
G1 X126.752 Y87.992 E2.42830
G1 X127.560 Y89.142 E2.55826
G1 X128.103 Y90.380 E2.68329
G1 X128.103 Y91.640 E2.79978
G1 X127.433 Y92.625 E2.90999
G1 X127.001 Y92.131 F7800.000
G1 X126.196 Y92.374 E2.98770 F378.000
G1 X125.288 Y92.158 E3.07403
G1 X124.368 Y91.530 E3.17708
G1 X123.523 Y90.653 E3.28975
G1 X122.827 Y89.648 E3.40278
G1 X122.392 Y88.618 E3.50624
G1 X122.362 Y87.682 E3.59282
G1 X122.752 Y86.947 E3.66980
G1 X123.394 Y86.671 E3.73447
G1 X123.508 Y86.621 E3.74599 F378.000
G1 X124.424 Y86.795 E3.83217
G1 X125.371 Y87.464 E3.93944
G1 X126.260 Y88.396 E4.05853
G1 X127.003 Y89.455 E4.17818
G1 X127.467 Y90.515 E4.28519
G1 X127.467 Y91.446 E4.37133
G1 X127.034 Y92.082 E4.44246
G1 F1800.000 E3.44246
G92 E0
G1 X123.333 Y86.562 F7800.000
G1 X118.701 Y83.491 F7800.000
G1 E1.00000 F1800.000
G1 X117.750 Y84.253 E1.11279 F540.000
G1 X116.542 Y84.468 E1.22621
G1 X115.263 Y84.192 E1.34727
G1 X114.049 Y83.658 E1.46990
G1 X112.927 Y82.938 E1.59315
G1 X111.992 Y82.025 E1.71411
G1 X111.502 Y80.906 E1.82710
G1 X111.608 Y79.687 E1.94027
G1 X112.481 Y78.801 E2.05534
G1 X113.713 Y78.547 E2.17166
G1 X113.952 Y78.601 E2.19432
G1 X115.026 Y78.842 E2.29608 F540.000
G1 X116.314 Y79.404 E2.42609
G1 X117.503 Y80.159 E2.55636
G1 X118.476 Y81.108 E2.68203
G1 X118.958 Y82.269 E2.79832
G1 X118.713 Y83.432 E2.90822
G1 X118.125 Y83.138 F7800.000
G1 X117.477 Y83.656 E2.98496 F378.000
G1 X116.553 Y83.821 E3.07182
G1 X115.459 Y83.584 E3.17531
G1 X114.350 Y83.096 E3.28735
G1 X113.325 Y82.438 E3.40007
G1 X112.524 Y81.657 E3.50358
G1 X112.148 Y80.798 E3.59021
G1 X112.221 Y79.970 E3.66710
G1 X112.798 Y79.385 E3.74316
G1 X113.613 Y79.218 E3.82012
G1 X113.708 Y79.198 E3.82909 F378.000
G1 X114.829 Y79.450 E3.93535
G1 X116.015 Y79.967 E4.05498
G1 X117.107 Y80.661 E4.17468
G1 X117.937 Y81.470 E4.28189
G1 X118.294 Y82.328 E4.36783
G1 X118.137 Y83.079 E4.43875
G1 F1800.000 E3.43875
G92 E0
G1 X113.570 Y79.131 F7800.000
G1 X107.143 Y78.334 F7800.000
G1 E1.00000 F1800.000
G1 X106.579 Y79.410 E1.11232 F540.000
G1 X105.540 Y80.061 E1.22578
G1 X104.260 Y80.303 E1.34623
G1 X102.919 Y80.282 E1.47030
G1 X101.610 Y80.044 E1.59338
G1 X100.398 Y79.560 E1.71406
G1 X99.518 Y78.714 E1.82702
G1 X99.163 Y77.557 E1.93890
G1 X99.603 Y76.399 E2.05353
G1 X100.652 Y75.684 E2.17090
G1 X101.994 Y75.445 E2.29698
G1 X102.123 Y75.448 E2.30892
G1 X103.403 Y75.479 E2.42734 F540.000
G1 X104.775 Y75.727 E2.55622
G1 X106.038 Y76.217 E2.68154
G1 X106.923 Y77.112 E2.79801
G1 X107.132 Y78.275 E2.90731
G1 X106.479 Y78.231 F7800.000
G1 X106.097 Y78.962 E2.98358 F378.000
G1 X105.302 Y79.460 E3.07037
G1 X104.209 Y79.666 E3.17330
G1 X102.981 Y79.647 E3.28686
G1 X101.788 Y79.431 E3.39902
G1 X100.746 Y79.015 E3.50279
G1 X100.688 Y78.961 E3.51008
G1 X100.077 Y78.370 E3.58876
G1 X99.834 Y77.580 E3.66521
G1 X100.126 Y76.812 E3.74116
G1 X100.898 Y76.287 E3.82748
G1 X100.996 Y76.270 E3.83669
G1 X102.044 Y76.082 E3.93521 F378.000
G1 X103.339 Y76.113 E4.05496
G1 X104.600 Y76.341 E4.17353
G1 X105.681 Y76.759 E4.28065
G1 X106.336 Y77.421 E4.36679
G1 X106.469 Y78.172 E4.43733
G1 F1800.000 E3.43733
G92 E0
G1 X100.780 Y75.933 F7800.000
G1 X94.518 Y78.017 F7800.000
G1 E1.00000 F1800.000
G1 X94.388 Y79.225 E1.11236 F540.000
G1 X93.685 Y80.220 E1.22505
G1 X92.592 Y80.929 E1.34553
G1 X91.358 Y81.421 E1.46837
G1 X90.046 Y81.705 E1.59260
G1 X88.752 Y81.721 E1.71228
G1 X87.608 Y81.284 E1.82547
G1 X86.835 Y80.344 E1.93804
G1 X86.810 Y79.103 E2.05281
G1 X87.501 Y78.046 E2.16964
G1 X88.640 Y77.312 E2.29499
G1 X89.955 Y76.802 E2.42539
G1 X91.323 Y76.501 E2.55499
G1 X92.684 Y76.471 E2.68089
G1 X92.888 Y76.557 E2.70139
G1 X93.850 Y76.959 E2.79782 F540.000
G1 X94.486 Y77.966 E2.90801
G1 X93.862 Y78.169 F7800.000
G1 X93.774 Y78.993 E2.98468 F378.000
G1 X93.286 Y79.685 E3.06303
G1 X93.237 Y79.753 E3.07070
G1 X92.299 Y80.361 E3.17409
G1 X91.172 Y80.811 E3.28636
G1 X89.974 Y81.071 E3.39975
G1 X88.863 Y81.084 E3.50244
G1 X87.993 Y80.751 E3.58868
G1 X87.466 Y80.111 E3.66532
G1 X87.450 Y79.287 E3.74152
G1 X87.958 Y78.509 E3.82754
G1 X88.932 Y77.880 E3.93476
G1 X90.139 Y77.412 E4.05444
G1 X91.399 Y77.135 E4.17382
G1 X92.464 Y77.110 E4.27226
G1 X92.560 Y77.109 E4.28123 F378.000
G1 X93.420 Y77.468 E4.36741
G1 X93.830 Y78.118 E4.43852
G1 X92.424 Y77.022 F7800.000
G1 F1800.000 E3.43852
G92 E0
G1 X82.709 Y82.548 F7800.000
G1 E1.00000 F1800.000
G1 X83.075 Y83.715 E1.11313 F540.000
G1 X82.799 Y84.908 E1.22637
G1 X82.067 Y85.983 E1.34670
G1 X81.110 Y86.919 E1.47055
G1 X80.005 Y87.684 E1.59478
G1 X78.809 Y88.195 E1.71509
G1 X77.587 Y88.223 E1.82817
G1 X76.507 Y87.653 E1.94110
G1 X76.011 Y86.509 E2.05642
G1 X76.262 Y85.276 E2.17283
G1 X77.034 Y84.159 E2.29840
G1 X78.050 Y83.189 E2.42834
G1 X79.205 Y82.372 E2.55915
G1 X80.442 Y81.837 E2.68382
G1 X81.647 Y81.837 E2.79530
G1 X82.167 Y82.942 F7800.000
G1 X82.416 Y83.740 E2.87260 F378.000
G1 X82.206 Y84.648 E2.95883
G1 X81.578 Y85.572 E3.06216
G1 X80.704 Y86.427 E3.17530
