; generated by Slic3r 1.1.7 on 2015-01-27 at 20:05:50

; perimeters extrusion width = 0.40mm
; infill extrusion width = 0.42mm
; solid infill extrusion width = 0.42mm
; top infill extrusion width = 0.42mm

G21 ; set units to millimeters
M107
G28 ; home all axes

G90 ; use absolute coordinates
G92 E0
M82 ; use absolute distances for extrusion
G1 F1800.000 E-1.00000
G92 E0
G1 Z0.350 F7800.000
G1 X65.060 Y71.297 F7800.000
G1 E1.00000 F1800.000
G1 X67.038 Y69.602 E1.24092 F1080.000
G1 X69.084 Y68.019 E1.48015
G1 X71.165 Y66.567 E1.71484
G1 X73.280 Y65.230 E1.94629
G1 X75.565 Y63.941 E2.18896
G1 X77.866 Y62.793 E2.42675
G1 X80.157 Y61.786 E2.65826
G1 X82.617 Y60.842 E2.90199
G1 X84.792 Y60.134 E3.11356
G1 X87.498 Y59.378 E3.37335
G1 X89.983 Y58.832 E3.60870
G1 X92.521 Y58.398 E3.84687
G1 X95.040 Y58.098 E4.08143
G1 X97.284 Y57.929 E4.28961
G1 X100.209 Y57.860 E4.56018
G1 X102.726 Y57.930 E4.79309 F1080.000
G1 X105.272 Y58.128 E5.02935
G1 X107.812 Y58.448 E5.26608
G1 X110.332 Y58.894 E5.50278
G1 X112.852 Y59.467 E5.74179
G1 X115.264 Y60.152 E5.97376
G1 X117.340 Y60.828 E6.17568
G1 X120.087 Y61.887 E6.44795
G1 X122.388 Y62.906 E6.68068
G1 X137.100 Y70.136 E8.19684
G1 X138.979 Y71.516 E8.41254
G1 X140.734 Y73.371 E8.64869
G1 X142.076 Y74.922 E8.83843
G1 X142.410 Y75.322 E8.88659
G1 X143.778 Y77.080 E9.09262
G1 X144.861 Y79.132 E9.30726
G1 X149.936 Y95.006 E10.84862
G1 X150.622 Y97.498 E11.08767
G1 X151.168 Y99.983 E11.32303
G1 X151.600 Y102.504 E11.55960
G1 X151.909 Y105.057 E11.79748
G1 X152.087 Y107.605 E12.03368
G1 X152.141 Y110.164 E12.27041
G1 X152.071 Y112.708 E12.50581
G1 X151.875 Y115.290 E12.74531
G1 X151.552 Y117.812 E12.98046
G1 X151.106 Y120.332 E13.21716
G1 X150.525 Y122.879 E13.45877
G1 X149.849 Y125.281 E13.68956
G1 X149.035 Y127.727 E13.92801
G1 X148.113 Y130.087 E14.16236
G1 X147.060 Y132.457 E14.40224
G1 X145.901 Y134.730 E14.63821
G1 X144.637 Y136.941 E14.87379
G1 X143.262 Y139.103 E15.11078
G1 X141.790 Y141.183 E15.34641
G1 X140.208 Y143.201 E15.58359
G1 X138.529 Y145.136 E15.82053
G1 X136.724 Y147.018 E16.06179
G1 X134.893 Y148.750 E16.29487
G1 X132.947 Y150.416 E16.53182
G1 X130.921 Y151.984 E16.76871
G1 X128.831 Y153.443 E17.00448
G1 X126.674 Y154.797 E17.24004
G1 X124.449 Y156.052 E17.47629
G1 X122.133 Y157.213 E17.71594
G1 X119.815 Y158.225 E17.94988
G1 X117.399 Y159.153 E18.18927
G1 X114.990 Y159.937 E18.42359
G1 X112.504 Y160.620 E18.66202
G1 X110.020 Y161.168 E18.89729
G1 X107.498 Y161.599 E19.13392
G1 X104.946 Y161.909 E19.37169
G1 X102.390 Y162.087 E19.60868
G1 X99.843 Y162.141 E19.84430
G1 X97.283 Y162.071 E20.08113
G1 X94.718 Y161.876 E20.31908
G1 X92.185 Y161.552 E20.55527
G1 X89.682 Y161.108 E20.79043
G1 X87.154 Y160.536 E21.03014
G1 X84.719 Y159.849 E21.26409
G1 X82.644 Y159.167 E21.46617
G1 X79.900 Y158.107 E21.73822
G1 X77.656 Y157.110 E21.96536
G1 X62.770 Y149.892 E23.49550
G1 X60.604 Y148.213 E23.74894
G1 X58.966 Y146.270 E23.98401
G1 X57.409 Y144.232 E24.22124
G1 X56.137 Y142.396 E24.42782
G1 X55.297 Y140.720 E24.60121
G1 X50.842 Y127.383 E25.90178
G1 X50.073 Y125.006 E26.13279
G1 X49.479 Y122.895 E26.33564
G1 X48.832 Y120.022 E26.60805
G1 X48.392 Y117.431 E26.85105
G1 X48.098 Y114.964 E27.08090
G1 X47.913 Y112.390 E27.31957
G1 X47.859 Y109.843 E27.55519
G1 X47.930 Y107.266 E27.79366
G1 X48.128 Y104.736 E28.02837
G1 X48.448 Y102.185 E28.26613
G1 X48.821 Y100.046 E28.46695
G1 X49.469 Y97.138 E28.74255
G1 X50.142 Y94.765 E28.97064
G1 X50.965 Y92.273 E29.21335
G1 X51.893 Y89.900 E29.44903
G1 X52.933 Y87.569 E29.68512
G1 X54.099 Y85.270 E29.92354
G1 X55.373 Y83.043 E30.16089
G1 X56.735 Y80.914 E30.39465
G1 X58.216 Y78.817 E30.63204
G1 X59.755 Y76.850 E30.86311
G1 X61.468 Y74.873 E31.10497
G1 X63.253 Y73.004 E31.34407
G1 X65.017 Y71.338 E31.56843
G1 F1800.000 E30.56843
G92 E0
G1 X93.846 Y143.046 F7800.000
G1 E1.00000 F1800.000
G1 X92.682 Y143.528 E1.11657 F540.000
G1 X91.326 Y143.510 E1.24196
G1 X89.955 Y143.200 E1.37199
G1 X88.641 Y142.690 E1.50235
G1 X87.507 Y141.953 E1.62748
G1 X86.801 Y140.910 E1.74396
G1 X86.827 Y139.651 E1.86036
G1 X87.602 Y138.729 E1.97184
G1 X88.741 Y138.283 E2.08497
G1 X88.949 Y138.285 E2.10418
G1 X90.047 Y138.291 E2.20578 F540.000
G1 X91.362 Y138.583 E2.33038
G1 X92.600 Y139.073 E2.45352
G1 X93.690 Y139.784 E2.57388
G1 X94.403 Y140.792 E2.68800
G1 X94.510 Y141.995 E2.79970
G1 X93.878 Y142.996 E2.90917
G1 X93.417 Y142.536 F7800.000
G1 X92.561 Y142.889 E2.99476 F378.000
G1 X91.398 Y142.875 E3.10233
G1 X90.141 Y142.591 E3.22160
G1 X88.934 Y142.123 E3.34127
G1 X87.962 Y141.489 E3.44859
G1 X87.441 Y140.720 E3.53457
G1 X87.457 Y139.890 E3.61137
G1 X87.988 Y139.260 E3.68756
G1 X88.780 Y138.950 E3.76619
G1 X88.858 Y138.920 E3.77391 F378.000
G1 X89.976 Y138.926 E3.87734
G1 X91.175 Y139.193 E3.99095
G1 X92.308 Y139.642 E4.10365
G1 X93.241 Y140.251 E4.20671
G1 X93.785 Y141.019 E4.29377
G1 X93.858 Y141.837 E4.36975
G1 X93.449 Y142.485 E4.44062
G1 F1800.000 E3.44062
G92 E0
G1 X88.733 Y138.881 F7800.000
G1 X82.724 Y137.456 F7800.000
G1 E1.00000 F1800.000
G1 X81.698 Y138.166 E1.11545 F540.000
G1 X80.444 Y138.166 E1.23137
G1 X79.194 Y137.624 E1.35736
G1 X78.049 Y136.815 E1.48703
G1 X77.025 Y135.844 E1.61758
G1 X76.251 Y134.731 E1.74302
G1 X76.018 Y133.488 E1.85991
G1 X76.499 Y132.362 E1.97321
G1 X77.583 Y131.778 E2.08702
G1 X78.605 Y131.810 E2.18164
G1 X78.807 Y131.816 E2.20030 F540.000
G1 X79.999 Y132.324 E2.32017
G1 X81.099 Y133.089 E2.44406
G1 X82.062 Y134.018 E2.56788
G1 X82.802 Y135.089 E2.68825
G1 X83.070 Y136.291 E2.80217
G1 X82.741 Y137.398 E2.90899
G1 X82.178 Y137.061 F7800.000
G1 X81.499 Y137.530 E2.98527 F378.000
G1 X80.574 Y137.530 E3.07084
G1 X79.507 Y137.067 E3.17847
G1 X78.453 Y136.322 E3.29778
G1 X77.512 Y135.431 E3.41762
G1 X76.850 Y134.478 E3.52498
G1 X76.678 Y133.561 E3.61129
G1 X76.996 Y132.816 E3.68621
G1 X77.734 Y132.419 E3.76364 F378.000
G1 X78.668 Y132.448 E3.85010
G1 X79.692 Y132.884 E3.95303
G1 X80.694 Y133.581 E4.06598
G1 X81.575 Y134.430 E4.17911
G1 X82.209 Y135.349 E4.28238
G1 X82.413 Y136.264 E4.36907
G1 X82.195 Y137.003 E4.44038
G1 F1800.000 E3.44038
G92 E0
G1 X76.750 Y132.501 F7800.000
G1 X73.550 Y128.740 F7800.000
G1 E1.00000 F1800.000
G1 X72.335 Y128.993 E1.11478 F540.000
G1 X71.166 Y128.512 E1.23169
G1 X70.235 Y127.542 E1.35609
G1 X69.480 Y126.362 E1.48563
G1 X68.911 Y125.071 E1.61616
G1 X68.617 Y123.748 E1.74146
G1 X68.878 Y122.502 E1.85922
G1 X69.758 Y121.648 E1.97262
G1 X70.973 Y121.517 E2.08571
G1 X71.915 Y121.940 E2.18119
G1 X72.098 Y122.024 E2.19981 F540.000
G1 X73.008 Y122.962 E2.32074
G1 X73.729 Y124.085 E2.44408
G1 X74.255 Y125.302 E2.56672
G1 X74.531 Y126.581 E2.68773
G1 X74.324 Y127.788 E2.80102
G1 X73.588 Y128.694 E2.90898
G1 X73.199 Y128.164 F7800.000
G1 X72.396 Y128.331 E2.98488 F378.000
G1 X71.535 Y127.978 E3.07090
G1 X70.736 Y127.146 E3.17766
G1 X70.042 Y126.061 E3.29680
G1 X69.518 Y124.874 E3.41678
G1 X69.267 Y123.742 E3.52402
G1 X69.460 Y122.823 E3.61086
G1 X70.044 Y122.256 E3.68610
G1 X70.870 Y122.167 E3.76301 F378.000
G1 X71.727 Y122.553 E3.84987
G1 X72.507 Y123.358 E3.95362
G1 X73.166 Y124.384 E4.06637
G1 X73.647 Y125.498 E4.17861
G1 X73.884 Y126.592 E4.28209
G1 X73.725 Y127.516 E4.36885
G1 X73.237 Y128.117 E4.44052
G1 F1800.000 E3.44052
G92 E0
G1 X69.935 Y121.871 F7800.000
G1 X68.414 Y117.158 F7800.000
G1 E1.00000 F1800.000
G1 X67.185 Y116.945 E1.11543 F540.000
G1 X66.286 Y116.047 E1.23290
G1 X65.806 Y114.786 E1.35773
G1 X65.560 Y113.399 E1.48797
G1 X65.526 Y111.991 E1.61823
G1 X65.758 Y110.670 E1.74229
G1 X66.472 Y109.618 E1.85986
G1 X67.615 Y109.148 E1.97421
G1 X68.794 Y109.517 E2.08848
G1 X69.624 Y110.389 E2.19979 F540.000
G1 X70.114 Y111.609 E2.32137
G1 X70.350 Y112.929 E2.44543
G1 X70.371 Y114.275 E2.56993
G1 X70.139 Y115.550 E2.68977
G1 X69.485 Y116.587 E2.80321
G1 X68.467 Y117.130 E2.90986
G1 X68.308 Y116.495 F7800.000
G1 X67.492 Y116.353 E2.98647 F378.000
G1 X66.832 Y115.693 E3.07280
G1 X66.421 Y114.614 E3.17959
G1 X66.194 Y113.336 E3.29969
G1 X66.163 Y112.041 E3.41941
G1 X66.361 Y110.910 E3.52566
G1 X66.890 Y110.134 E3.61249
G1 X67.645 Y109.823 E3.68799 F378.000
G1 X68.446 Y110.075 E3.76571
G1 X69.082 Y110.744 E3.85107
G1 X69.500 Y111.786 E3.95491
G1 X69.716 Y112.990 E4.06810
G1 X69.735 Y114.220 E4.18181
G1 X69.536 Y115.312 E4.28447
G1 X69.036 Y116.106 E4.37128
G1 X68.361 Y116.466 E4.44208
G1 F1800.000 E3.44208
G92 E0
G1 X66.743 Y109.762 F7800.000
G1 X68.082 Y104.494 F7800.000
G1 E1.00000 F1800.000
G1 X67.237 Y103.962 E1.09240 F540.000
G1 X66.994 Y103.753 E1.12202
G1 X66.556 Y102.654 E1.23145
G1 X66.574 Y101.313 E1.35546
G1 X66.879 Y99.918 E1.48757
G1 X67.394 Y98.628 E1.61603
G1 X68.123 Y97.474 E1.74227
G1 X69.167 Y96.783 E1.85807
G1 X69.491 Y96.783 E1.88808
G1 X70.401 Y96.802 E1.97218 F540.000
G1 X71.364 Y97.583 E2.08687
G1 X71.788 Y98.723 E2.19940
G1 X71.780 Y100.027 E2.31997
G1 X71.497 Y101.332 E2.44350
G1 X71.008 Y102.579 E2.56738
G1 X70.289 Y103.668 E2.68807
G1 X69.298 Y104.375 E2.80063
G1 X68.142 Y104.488 E2.90809
G1 X68.236 Y103.841 F7800.000
G1 X67.647 Y103.472 E2.97236 F378.000
G1 X67.527 Y103.373 E2.98671
G1 X67.195 Y102.536 E3.07002
G1 X67.209 Y101.386 E3.17641
G1 X67.488 Y100.109 E3.29737
G1 X67.965 Y98.914 E3.41631
G1 X68.588 Y97.928 E3.52419
G1 X68.668 Y97.874 E3.53319
G1 X69.357 Y97.419 E3.60956 F378.000
G1 X70.171 Y97.433 E3.68487
G1 X70.827 Y97.962 E3.76279
G1 X71.152 Y98.836 E3.84900
G1 X71.145 Y99.953 E3.95236
G1 X70.886 Y101.149 E4.06549
G1 X70.458 Y102.242 E4.17402
G1 X69.822 Y103.221 E4.28211
G1 X69.067 Y103.760 E4.36782
G1 X68.296 Y103.835 E4.43947
G1 F1800.000 E3.43947
G92 E0
G1 X68.508 Y97.507 F7800.000
G1 X72.599 Y92.670 F7800.000
G1 E1.00000 F1800.000
G1 X71.908 Y91.643 E1.11447 F540.000
G1 X71.899 Y90.392 E1.23027
G1 X72.446 Y89.137 E1.35685
G1 X73.250 Y87.990 E1.48633
G1 X74.217 Y86.974 E1.61613
G1 X75.324 Y86.207 E1.74066
G1 X76.561 Y85.954 E1.85746
G1 X76.865 Y86.086 E1.88814
G1 X77.711 Y86.458 E1.97358 F540.000
G1 X78.282 Y87.535 E2.08627
G1 X78.245 Y88.757 E2.19940
G1 X77.736 Y89.952 E2.31947
G1 X76.970 Y91.052 E2.44349
G1 X76.048 Y92.020 E2.56712
G1 X74.971 Y92.754 E2.68769
G1 X73.786 Y93.028 E2.80022
G1 X72.657 Y92.688 E2.90925
G1 X73.001 Y92.128 F7800.000
G1 X72.542 Y91.446 E2.98526 F378.000
G1 X72.535 Y90.524 E3.07047
G1 X73.001 Y89.455 E3.17832
G1 X73.743 Y88.394 E3.29811
G1 X74.633 Y87.460 E3.41744
G1 X75.580 Y86.804 E3.52398
G1 X75.661 Y86.787 E3.53168
G1 X76.492 Y86.617 E3.61005 F378.000
G1 X77.252 Y86.951 E3.68689
G1 X77.641 Y87.686 E3.76378
G1 X77.613 Y88.620 E3.85019
G1 X77.176 Y89.644 E3.95319
G1 X76.478 Y90.647 E4.06620
G1 X75.636 Y91.533 E4.17926
G1 X74.714 Y92.161 E4.28241
G1 X73.806 Y92.371 E4.36868
G1 X73.058 Y92.145 E4.44087
G1 F1800.000 E3.44087
G92 E0
G1 X75.650 Y86.387 F7800.000
G1 X81.302 Y83.475 F7800.000
G1 E1.00000 F1800.000
G1 X81.044 Y82.274 E1.11359 F540.000
G1 X81.530 Y81.109 E1.23034
G1 X82.497 Y80.158 E1.35575
G1 X83.682 Y79.407 E1.48548
G1 X84.972 Y78.838 E1.61594
G1 X86.298 Y78.551 E1.74140
G1 X86.517 Y78.596 E1.76212
G1 X87.528 Y78.789 E1.85728 F540.000
G1 X88.383 Y79.694 E1.97248
G1 X88.508 Y80.920 E2.08646
G1 X88.007 Y82.033 E2.19934
G1 X87.077 Y82.939 E2.31939
G1 X85.965 Y83.662 E2.44214
G1 X84.736 Y84.190 E2.56578
G1 X83.467 Y84.464 E2.68588
G1 X82.249 Y84.257 E2.80015
G1 X81.348 Y83.513 E2.90822
G1 X81.878 Y83.126 F7800.000
G1 X81.709 Y82.332 E2.98334 F378.000
G1 X82.068 Y81.473 E3.06945
G1 X82.895 Y80.659 E3.17680
G1 X83.982 Y79.970 E3.29583
G1 X85.103 Y79.475 E3.40919
G1 X85.168 Y79.446 E3.41577
G1 X86.198 Y79.224 E3.51322
G1 X86.302 Y79.201 E3.52302 F378.000
G1 X87.207 Y79.375 E3.60831
G1 X87.774 Y79.975 E3.68466
G1 X87.861 Y80.809 E3.76226
G1 X87.477 Y81.661 E3.84867
G1 X86.679 Y82.440 E3.95184
G1 X85.664 Y83.100 E4.06380
G1 X84.594 Y83.559 E4.17146
G1 X83.452 Y83.818 E4.27976
G1 X82.524 Y83.660 E4.36686
G1 X81.924 Y83.164 E4.43880
G1 F1800.000 E3.43880
G92 E0
G1 X86.207 Y79.118 F7800.000
G1 X92.851 Y78.319 F7800.000
G1 E1.00000 F1800.000
G1 X93.079 Y77.109 E1.11385 F540.000
G1 X93.968 Y76.214 E1.23060
G1 X95.223 Y75.725 E1.35514
G1 X96.600 Y75.470 E1.48465
G1 X98.012 Y75.442 E1.61528
G1 X99.120 Y75.648 E1.71949
G1 X99.345 Y75.690 E1.74065 F540.000
G1 X100.398 Y76.382 E1.85722
G1 X100.839 Y77.553 E1.97290
G1 X100.492 Y78.703 E2.08406
G1 X99.604 Y79.559 E2.19812
G1 X98.399 Y80.041 E2.31819
G1 X97.077 Y80.279 E2.44239
G1 X95.744 Y80.300 E2.56571
G1 X94.470 Y80.065 E2.68552
G1 X93.429 Y79.417 E2.79901
G1 X92.879 Y78.372 E2.90817
G1 X93.517 Y78.220 F7800.000
G1 X93.667 Y77.418 E2.98361 F378.000
G1 X94.320 Y76.759 E3.06943
G1 X95.452 Y76.329 E3.18141
G1 X96.664 Y76.104 E3.29546
G1 X97.895 Y76.080 E3.40929
G1 X99.100 Y76.291 E3.52241 F378.000
G1 X99.876 Y76.800 E3.60831
G1 X100.168 Y77.576 E3.68496
G1 X99.933 Y78.360 E3.76072
G1 X99.257 Y79.013 E3.84759
G1 X98.221 Y79.428 E3.95082
G1 X97.016 Y79.644 E4.06406
G1 X95.795 Y79.663 E4.17700
G1 X94.707 Y79.464 E4.27929
G1 X93.908 Y78.966 E4.36640
G1 X93.544 Y78.273 E4.43875
G1 F1800.000 E3.43875
G92 E0
G1 X98.062 Y75.717 F7800.000
G1 X105.494 Y78.014 F7800.000
G1 E1.00000 F1800.000
G1 X106.151 Y76.953 E1.11552 F540.000
G1 X107.331 Y76.473 E1.23334
G1 X107.558 Y76.478 E1.25430
G1 X108.677 Y76.497 E1.35786 F540.000
G1 X110.045 Y76.799 E1.48743
G1 X111.356 Y77.314 E1.61772
G1 X112.495 Y78.048 E1.74305
G1 X113.199 Y79.091 E1.85935
G1 X113.174 Y80.342 E1.97511
G1 X112.391 Y81.290 E2.08880
G1 X111.255 Y81.717 E2.20103
G1 X109.954 Y81.709 E2.32140
G1 X108.649 Y81.416 E2.44513
G1 X107.411 Y80.925 E2.56830
G1 X106.314 Y80.216 E2.68908
G1 X105.612 Y79.209 E2.80262
G1 X105.500 Y78.074 E2.90811
G1 X106.147 Y78.166 F7800.000
G1 X106.582 Y77.464 E2.98451 F378.000
G1 X107.369 Y77.145 E3.06307
G1 X107.451 Y77.111 E3.07120 F378.000
G1 X108.603 Y77.131 E3.17777
G1 X109.859 Y77.409 E3.29680
G1 X111.065 Y77.883 E3.41658
G1 X112.038 Y78.511 E3.52377
G1 X112.559 Y79.280 E3.60969
G1 X112.543 Y80.108 E3.68626
G1 X112.009 Y80.755 E3.76379
G1 X111.141 Y81.080 E3.84955
G1 X110.024 Y81.074 E3.95283
G1 X108.837 Y80.807 E4.06543
G1 X107.704 Y80.358 E4.17816
G1 X106.764 Y79.750 E4.28166
G1 X106.228 Y78.981 E4.36830
G1 X106.153 Y78.226 E4.43854
G1 X107.363 Y77.057 F7800.000
G1 F1800.000 E3.43854
G92 E0
G1 X112.652 Y93.689 F7800.000
G1 E1.00000 F1800.000
G1 X113.002 Y93.542 E1.03511 F540.000
G1 X114.264 Y94.047 E1.16076
G1 X115.063 Y95.113 E1.28406 F540.000
G1 X115.522 Y96.459 E1.41561
G1 X115.675 Y97.956 E1.55480
G1 X115.537 Y99.446 E1.69317
G1 X115.116 Y100.788 E1.82326
G1 X114.334 Y101.882 E1.94764
G1 X113.082 Y102.406 E2.07314
G1 X111.814 Y101.923 E2.19872
G1 X111.009 Y100.833 E2.32403
G1 X110.567 Y99.506 E2.45339
G1 X110.400 Y98.013 E2.59237
G1 X110.539 Y96.506 E2.73227
G1 X110.960 Y95.164 E2.86239
G1 X111.742 Y94.070 E2.98677
G1 X112.597 Y93.712 E3.07249
G1 X112.898 Y94.275 F7800.000
G1 X113.008 Y94.229 E3.08353 F378.000
G1 X113.862 Y94.570 E3.16862
G1 X114.494 Y95.414 E3.26608
G1 X114.897 Y96.596 E3.38161
G1 X115.037 Y97.959 E3.50838
G1 X114.910 Y99.320 E3.63479
G1 X114.540 Y100.501 E3.74924
G1 X113.922 Y101.365 E3.84754
G1 X113.071 Y101.722 E3.93285
G1 X112.214 Y101.395 E4.01765
G1 X111.580 Y100.536 E4.11641
G1 X111.191 Y99.369 E4.23025
G1 X111.039 Y98.006 E4.35702
G1 X111.166 Y96.632 E4.48469
G1 X111.536 Y95.451 E4.59915
G1 X112.154 Y94.587 E4.69745
G1 X112.843 Y94.298 E4.76648 F378.000
G1 X112.050 Y94.201 F7800.000
G1 X118.901 Y86.918 F7800.000
G1 X117.936 Y85.980 E4.89094 F540.000
G1 X117.207 Y84.913 E5.01049
G1 X116.929 Y83.711 E5.12454
G1 X117.294 Y82.545 E5.23763
G1 X118.296 Y81.834 E5.35121
G1 X119.568 Y81.834 E5.46886
G1 X119.778 Y81.927 E5.49011
G1 X120.810 Y82.382 E5.59443 F540.000
G1 X121.963 Y83.184 E5.72434
G1 X122.975 Y84.156 E5.85410
G1 X123.745 Y85.263 E5.97881
G1 X123.982 Y86.511 E6.09633
G1 X123.501 Y87.638 E6.20968
G1 X122.417 Y88.222 E6.32348
G1 X121.193 Y88.184 E6.43678
G1 X120.001 Y87.676 E6.55662
G1 X118.950 Y86.952 E6.67464
G1 X119.306 Y86.425 F7800.000
G1 X118.425 Y85.569 E6.78824 F378.000
G1 X117.798 Y84.652 E6.89101
G1 X117.587 Y83.737 E6.97784
G1 X117.836 Y82.939 E7.05515
G1 X118.498 Y82.470 E7.13017
G1 X119.434 Y82.470 E7.21674 F378.000
G1 X120.499 Y82.940 E7.32435
