; generated by Slic3r 1.1.7 on 2015-01-28 at 10:16:32

; perimeters extrusion width = 0.40mm
; infill extrusion width = 0.42mm
; solid infill extrusion width = 0.42mm
; top infill extrusion width = 0.42mm

G21 ; set units to millimeters
M107
G28 ; home all axes

G90 ; use absolute coordinates
G92 E0
M82 ; use absolute distances for extrusion
G1 F1800.000 E-1.00000
G92 E0
G1 Z0.350 F7800.000
G1 X71.933 Y59.285 F7800.000
G1 E1.00000 F1800.000
G1 X72.918 Y58.090 E1.14320 F1080.000
G1 X73.822 Y57.448 E1.24580
G1 X73.967 Y57.364 E1.26128
G1 X74.982 Y56.897 E1.36465
G1 X93.487 Y50.212 E3.18442
G1 X94.442 Y50.002 E3.27488
G1 X118.239 Y46.649 E5.49758
G1 X131.274 Y46.715 E6.70326
G1 X133.148 Y46.995 E6.87848 F1080.000
G1 X153.437 Y53.084 E8.83775
G1 X155.489 Y54.114 E9.05005
G1 X157.066 Y55.781 E9.26234
G1 X158.028 Y58.095 E9.49405
G1 X158.143 Y58.652 E9.54673
G1 X158.281 Y59.331 E9.61081
G1 X158.390 Y60.052 E9.67825
G1 X158.674 Y63.200 E9.97057
G1 X159.050 Y67.965 E10.41265
G1 X158.805 Y70.253 E10.62552
G1 X150.151 Y100.239 E13.51208
G1 X149.539 Y101.688 E13.65760
G1 X111.203 Y168.854 E20.81051
G1 X109.810 Y170.559 E21.01415
G1 X105.086 Y174.581 E21.58802
G1 X104.108 Y175.392 E21.70546
G1 X103.261 Y176.057 E21.80513
G1 X102.533 Y176.555 E21.88668
G1 X101.937 Y176.933 E21.95195
G1 X99.810 Y177.795 E22.16424
G1 X97.516 Y177.882 E22.37654
G1 X95.270 Y177.149 E22.59505
G1 X76.619 Y167.101 E24.55453
G1 X75.091 Y165.968 E24.73051
G1 X65.213 Y156.059 E26.02457
G1 X51.407 Y137.605 E28.15621
G1 X50.778 Y136.584 E28.26720
G1 X42.431 Y118.729 E30.09014
G1 X41.999 Y117.307 E30.22757
G1 X41.984 Y117.230 E30.23484
G1 X41.963 Y114.935 E30.44713
G1 X42.631 Y112.942 E30.64148
G1 X71.303 Y60.050 E36.20608
G1 X71.895 Y59.331 E36.29220
G1 F1800.000 E35.29220
G92 E0
G1 X124.896 Y102.024 F7800.000
G1 E1.00000 F1800.000
G1 X124.688 Y102.259 E1.02904 F378.000
G1 X124.438 Y102.449 E1.05808
G1 X124.156 Y102.587 E1.08712
G1 X123.852 Y102.667 E1.11616
G1 X123.539 Y102.686 E1.14520
G1 X123.228 Y102.644 E1.17424
G1 X122.931 Y102.542 E1.20328
G1 X122.660 Y102.384 E1.23232
G1 X122.425 Y102.176 E1.26136
G1 X122.234 Y101.926 E1.29041
G1 X122.097 Y101.644 E1.31945
G1 X122.017 Y101.340 E1.34849
G1 X121.997 Y101.027 E1.37753
G1 X122.040 Y100.716 E1.40657
G1 X122.142 Y100.419 E1.43561
G1 X122.300 Y100.147 E1.46465
G1 X122.508 Y99.912 E1.49369
G1 X122.758 Y99.722 E1.52273
G1 X123.040 Y99.584 E1.55177
G1 X123.344 Y99.504 E1.58081
G1 X123.657 Y99.485 E1.60986
G1 X123.925 Y99.522 E1.63490
G1 X124.265 Y99.630 E1.66788 F378.000
G1 X124.536 Y99.788 E1.69691
G1 X124.772 Y99.996 E1.72595
G1 X124.962 Y100.245 E1.75499
G1 X125.099 Y100.528 E1.78403
G1 X125.179 Y100.831 E1.81308
G1 X125.199 Y101.145 E1.84212
G1 X125.156 Y101.456 E1.87116
G1 X125.054 Y101.753 E1.90020
G1 X124.926 Y101.972 E1.92369
G1 F1800.000 E0.92369
G92 E0
G1 X123.943 Y99.165 F7800.000
G1 X124.055 Y103.625 F7800.000
G1 E1.00000 F1800.000
G1 X124.083 Y103.264 E1.03349 F540.000
G1 X124.379 Y103.186 E1.06179
G1 X124.773 Y102.993 E1.10242
G1 X125.123 Y102.727 E1.14304
G1 X125.414 Y102.398 E1.18365
G1 X125.635 Y102.019 E1.22428
G1 X125.778 Y101.603 E1.26491
G1 X125.837 Y101.168 E1.30553
G1 X125.810 Y100.730 E1.34612
G1 X125.698 Y100.305 E1.38677
G1 X125.505 Y99.910 E1.42740
G1 X125.239 Y99.561 E1.46801
G1 X124.910 Y99.270 E1.50863
G1 X124.531 Y99.049 E1.54924
G1 X124.399 Y99.003 E1.56219
G1 X124.116 Y98.906 E1.58986
G1 X123.681 Y98.847 E1.63050
G1 X123.242 Y98.874 E1.67113
G1 X122.817 Y98.986 E1.71175
G1 X122.423 Y99.178 E1.75237
G1 X122.073 Y99.444 E1.79298
G1 X121.782 Y99.773 E1.83360
G1 X121.561 Y100.153 E1.87423
G1 X121.418 Y100.568 E1.91485
G1 X121.359 Y101.003 E1.95548
G1 X121.386 Y101.442 E1.99609
G1 X121.498 Y101.866 E2.03671
G1 X121.894 Y102.678 E2.12030
G1 X118.959 Y101.377 E2.41731
G1 X116.842 Y100.386 E2.63349
G1 X115.068 Y99.505 E2.81666
G1 X113.394 Y98.605 E2.99250
G1 X112.022 Y97.764 E3.14128
G1 X110.960 Y97.002 E3.26220
G1 X110.153 Y96.306 E3.36076
G1 X109.514 Y95.630 E3.44683
G1 X109.095 Y95.042 E3.51358
G1 X108.796 Y94.488 E3.57185
G1 X108.570 Y93.932 E3.62735
G1 X108.433 Y93.491 E3.67004
G1 X108.245 Y92.855 E3.73138
G1 X107.882 Y91.449 E3.86571
G1 X113.216 Y91.573 E4.35919
G1 X124.069 Y91.715 E5.36306
G1 X130.546 Y91.766 E5.96221
G1 X135.564 Y91.744 E6.42626
G1 X136.993 Y92.133 E6.56326
G1 X139.497 Y92.029 E6.79512
G1 X139.913 Y93.179 E6.90820
G1 X140.385 Y94.271 E7.01824
G1 X140.727 Y94.927 E7.08666
G1 X141.590 Y96.421 E7.24627
G1 X142.509 Y98.132 E7.42586
G1 X141.549 Y98.834 E7.53594
G1 X140.253 Y99.828 E7.68701
G1 X137.569 Y101.997 E8.00611
G1 X133.192 Y105.653 E8.53364
G1 X131.843 Y106.833 E8.69934
G1 X131.704 Y106.998 E8.71935
G1 X129.538 Y106.002 E8.93987
G1 X124.110 Y103.649 E9.48704
G1 X131.794 Y107.744 F7800.000
G1 X129.279 Y106.582 E9.74329 F378.000
G1 X120.919 Y102.955 E10.58615
G1 X118.696 Y101.955 E10.81159
G1 X116.567 Y100.959 E11.02901
G1 X114.614 Y99.988 E11.23073
G1 X113.075 Y99.155 E11.39259
G1 X111.680 Y98.301 E11.54391
G1 X110.577 Y97.512 E11.66928
G1 X109.725 Y96.780 E11.77325
G1 X109.011 Y96.020 E11.86968
G1 X108.553 Y95.377 E11.94264
G1 X108.221 Y94.762 E12.00734
G1 X107.975 Y94.158 E12.06761
G1 X107.823 Y93.671 E12.11481
G1 X107.483 Y92.468 E12.23043
G1 X107.350 Y91.907 E12.28379
G1 X107.132 Y90.795 E12.38858
G1 X113.230 Y90.937 E12.95273
G1 X124.075 Y91.079 E13.95583
G1 X130.543 Y91.131 E14.55412
G1 X135.635 Y91.108 E15.02508
G1 X137.068 Y91.495 E15.16240
G1 X139.957 Y91.372 E15.42984
G1 X140.046 Y91.680 E15.45950
G1 X140.511 Y92.964 E15.58587
G1 X140.963 Y94.005 E15.69079
G1 X141.284 Y94.620 E15.75495
G1 X142.151 Y96.122 E15.91536
G1 X143.337 Y98.322 E16.14657
G1 X142.499 Y98.922 E16.24194
G1 X141.276 Y99.837 E16.38319
G1 X138.653 Y101.930 E16.69357
G1 X134.341 Y105.511 E17.21199
G1 X132.960 Y106.696 E17.38032
G1 X131.838 Y107.704 E17.51974
G1 X131.610 Y107.389 F7800.000
G1 X128.965 Y105.273 F7800.000
G1 X125.985 Y102.293 E17.90954 F1080.000
G1 X126.222 Y101.610 E17.97637
G1 X130.631 Y106.019 E18.55308
G1 X131.808 Y106.278 E18.66458
G1 X126.251 Y100.720 E19.39146
G1 X125.129 Y103.276 F7800.000
G1 X125.719 Y103.866 E19.46860 F1080.000
G1 X125.612 Y102.839 E19.56405
G1 X127.342 Y104.569 E19.79035
G1 X119.159 Y100.983 F7800.000
G1 X110.118 Y91.942 E20.97293 F1080.000
G1 X111.059 Y91.964 E21.05999
G1 X120.811 Y101.716 E22.33556
G1 X120.927 Y100.912 E22.41067
G1 X112.000 Y91.986 E23.57825
G1 X112.941 Y92.007 E23.66532
G1 X121.093 Y100.159 E24.73154
G1 X121.403 Y99.549 E24.79478
G1 X113.875 Y92.022 E25.77937
G1 X114.807 Y92.034 E25.86549
G1 X121.840 Y99.068 E26.78553
G1 X122.394 Y98.702 E26.84690
G1 X115.738 Y92.046 E27.71756
G1 X116.669 Y92.057 E27.80368
G1 X123.074 Y98.462 E28.64146
G1 X123.972 Y98.442 E28.72460
G1 X117.600 Y92.069 E29.55813
G1 X118.531 Y92.081 E29.64425
G1 X132.299 Y105.849 E31.44508
G1 X132.789 Y105.420 E31.50534
G1 X119.462 Y92.093 E33.24852
G1 X120.393 Y92.105 E33.33465
G1 X133.287 Y104.999 E35.02123
G1 X133.788 Y104.580 E35.08159
G1 X121.324 Y92.116 E36.71190
G1 X122.256 Y92.128 E36.79803
G1 X134.289 Y104.162 E38.37206
G1 X134.790 Y103.743 E38.43243
G1 X123.187 Y92.140 E39.95019
G1 X124.118 Y92.152 E40.03631
G1 X135.291 Y103.325 E41.49780
G1 X135.792 Y102.907 E41.55817
G1 X125.049 Y92.164 E42.96338
G1 X125.980 Y92.175 E43.04951
G1 X136.293 Y102.488 E44.39845
G1 X136.794 Y102.070 E44.45881
G1 X126.906 Y92.182 E45.75215
G1 X127.830 Y92.187 E45.83760
G1 X137.295 Y101.651 E47.07562
G1 X137.803 Y101.241 E47.13608
G1 X128.754 Y92.191 E48.31976
G1 X129.678 Y92.196 E48.40521
G1 X138.312 Y100.830 E49.53455
G1 X138.820 Y100.419 E49.59502
G1 X130.602 Y92.200 E50.67001
G1 X131.526 Y92.205 E50.75547
G1 X139.329 Y100.008 E51.77613
G1 X139.837 Y99.597 E51.83659
G1 X132.449 Y92.209 E52.80294
G1 X133.361 Y92.202 E52.88731
G1 X140.354 Y99.195 E53.80197
G1 X140.874 Y98.796 E53.86262
G1 X134.274 Y92.195 E54.72602
G1 X135.186 Y92.188 E54.81039
G1 X141.397 Y98.399 E55.62283
G1 X141.914 Y97.996 E55.68342
G1 X136.326 Y92.409 E56.41428
G1 X137.395 Y92.558 E56.51407
G1 X140.839 Y96.002 E56.96459
G1 X139.811 Y94.055 F7800.000
G1 X138.277 Y92.521 E57.16525 F1080.000
G1 X139.212 Y92.537 E57.25174
G1 X139.159 Y92.484 E57.25860
G1 X117.432 Y100.175 F7800.000
G1 X109.177 Y91.920 E58.33829 F1080.000
G1 X108.529 Y92.191 E58.40330
G1 X115.628 Y99.290 E59.33188
G1 X113.673 Y98.255 F7800.000
G1 X108.892 Y93.474 E59.95718 F1080.000
G1 X109.978 Y95.479 F7800.000
G1 X110.663 Y96.164 E60.04686 F1080.000
G1 X122.426 Y102.759 F7800.000
G1 X122.765 Y103.112 E60.07256 F360.000
G1 X123.115 Y103.245 E60.09220
G1 X123.752 Y103.424 E60.12694
G1 F1800.000 E59.12694
G92 E0
G1 X90.007 Y70.418 F7800.000
G1 E1.00000 F1800.000
G1 X89.955 Y70.263 E1.01511 F378.000
G1 X89.809 Y69.452 E1.09128
G1 X88.757 Y64.772 E1.53494
G1 X88.404 Y63.416 E1.66452
G1 X88.120 Y62.602 E1.74429
G1 F1800.000 E0.74429
G92 E0
G1 X94.961 Y65.583 F7800.000
G1 E1.00000 F1800.000
G1 X95.042 Y63.824 E1.16286 F378.000
G1 X95.187 Y59.046 E1.60501
G1 X95.271 Y58.652 E1.64222
G1 X95.394 Y56.738 E1.81960
G1 X95.426 Y56.594 E1.83323
G1 F1800.000 E0.83323
G92 E0
G1 X106.649 Y56.092 F7800.000
G1 E1.00000 F1800.000
G1 X106.951 Y56.996 E1.08811 F378.000
G1 X107.221 Y57.985 E1.18292
G1 X107.882 Y60.693 E1.44078
G1 X108.067 Y61.659 E1.53175
G1 F1800.000 E0.53175
G92 E0
G1 X118.194 Y53.299 F7800.000
G1 E1.00000 F1800.000
G1 X118.184 Y53.630 E1.03065 F378.000
G1 X118.051 Y54.902 E1.14893
G1 X117.850 Y57.270 E1.36872
G1 X117.300 Y64.366 E2.02703
G1 X117.087 Y64.811 E2.07266
G1 X116.952 Y65.046 E2.09769
G1 F1800.000 E1.09769
G92 E0
G1 X138.386 Y59.309 F7800.000
G1 E1.00000 F1800.000
G1 X138.287 Y61.437 E1.19700 F378.000
G1 X137.915 Y67.342 E1.74425
G1 X137.663 Y67.859 E1.79743
G1 X137.531 Y68.082 E1.82139
G1 F1800.000 E0.82139
G92 E0
G1 X77.270 Y63.153 F7800.000
G1 E1.00000 F1800.000
G1 X77.244 Y63.285 E1.01249 F378.000
G1 X77.234 Y63.700 E1.05090
G1 X77.146 Y64.974 E1.16905
G1 X77.071 Y65.274 E1.19757
G1 X77.047 Y65.803 E1.24655
G1 X76.927 Y72.588 E1.87427
G1 X76.731 Y73.073 E1.92262
G1 F1800.000 E0.92262
G92 E0
G1 X152.409 Y68.405 F7800.000
G1 E1.00000 F1800.000
G1 X151.983 Y67.584 E1.08548 F378.000
G1 X151.575 Y60.725 E1.72100
G1 X151.457 Y59.493 E1.83548
G1 F1800.000 E0.83548
G92 E0
G1 X132.608 Y65.401 F7800.000
G1 E1.00000 F1800.000
G1 X132.221 Y64.644 E1.07856 F378.000
G1 X131.523 Y55.653 E1.91262
G1 X131.394 Y54.321 E2.03640
G1 X131.223 Y53.330 E2.12947
G1 F1800.000 E1.12947
G92 E0
G1 X98.394 Y171.226 F7800.000
G1 E1.00000 F1800.000
G1 X99.364 Y170.425 E1.11629 F378.000
G1 X104.531 Y165.839 E1.75527
G1 X105.419 Y165.556 E1.84146
G1 F1800.000 E0.84146
G92 E0
G1 X89.226 Y153.663 F7800.000
G1 E1.00000 F1800.000
G1 X88.473 Y153.947 E1.07444 F378.000
G1 X81.824 Y159.645 E1.88434
G1 X80.567 Y160.679 E2.03496
G1 X79.742 Y161.262 E2.12833
G1 F1800.000 E1.12833
G92 E0
G1 X64.330 Y141.920 F7800.000
G1 E1.00000 F1800.000
G1 X65.209 Y141.482 E1.09079 F378.000
G1 X66.075 Y140.986 E1.18311
G1 X68.551 Y139.477 E1.45128
G1 X69.217 Y139.024 E1.52581
G1 X69.465 Y138.938 E1.55012
G1 F1800.000 E0.55012
G92 E0
G1 X56.773 Y133.636 F7800.000
G1 E1.00000 F1800.000
G1 X56.843 Y133.509 E1.01349 F378.000
G1 X58.121 Y132.055 E1.19248
G1 X58.340 Y131.714 E1.22996
G1 X61.631 Y128.216 E1.67424
G1 X62.875 Y126.859 E1.84443
G1 F1800.000 E0.84443
G92 E0
G1 X62.784 Y119.936 F7800.000
G1 E1.00000 F1800.000
G1 X61.963 Y120.506 E1.09252 F378.000
G1 X57.840 Y123.116 E1.54385
G1 X56.634 Y123.826 E1.67326
G1 X55.839 Y124.209 E1.75486
G1 F1800.000 E0.75486
G92 E0
G1 X106.555 Y122.150 F7800.000
G1 E1.00000 F1800.000
G1 X106.573 Y121.826 E1.03004 F378.000
G1 X106.651 Y121.520 E1.05924
G1 X106.791 Y121.238 E1.08840
G1 X106.979 Y120.988 E1.11728
G1 X107.214 Y120.779 E1.14634
G1 X107.486 Y120.622 E1.17537
G1 X107.782 Y120.520 E1.20434
G1 X108.141 Y120.479 E1.23778
G1 X108.409 Y120.496 E1.26261 F378.000
G1 X108.711 Y120.578 E1.29155
G1 X108.992 Y120.715 E1.32045
G1 X109.242 Y120.903 E1.34937
G1 X109.452 Y121.139 E1.37860
G1 X109.610 Y121.409 E1.40760
G1 X109.713 Y121.707 E1.43676
G1 X109.757 Y122.021 E1.46604
G1 X109.735 Y122.334 E1.49508
G1 X109.654 Y122.635 E1.52390
G1 X109.518 Y122.915 E1.55267
G1 X109.325 Y123.170 E1.58223
G1 X109.063 Y123.394 E1.61413
G1 X108.820 Y123.533 E1.64001
G1 X108.524 Y123.638 E1.66904
G1 X108.211 Y123.680 E1.69827
G1 X107.901 Y123.658 E1.72708
G1 X107.606 Y123.582 E1.75523
G1 X107.312 Y123.439 E1.78543
G1 X107.064 Y123.249 E1.81436
G1 X106.858 Y123.017 E1.84303
G1 X106.698 Y122.745 E1.87219
G1 X106.594 Y122.444 E1.90171
G1 X106.563 Y122.210 E1.92357
G1 F1800.000 E0.92357
G92 E0
G1 X108.211 Y120.220 F7800.000
G1 X108.074 Y119.746 F7800.000
G1 E1.00000 F1800.000
G1 X107.215 Y120.043 E1.08404 F540.000
G1 X106.841 Y120.260 E1.12407
G1 X106.509 Y120.556 E1.16520
G1 X106.249 Y120.901 E1.20514
G1 X106.052 Y121.298 E1.24614
G1 X105.943 Y121.725 E1.28696
G1 X105.919 Y122.194 E1.33036
G1 X105.971 Y122.587 E1.36703
G1 X106.118 Y123.013 E1.40868
G1 X106.341 Y123.393 E1.44948
G1 X106.629 Y123.716 E1.48952
G1 X106.973 Y123.981 E1.52965
G1 X107.397 Y124.185 E1.57314
G1 X107.798 Y124.288 E1.61146
G1 X108.232 Y124.318 E1.65164
G1 X108.674 Y124.259 E1.69295
G1 X109.087 Y124.113 E1.73340
G1 X109.385 Y123.942 E1.76520
G1 X109.490 Y123.879 E1.77656
G1 X109.792 Y123.606 E1.81415
G1 X110.063 Y123.248 E1.85569
G1 X110.252 Y122.858 E1.89580
G1 X110.365 Y122.440 E1.93588
G1 X110.395 Y121.999 E1.97670
G1 X110.334 Y121.558 E2.01790
G1 X110.190 Y121.143 E2.05855
G1 X110.038 Y120.882 E2.08652
G1 X110.274 Y120.607 E2.12002
G1 X115.830 Y122.799 E2.67251
G1 X118.069 Y123.630 E2.89339
G1 X118.050 Y123.846 E2.91349
G1 X118.167 Y125.632 E3.07906
G1 X118.676 Y131.314 E3.60670
G1 X119.040 Y134.740 E3.92529
G1 X119.253 Y136.363 E4.07674
G1 X119.439 Y137.540 E4.18690
G1 X117.582 Y138.100 E4.36630
G1 X115.918 Y138.543 E4.52559
G1 X115.203 Y138.767 E4.59489
G1 X114.103 Y139.207 E4.70453
G1 X112.993 Y139.729 E4.81790
G1 X111.294 Y137.880 E5.05018
G1 X110.009 Y137.145 E5.18704
G1 X107.808 Y134.908 E5.47731
G1 X103.422 Y130.564 E6.04829
G1 X95.661 Y122.990 E7.05130
G1 X92.568 Y120.002 E7.44903
G1 X90.216 Y117.772 E7.74879
G1 X91.470 Y117.036 E7.88324
G1 X92.457 Y116.508 E7.98680
G1 X93.017 Y116.271 E8.04304
G1 X93.617 Y116.092 E8.10091
G1 X94.331 Y115.972 E8.16789
G1 X95.262 Y115.948 E8.25403
G1 X96.327 Y116.027 E8.35284
G1 X97.618 Y116.239 E8.47381
G1 X99.182 Y116.613 E8.62252
G1 X100.829 Y117.103 E8.78149
G1 X102.874 Y117.793 E8.98112
G1 X105.073 Y118.589 E9.19739
G1 X108.019 Y119.724 E9.48934
G1 X118.659 Y123.165 F7800.000
G1 X118.804 Y125.619 E9.71669 F378.000
G1 X119.309 Y131.256 E10.24017
G1 X119.671 Y134.664 E10.55713
G1 X119.881 Y136.262 E10.70620
G1 X120.161 Y137.991 E10.86822
G1 X117.765 Y138.709 E11.09951
G1 X116.091 Y139.155 E11.25974
G1 X115.426 Y139.363 E11.32425
G1 X114.374 Y139.783 E11.42898
G1 X113.138 Y140.362 E11.55524
G1 X112.852 Y140.517 E11.58536
G1 X110.896 Y138.385 E11.85299
G1 X109.610 Y137.645 E11.99017
G1 X107.353 Y135.353 E12.28770
G1 X102.975 Y131.016 E12.85764
G1 X93.649 Y121.927 E14.06212
G1 X89.227 Y117.706 E14.62751
G1 X90.167 Y117.074 E14.73228
G1 X91.183 Y116.468 E14.84167
G1 X91.751 Y116.160 E14.90144
G1 X92.198 Y115.926 E14.94814
G1 X92.803 Y115.672 E15.00884
G1 X93.471 Y115.472 E15.07329
G1 X94.250 Y115.341 E15.14639
G1 X95.295 Y115.310 E15.24309
G1 X96.418 Y115.396 E15.34719
G1 X97.755 Y115.617 E15.47262
G1 X99.345 Y115.998 E15.62382
G1 X101.021 Y116.497 E15.78550
G1 X103.085 Y117.193 E15.98702
G1 X105.296 Y117.994 E16.20454
G1 X107.578 Y118.860 E16.43022
G1 X116.058 Y122.206 E17.27340
G1 X117.577 Y122.780 E17.42357
G1 X118.603 Y123.145 E17.52430
G1 X118.434 Y123.495 F7800.000
G1 F1800.000 E16.52430
G92 E0
G1 X94.672 Y155.264 F7800.000
G1 E1.00000 F1800.000
G1 X94.606 Y155.516 E1.02409 F378.000
G1 X94.414 Y156.073 E1.07856
G1 X90.372 Y160.660 E1.64401
G1 X89.025 Y162.132 E1.82859
G1 F1800.000 E0.82859
G92 E0
G1 X77.968 Y142.862 F7800.000
G1 E1.00000 F1800.000
G1 X77.899 Y143.124 E1.02509 F378.000
G1 X77.731 Y143.601 E1.07184
G1 X72.996 Y149.129 E1.74505
G1 X71.549 Y150.848 E1.95288
G1 X70.744 Y151.853 E2.07203
