; generated by Slic3r 1.1.7 on 2015-01-18 at 18:59:01

; perimeters extrusion width = 0.40mm
; infill extrusion width = 0.42mm
; solid infill extrusion width = 0.42mm
; top infill extrusion width = 0.42mm

G21 ; set units to millimeters
M107
G28 ; home all axes

G90 ; use absolute coordinates
G92 E0
M82 ; use absolute distances for extrusion
G1 F1800.000 E-1.00000
G92 E0
G1 Z0.350 F7800.000
G1 X49.165 Y54.910 F7800.000
G1 E1.00000 F1800.000
G1 X50.161 Y54.083 E1.11977 F1080.000
G1 X51.390 Y53.421 E1.24888
G1 X52.211 Y53.141 E1.32915
G1 X53.009 Y52.969 E1.40457
G1 X75.396 Y50.619 E3.48656
G1 X100.468 Y50.101 E5.80598
G1 X100.723 Y50.137 E5.82982
G1 X101.750 Y50.299 E5.92597 F1080.000
G1 X107.386 Y51.489 E6.45875
G1 X108.517 Y51.835 E6.56813
G1 X109.097 Y52.088 E6.62666
G1 X132.814 Y64.792 E9.11514
G1 X150.164 Y74.179 E10.93966
G1 X150.377 Y74.300 E10.96238
G1 X151.820 Y75.441 E11.13249
G1 X152.667 Y76.526 E11.25985
G1 X153.329 Y77.909 E11.40165
G1 X153.658 Y79.373 E11.54038
G1 X153.690 Y80.492 E11.64394
G1 X153.591 Y81.347 E11.72359
G1 X148.206 Y111.579 E14.56378
G1 X146.290 Y122.163 E15.55855
G1 X144.960 Y129.136 E16.21518
G1 X144.442 Y130.727 E16.36995
G1 X129.061 Y163.287 E19.70054
G1 X127.737 Y165.162 E19.91284
G1 X125.853 Y166.473 E20.12513
G1 X123.772 Y167.050 E20.32481
G1 X123.547 Y167.073 E20.34576
G1 X122.189 Y167.192 E20.47185
G1 X121.551 Y167.224 E20.53095
G1 X74.009 Y167.663 E24.92832
G1 X72.848 Y167.571 E25.03609
G1 X70.382 Y167.144 E25.26756
G1 X67.232 Y166.415 E25.56654
G1 X65.119 Y165.519 E25.77884
G1 X63.438 Y163.957 E25.99114
G1 X62.437 Y162.063 E26.18923
G1 X62.319 Y161.705 E26.22413
G1 X57.239 Y145.375 E27.80588
G1 X55.417 Y139.149 E28.40587
G1 X55.239 Y138.355 E28.48109
G1 X54.971 Y137.000 E28.60890
G1 X51.500 Y117.712 E30.42148
G1 X49.733 Y106.171 E31.50137
G1 X49.416 Y103.952 E31.70872
G1 X48.381 Y95.964 E32.45368
G1 X48.074 Y93.386 E32.69382
G1 X46.497 Y77.847 E34.13841
G1 X46.492 Y77.552 E34.16573
G1 X46.643 Y61.864 E35.61678
G1 X46.677 Y60.545 E35.73877
G1 X46.980 Y58.870 E35.89621
G1 X47.353 Y57.885 E35.99369
G1 X47.856 Y56.796 E36.10462
G1 X49.130 Y54.959 E36.31137
G1 F1800.000 E35.31137
G92 E0
G1 X77.917 Y73.977 F7800.000
G1 E1.00000 F1800.000
G1 X77.577 Y74.263 E1.04116 F540.000
G1 X77.178 Y74.468 E1.08262
G1 X76.772 Y74.588 E1.12177
G1 X76.334 Y74.639 E1.16253
G1 X75.892 Y74.588 E1.20375
G1 X75.333 Y74.423 E1.25768
G1 X75.260 Y74.350 E1.26717
G1 X75.096 Y74.266 E1.28419
G1 X74.749 Y73.981 E1.32580
G1 X74.463 Y73.636 E1.36721
G1 X74.266 Y73.249 E1.40741
G1 X74.139 Y72.845 E1.44654
G1 X74.086 Y72.412 E1.48688
G1 X74.139 Y71.939 E1.53090
G1 X74.267 Y71.540 E1.56968
G1 X74.460 Y71.161 E1.60905
G1 X74.749 Y70.806 E1.65134
G1 X75.089 Y70.533 E1.69168
G1 X75.471 Y70.322 E1.73200
G1 X75.907 Y70.193 E1.77409
G1 X76.334 Y70.158 E1.81371
G1 X76.439 Y70.167 E1.82344
G1 X76.756 Y70.193 E1.85291 F540.000
G1 X77.188 Y70.321 E1.89456
G1 X77.579 Y70.533 E1.93569
G1 X77.917 Y70.810 E1.97612
G1 X78.198 Y71.155 E2.01723
G1 X78.397 Y71.533 E2.05679
G1 X78.533 Y71.954 E2.09771
G1 X78.565 Y72.450 E2.14368
G1 X78.531 Y72.836 E2.17948
G1 X78.399 Y73.256 E2.22017
G1 X78.195 Y73.642 E2.26054
G1 X77.956 Y73.930 E2.29525
G1 X77.465 Y73.527 F7800.000
G1 X77.222 Y73.730 E2.32452 F378.000
G1 X76.940 Y73.875 E2.35386
G1 X76.644 Y73.963 E2.38244
G1 X76.334 Y73.999 E2.41133
G1 X76.019 Y73.963 E2.44062
G1 X75.668 Y73.859 E2.47445
G1 X75.446 Y73.732 E2.49813
G1 X75.199 Y73.528 E2.52774
G1 X74.997 Y73.285 E2.55702
G1 X74.856 Y73.008 E2.58575
G1 X74.763 Y72.712 E2.61440
G1 X74.727 Y72.402 E2.64325
G1 X74.763 Y72.073 E2.67389
G1 X74.857 Y71.783 E2.70207
G1 X74.996 Y71.509 E2.73051
G1 X75.199 Y71.259 E2.76028
G1 X75.444 Y71.063 E2.78929
G1 X75.718 Y70.912 E2.81819
G1 X76.085 Y70.816 E2.85330
G1 X76.334 Y70.796 E2.87639 F378.000
G1 X76.638 Y70.821 E2.90467
G1 X76.944 Y70.912 E2.93415
G1 X77.223 Y71.063 E2.96354
G1 X77.465 Y71.261 E2.99239
G1 X77.665 Y71.507 E3.02174
G1 X77.809 Y71.781 E3.05036
G1 X77.905 Y72.079 E3.07930
G1 X77.927 Y72.468 E3.11537
G1 X77.904 Y72.709 E3.13776
G1 X77.810 Y73.010 E3.16696
G1 X77.664 Y73.287 E3.19587
G1 X77.503 Y73.481 E3.21919
G1 F1800.000 E2.21919
G92 E0
G1 X76.024 Y70.574 F7800.000
G1 X122.960 Y136.832 F7800.000
G1 E1.00000 F1800.000
G1 X122.788 Y138.307 E1.13736 F540.000
G1 X122.661 Y138.718 E1.17716
G1 X122.465 Y139.096 E1.21653
G1 X122.181 Y139.449 E1.25842
G1 X121.837 Y139.727 E1.29931
G1 X121.441 Y139.938 E1.34087
G1 X121.033 Y140.055 E1.38007
G1 X120.599 Y140.105 E1.42049
G1 X120.155 Y140.055 E1.46180
G1 X119.742 Y139.937 E1.50152
G1 X119.355 Y139.727 E1.54229
G1 X119.004 Y139.449 E1.58371
G1 X118.727 Y139.096 E1.62516
G1 X118.524 Y138.718 E1.66484
G1 X118.400 Y138.292 E1.70596
G1 X118.357 Y137.864 E1.74569
G1 X118.400 Y137.425 E1.78651
G1 X118.524 Y137.013 E1.82633
G1 X118.727 Y136.621 E1.86718
G1 X119.010 Y136.275 E1.90846
G1 X119.352 Y136.001 E1.94903
G1 X119.732 Y135.795 E1.98900
G1 X120.155 Y135.663 E2.02997
G1 X120.599 Y135.623 E2.07120
G1 X121.033 Y135.663 E2.11157
G1 X121.451 Y135.794 E2.15205
G1 X121.840 Y136.001 E2.19281
G1 X122.175 Y136.275 E2.23286
G1 X122.465 Y136.620 E2.27457
G1 X122.571 Y136.832 E2.29643
G1 X122.900 Y136.832 E2.32688
G1 X122.246 Y137.467 F7800.000
G1 X122.163 Y138.175 E2.39280 F378.000
G1 X122.071 Y138.476 E2.42191
G1 X121.930 Y138.747 E2.45014
G1 X121.729 Y138.998 E2.47986
G1 X121.485 Y139.194 E2.50880
G1 X121.201 Y139.345 E2.53856
G1 X120.908 Y139.429 E2.56675
G1 X120.598 Y139.465 E2.59564
G1 X120.279 Y139.430 E2.62531
G1 X119.984 Y139.345 E2.65369
G1 X119.706 Y139.194 E2.68295
G1 X119.458 Y138.998 E2.71227
G1 X119.261 Y138.747 E2.74169
G1 X119.116 Y138.476 E2.77013
G1 X119.026 Y138.170 E2.79965
G1 X118.996 Y137.863 E2.82814
G1 X119.026 Y137.549 E2.85738
G1 X119.116 Y137.253 E2.88598
G1 X119.261 Y136.972 E2.91526
G1 X119.460 Y136.729 E2.94425
G1 X119.705 Y136.532 E2.97333
G1 X119.981 Y136.383 E3.00231
G1 X120.328 Y136.285 E3.03570
G1 X120.598 Y136.262 E3.06076 F378.000
G1 X120.908 Y136.290 E3.08958
G1 X121.205 Y136.383 E3.11834
G1 X121.486 Y136.532 E3.14781
G1 X121.726 Y136.729 E3.17652
G1 X121.930 Y136.972 E3.20581
G1 X122.071 Y137.253 E3.23488
G1 X122.139 Y137.467 E3.25573
G1 X122.186 Y137.467 E3.26006
G1 X120.225 Y136.035 F7800.000
G1 X81.613 Y140.434 F7800.000
G1 X81.641 Y140.866 E3.30007 F540.000
G1 X81.613 Y141.305 E3.34075
G1 X81.474 Y141.728 E3.38197
G1 X81.283 Y142.104 E3.42097
G1 X80.992 Y142.457 E3.46324
G1 X80.645 Y142.737 E3.50446
G1 X80.279 Y142.932 E3.54290
G1 X79.860 Y143.071 E3.58371
G1 X79.408 Y143.111 E3.62570
G1 X78.971 Y143.071 E3.66624
G1 X78.549 Y142.935 E3.70722
G1 X78.175 Y142.737 E3.74641
G1 X77.831 Y142.457 E3.78740
G1 X77.539 Y142.107 E3.82954
G1 X77.346 Y141.728 E3.86885
G1 X77.213 Y141.320 E3.90858
G1 X77.169 Y140.866 E3.95079
G1 X77.213 Y140.419 E3.99230
G1 X77.345 Y140.017 E4.03143
G1 X77.540 Y139.622 E4.07222
G1 X77.841 Y139.276 E4.11463
G1 X78.172 Y139.010 E4.15383
G1 X78.545 Y138.806 E4.19321
G1 X78.972 Y138.668 E4.23470
G1 X79.408 Y138.632 E4.27513
G1 X79.856 Y138.668 E4.31674
G1 X80.286 Y138.810 E4.35858 F540.000
G1 X80.651 Y139.013 E4.39727
G1 X80.982 Y139.276 E4.43635
G1 X81.282 Y139.625 E4.47887
G1 X81.476 Y140.017 E4.51937
G1 X81.594 Y140.377 E4.55444
G1 X80.984 Y140.556 F7800.000
G1 X81.004 Y140.867 E4.58323 F378.000
G1 X80.984 Y141.184 E4.61262
G1 X80.886 Y141.484 E4.64182
G1 X80.748 Y141.754 E4.66986
G1 X80.543 Y142.003 E4.69970
G1 X80.293 Y142.204 E4.72936
G1 X80.028 Y142.346 E4.75720
G1 X79.731 Y142.444 E4.78614
G1 X79.409 Y142.472 E4.81602
G1 X79.099 Y142.444 E4.84479
G1 X78.797 Y142.347 E4.87413
G1 X78.527 Y142.204 E4.90235
G1 X78.280 Y142.003 E4.93183
G1 X78.073 Y141.755 E4.96170
G1 X77.935 Y141.484 E4.98985
G1 X77.839 Y141.189 E5.01852
G1 X77.808 Y140.867 E5.04849
G1 X77.839 Y140.551 E5.07786
G1 X77.935 Y140.258 E5.10631
G1 X78.074 Y139.977 E5.13531
G1 X78.284 Y139.736 E5.16491
G1 X78.526 Y139.541 E5.19368
G1 X78.795 Y139.393 E5.22208
G1 X79.099 Y139.296 E5.25160
G1 X79.409 Y139.270 E5.28032 F378.000
G1 X79.729 Y139.295 E5.31006
G1 X80.030 Y139.395 E5.33937
G1 X80.295 Y139.542 E5.36741
G1 X80.539 Y139.736 E5.39623
G1 X80.747 Y139.978 E5.42580
G1 X80.886 Y140.258 E5.45469
G1 X80.965 Y140.499 E5.47813
G1 F1800.000 E4.47813
G92 E0
G1 X78.974 Y139.011 F7800.000
G1 X91.899 Y77.481 F7800.000
G1 E1.00000 F1800.000
G1 X92.006 Y78.406 E1.08608 F540.000
G1 X92.242 Y78.977 E1.14321
G1 X92.459 Y79.054 E1.16456
G1 X92.614 Y79.240 E1.18696
G1 X104.861 Y94.453 E2.99325
G1 X105.200 Y94.932 E3.04755
G1 X105.542 Y95.364 E3.09852
G1 X113.065 Y104.627 E4.20223
G1 X113.416 Y105.102 E4.25686
G1 X113.888 Y105.669 E4.32509
G1 X123.267 Y117.676 E5.73425
G1 X126.620 Y121.451 E6.20130
G1 X133.836 Y129.512 E7.20191
G1 X134.022 Y129.413 E7.22133
G1 X134.207 Y129.675 E7.25099
G1 X134.606 Y130.051 E7.30170
G1 X134.904 Y130.364 E7.34171
G1 X134.842 Y130.851 E7.38710
G1 X134.675 Y131.454 E7.44495
G1 X134.560 Y131.778 E7.47677
G1 X134.423 Y132.079 E7.50734
G1 X133.772 Y133.395 E7.64313
G1 X133.485 Y133.919 E7.69846
G1 X130.482 Y140.487 E8.36631
G1 X129.738 Y141.883 E8.51271
G1 X128.200 Y145.015 E8.83541
G1 X127.840 Y145.812 E8.91628
G1 X127.130 Y147.463 E9.08249
G1 X126.459 Y149.100 E9.24612
G1 X122.937 Y157.886 E10.12161
G1 X122.328 Y159.527 E10.28351
G1 X121.631 Y159.592 E10.34831
G1 X110.153 Y155.463 E11.47653
G1 X90.438 Y154.863 E13.30079
G1 X78.604 Y154.549 E14.39570
G1 X77.888 Y154.937 E14.47103
G1 X73.573 Y159.952 E15.08293
G1 X72.095 Y159.716 E15.22136
G1 X69.487 Y159.074 E15.46975
G1 X68.936 Y157.217 E15.64899
G1 X64.545 Y143.206 E17.00695
G1 X62.842 Y137.428 E17.56412
G1 X62.712 Y136.858 E17.61824
G1 X62.363 Y135.052 E17.78835
G1 X61.449 Y129.470 E18.31153
G1 X61.067 Y127.248 E18.52004
G1 X59.679 Y120.072 E19.19608
G1 X58.909 Y115.813 E19.59635
G1 X57.063 Y103.624 E20.73659
G1 X55.944 Y95.024 E21.53868
G1 X55.600 Y92.088 E21.81212
G1 X55.473 Y90.614 E21.94898
G1 X54.116 Y77.667 E23.15298
G1 X54.283 Y61.057 E24.68934
G1 X54.521 Y60.542 E24.74179
G1 X62.436 Y61.154 E25.47612
G1 X63.118 Y61.147 E25.53917
G1 X69.029 Y60.136 E26.09383
G1 X69.692 Y59.979 E26.15682
G1 X70.876 Y59.736 E26.26860
G1 X73.293 Y59.049 E26.50099
G1 X74.529 Y59.398 E26.61983
G1 X74.793 Y58.547 E26.70229
G1 X75.204 Y58.586 E26.74052
G1 X75.294 Y59.395 E26.81586
G1 X77.134 Y58.835 E26.99378
G1 X84.762 Y60.395 E27.71388
G1 X85.798 Y60.567 E27.81105
G1 X86.156 Y60.555 E27.84411
G1 X96.937 Y58.530 E28.85868
G1 X99.016 Y58.543 E29.05104
G1 X99.263 Y57.726 E29.12992
G1 X99.558 Y57.669 E29.15770
G1 X100.029 Y57.737 E29.20165
G1 X100.232 Y57.881 E29.22476
G1 X100.332 Y58.560 E29.28828
G1 X101.818 Y58.840 E29.42808
G1 X101.851 Y59.473 E29.48674
G1 X101.829 Y59.882 E29.52462
G1 X101.829 Y61.791 E29.70124
G1 X101.786 Y62.649 E29.78065
G1 X101.153 Y71.730 E30.62259
G1 X93.298 Y76.758 E31.48513
G1 X92.642 Y77.162 E31.55645
G1 X91.954 Y77.458 E31.62571
G1 X92.585 Y77.878 F7800.000
G1 X92.628 Y78.245 E31.65985 F378.000
G1 X92.721 Y78.472 E31.68262
G1 X92.816 Y78.506 E31.69193
G1 X93.087 Y78.814 E31.72988
G1 X105.361 Y94.060 E33.54017
G1 X105.712 Y94.554 E33.59621
G1 X106.041 Y94.971 E33.64533
G1 X113.568 Y104.238 E34.74953
G1 X113.917 Y104.710 E34.80385
G1 X114.381 Y105.267 E34.87090
G1 X123.758 Y117.273 E36.27988
G1 X127.095 Y121.029 E36.74458
G1 X133.978 Y128.717 E37.69904
G1 X134.108 Y128.649 E37.71264
G1 X134.530 Y129.031 E37.76529
G1 X134.689 Y129.256 E37.79076
G1 X135.055 Y129.600 E37.83720
G1 X135.463 Y130.030 E37.89210
G1 X135.540 Y130.146 E37.90495
G1 X135.542 Y130.390 E37.92749
G1 X135.464 Y130.990 E37.98343
G1 X135.284 Y131.637 E38.04559
G1 X135.150 Y132.017 E38.08281
G1 X134.335 Y133.690 E38.25494
G1 X134.053 Y134.205 E38.30927
G1 X131.052 Y140.770 E38.97689
G1 X130.305 Y142.171 E39.12383
G1 X128.775 Y145.286 E39.44475
G1 X128.422 Y146.067 E39.52404
G1 X127.374 Y148.536 E39.77210
G1 X123.527 Y158.120 E40.72727
G1 X123.063 Y159.343 E40.84832
G1 X122.807 Y160.121 E40.92402
G1 X121.538 Y160.234 E41.04187
G1 X110.025 Y156.095 E42.17337
G1 X90.469 Y155.500 E43.98296
G1 X78.748 Y155.189 E45.06749
G1 X78.297 Y155.436 E45.11504
G1 X73.823 Y160.635 E45.74941
G1 X71.954 Y160.337 E45.92445
G1 X68.981 Y159.604 E46.20766
G1 X68.328 Y157.405 E46.41983
G1 X63.938 Y143.395 E47.77777
G1 X62.226 Y137.589 E48.33764
G1 X62.090 Y136.990 E48.39444
G1 X61.736 Y135.161 E48.56668
G1 X60.822 Y129.573 E49.09039
G1 X60.442 Y127.363 E49.29783
G1 X59.055 Y120.190 E49.97360
G1 X58.282 Y115.913 E50.37561
G1 X56.434 Y103.713 E51.51683
G1 X55.314 Y95.103 E52.31985
G1 X54.968 Y92.154 E52.59453
G1 X54.840 Y90.672 E52.73207
G1 X53.481 Y77.706 E53.93790
G1 X53.628 Y61.981 E55.39234
G1 X53.652 Y60.942 E55.48848
G1 X53.702 Y60.799 E55.50256
G1 X54.129 Y59.874 E55.59672
G1 X62.471 Y60.520 E56.37059
G1 X62.961 Y60.524 E56.41592
G1 X63.117 Y60.505 E56.43045
G1 X68.899 Y59.514 E56.97302
G1 X69.557 Y59.358 E57.03561
G1 X70.725 Y59.118 E57.14583
G1 X73.292 Y58.388 E57.39271
G1 X74.105 Y58.618 E57.47087
G1 X74.345 Y57.843 E57.54594
G1 X74.505 Y57.782 E57.56176
G1 X75.558 Y57.607 E57.66044
G1 X75.754 Y57.837 E57.68835
G1 X75.841 Y58.564 E57.75612
G1 X76.835 Y58.261 E57.85216
G1 X76.965 Y58.151 E57.86797
G1 X84.881 Y59.770 E58.61526
G1 X85.828 Y59.930 E58.70410
G1 X86.093 Y59.921 E58.72865
G1 X86.361 Y59.874 E58.75376
G1 X96.849 Y57.900 E59.74089
G1 X98.546 Y57.903 E59.89781
G1 X98.724 Y57.255 E59.95998
G1 X98.982 Y57.137 E59.98620
G1 X99.542 Y57.025 E60.03903
G1 X100.283 Y57.131 E60.10827
G1 X100.507 Y57.228 E60.13083
G1 X100.572 Y57.343 E60.14307
G1 X100.822 Y57.519 E60.17130
G1 X100.895 Y58.019 E60.21808
G1 X102.427 Y58.315 E60.36238
G1 X102.487 Y59.473 E60.46961
G1 X102.465 Y59.898 E60.50901
G1 X102.465 Y61.812 E60.68597
G1 X102.420 Y62.683 E60.76667
G1 X101.760 Y72.109 E61.64059
G1 X93.637 Y77.295 E62.53201
G1 X92.942 Y77.725 E62.60758
G1 X92.640 Y77.855 E62.63796
G1 X92.224 Y77.956 F7800.000
G1 X91.551 Y78.308 F7800.000
G1 X72.870 Y59.627 E65.08146 F1080.000
G1 X73.796 Y59.649 E65.16709
G1 X91.432 Y77.285 E67.47394
G1 X92.006 Y76.956 E67.53513
G1 X74.997 Y59.947 E69.75990
G1 X75.689 Y59.736 E69.82684
G1 X92.615 Y76.662 E72.04080
G1 X93.167 Y76.310 E72.10130
G1 X76.382 Y59.525 E74.29680
G1 X77.074 Y59.314 E74.36374
G1 X93.718 Y75.958 E76.54078
G1 X94.269 Y75.605 E76.60128
G1 X78.157 Y59.494 E78.70871
G1 X79.293 Y59.726 E78.81593
G1 X94.820 Y75.253 E80.84691
G1 X95.371 Y74.901 E80.90741
G1 X80.429 Y59.958 E82.86194
G1 X81.564 Y60.191 E82.96915
G1 X95.923 Y74.549 E84.84723
G1 X96.474 Y74.197 E84.90772
G1 X82.700 Y60.423 E86.70934
G1 X83.836 Y60.655 E86.81656
G1 X97.025 Y73.844 E88.54173
G1 X97.576 Y73.492 E88.60223
G1 X84.958 Y60.874 E90.25268
G1 X85.989 Y61.002 E90.34875
G1 X98.127 Y73.140 E91.93647
G1 X98.678 Y72.788 E91.99697
G1 X86.777 Y60.887 E93.55366
G1 X87.538 Y60.744 E93.62523
G1 X99.230 Y72.436 E95.15454
G1 X99.781 Y72.083 E95.21504
G1 X88.298 Y60.601 E96.71697
G1 X89.059 Y60.458 E96.78854
G1 X100.332 Y71.731 E98.26309
G1 X100.745 Y71.241 E98.32238
G1 X89.819 Y60.315 E99.75148
G1 X90.580 Y60.172 E99.82305
G1 X100.804 Y70.396 E101.16037
G1 X100.863 Y69.552 E101.23867
G1 X91.340 Y60.030 E102.48421
G1 X92.101 Y59.887 E102.55578
G1 X100.922 Y68.707 E103.70954
G1 X100.980 Y67.863 E103.78783
G1 X92.861 Y59.744 E104.84981
G1 X93.622 Y59.601 E104.92139
G1 X101.039 Y67.018 E105.89159
G1 X101.098 Y66.174 E105.96988
G1 X94.382 Y59.458 E106.84830
G1 X95.143 Y59.315 E106.91988
G1 X101.157 Y65.329 E107.70652
G1 X101.216 Y64.485 E107.78482
G1 X95.903 Y59.173 E108.47968
G1 X96.664 Y59.030 E108.55125
G1 X101.275 Y63.640 E109.15433
G1 X101.334 Y62.796 E109.23263
G1 X97.512 Y58.974 E109.73249
G1 X98.421 Y58.980 E109.81656
G1 X101.380 Y61.939 E110.20367
G1 X101.388 Y61.044 E110.28648
G1 X99.330 Y58.985 E110.55577
G1 X99.550 Y58.302 E110.62218
G1 X101.388 Y60.141 E110.86270
G1 X101.398 Y59.247 E110.94542
G1 X101.351 Y59.200 E110.95146
G1 F1800.000 E109.95146
G92 E0
G1 X93.979 Y81.639 F7800.000
G1 E1.00000 F1800.000
G1 X72.167 Y59.827 E3.85303 F1080.000
G1 X71.464 Y60.027 E3.92067
G1 X97.710 Y86.273 E7.35370
G1 X101.440 Y90.907 F7800.000
G1 X70.746 Y60.213 E11.36862 F1080.000
