; generated by Slic3r 1.1.7 on 2014-11-20 at 21:50:04

; perimeters extrusion width = 0.50mm
; infill extrusion width = 0.52mm
; solid infill extrusion width = 0.52mm
; top infill extrusion width = 0.52mm

G21 ; set units to millimeters
M107
M104 S200 ; set temperature
G28 ; home all axes
G1 Z5 F5000 ; lift nozzle

M109 S200 ; wait for temperature to be reached
G90 ; use absolute coordinates
G92 E0
M82 ; use absolute distances for extrusion
G1 F1800.000 E-1.00000
G92 E0
G1 Z0.350 F7800.000
G1 X78.994 Y81.624 F7800.000
G1 E1.00000 F1800.000
G1 X80.628 Y80.209 E1.07036 F1080.000
G1 X81.452 Y79.746 E1.10110
G1 X83.085 Y78.966 E1.15997
G1 X85.953 Y78.316 E1.25563
G1 X115.493 Y78.314 E2.21674
G1 X120.107 Y78.316 E2.36685 F1080.000
G1 X122.371 Y78.714 E2.44165
G1 X124.365 Y79.858 E2.51645
G1 X125.851 Y81.613 E2.59125
G1 X126.652 Y83.768 E2.66605
G1 X126.762 Y84.973 E2.70543
G1 X126.749 Y91.650 E2.92265
G1 X126.530 Y93.287 E2.97640
G1 X120.338 Y116.814 E3.76791
G1 X119.377 Y118.903 E3.84271
G1 X117.764 Y120.540 E3.91751
G1 X115.689 Y121.531 E3.99231
G1 X113.900 Y121.776 E4.05107
G1 X93.421 Y121.776 E4.71736
G1 X90.200 Y120.946 E4.82556
G1 X80.898 Y115.805 E5.17136
G1 X79.108 Y114.362 E5.24616
G1 X77.916 Y112.396 E5.32096
G1 X77.461 Y109.981 E5.40091
G1 X77.453 Y85.883 E6.18494
G1 X77.850 Y83.619 E6.25974
G1 X78.956 Y81.689 E6.33210
G1 F1800.000 E5.33210
G92 E0
G1 X95.238 Y106.858 F7800.000
G1 E1.00000 F1800.000
G1 X95.238 Y113.455 E1.21464 F540.000
G1 X93.850 Y113.455 E1.25980
G1 X85.784 Y108.997 E1.55964
G1 X85.777 Y95.732 E1.99122
G1 X90.494 Y95.732 E2.14466
G1 X90.494 Y94.678 E2.17896
G1 X94.098 Y94.678 E2.29624
G1 X94.098 Y91.809 E2.38958
G1 X113.997 Y91.809 E3.03699
G1 X115.497 Y91.777 E3.08580
G1 X116.221 Y91.777 E3.10935
G1 X116.335 Y92.147 E3.12196
G1 X114.317 Y93.528 E3.20152
G1 X112.236 Y97.861 E3.35793
G1 X112.236 Y106.858 E3.65065
G1 X95.313 Y106.858 E4.20122
G1 X95.895 Y107.515 F7800.000
G1 X95.895 Y114.112 E4.41586 F540.000
G1 X93.680 Y114.112 E4.48792
G1 X85.127 Y109.384 E4.80590
G1 X85.118 Y86.489 E5.55081
G1 X85.869 Y86.130 E5.57791
G1 X85.869 Y95.075 E5.86894
G1 X89.837 Y95.075 E5.99802
G1 X89.836 Y94.021 E6.03232
G1 X93.441 Y94.021 E6.14959
G1 X93.441 Y91.152 E6.24293
G1 X114.031 Y91.151 E6.91285
G1 X116.266 Y91.103 E6.98556
G1 X116.266 Y91.120 E6.98610
G1 X118.344 Y91.120 E7.05373
G1 X118.459 Y91.490 E7.06634
G1 X114.833 Y93.971 E7.20927
G1 X112.893 Y98.011 E7.35509
G1 X112.893 Y114.112 E7.87895
G1 X111.695 Y114.112 E7.91793
G1 X111.695 Y107.515 E8.13256
G1 X95.970 Y107.515 E8.64417
G1 X96.552 Y108.172 F7800.000
G1 X96.552 Y113.413 E8.81468 F378.000
G1 X100.574 Y113.413 E8.94553
G1 X100.574 Y114.769 E8.98965
G1 X93.511 Y114.769 E9.21944
G1 X84.469 Y109.772 E9.55557
G1 X84.461 Y86.074 E10.32657
G1 X86.033 Y85.323 E10.38328
G1 X86.524 Y85.323 E10.39924
G1 X86.526 Y94.418 E10.69514
G1 X89.179 Y94.418 E10.78146
G1 X89.175 Y85.323 E11.07736
G1 X90.066 Y85.323 E11.10634
G1 X90.070 Y93.364 E11.36794
G1 X92.784 Y93.364 E11.45623
G1 X92.779 Y85.323 E11.71783
G1 X93.538 Y85.321 E11.74251
G1 X94.599 Y85.323 E11.77704
G1 X94.599 Y90.495 E11.94531
G1 X96.862 Y90.495 E12.01893
G1 X96.862 Y85.323 E12.18719
G1 X97.753 Y85.323 E12.21618
G1 X97.753 Y90.495 E12.38443
G1 X99.945 Y90.495 E12.45575
G1 X99.945 Y85.323 E12.62400
G1 X100.817 Y85.323 E12.65237
G1 X100.817 Y90.495 E12.82063
G1 X102.914 Y90.495 E12.88885
G1 X102.914 Y85.323 E13.05710
G1 X103.801 Y85.323 E13.08597
G1 X103.801 Y90.495 E13.25422
G1 X105.993 Y90.495 E13.32554
G1 X105.993 Y85.323 E13.49379
G1 X106.926 Y85.323 E13.52415
G1 X106.926 Y90.495 E13.69241
G1 X109.339 Y90.495 E13.77092
G1 X109.339 Y85.323 E13.93917
G1 X110.303 Y85.323 E13.97053
G1 X110.303 Y90.495 E14.13879
G1 X112.601 Y90.495 E14.21356
G1 X112.601 Y85.323 E14.38182
G1 X113.550 Y85.322 E14.41269
G1 X113.550 Y90.494 E14.58095
G1 X115.841 Y90.455 E14.65550
G1 X115.841 Y85.322 E14.82251
G1 X116.923 Y85.323 E14.85771
G1 X116.923 Y90.463 E15.02492
G1 X119.122 Y90.463 E15.09649
G1 X119.122 Y85.323 E15.26370
G1 X119.754 Y85.323 E15.28426
G1 X119.743 Y91.408 E15.48222
G1 X115.350 Y94.414 E15.65541
G1 X113.550 Y98.161 E15.79065
G1 X113.550 Y114.769 E16.33102
G1 X106.300 Y114.769 E16.56687
G1 X106.300 Y113.413 E16.61100
G1 X111.038 Y113.413 E16.76513
G1 X111.038 Y108.172 E16.93564
G1 X96.627 Y108.172 E17.40449
G1 X96.052 Y108.172 F7800.000
G1 X92.629 Y112.259 F7800.000
G1 X86.239 Y105.869 E17.69849 F1080.000
G1 X86.238 Y104.927 E17.72915
G1 X94.311 Y112.999 E18.10056
G1 X94.782 Y112.528 E18.12223
G1 X86.238 Y103.984 E18.51534
G1 X86.237 Y103.042 E18.54600
G1 X94.782 Y111.586 E18.93914
G1 X94.782 Y110.645 E18.96978
G1 X86.237 Y102.100 E19.36294
G1 X86.236 Y101.158 E19.39360
G1 X94.782 Y109.703 E19.78679
G1 X94.782 Y108.761 E19.81743
G1 X86.236 Y100.215 E20.21063
G1 X86.235 Y99.273 E20.24129
G1 X94.782 Y107.819 E20.63452
G1 X94.782 Y106.877 E20.66516
G1 X86.235 Y98.331 E21.05842
G1 X86.234 Y97.388 E21.08907
G1 X95.248 Y106.402 E21.50380
G1 X96.190 Y106.402 E21.53444
G1 X86.234 Y96.446 E21.99252
G1 X86.918 Y96.189 E22.01631
G1 X97.132 Y106.402 E22.48624
G1 X98.073 Y106.402 E22.51688
G1 X87.860 Y96.189 E22.98681
G1 X88.802 Y96.189 E23.01745
G1 X99.015 Y106.402 E23.48738
G1 X99.957 Y106.402 E23.51802
G1 X89.744 Y96.189 E23.98795
G1 X90.686 Y96.189 E24.01859
G1 X100.899 Y106.402 E24.48852
G1 X101.841 Y106.402 E24.51916
G1 X90.950 Y95.511 E25.02026
G1 X91.515 Y95.134 E25.04235
G1 X102.782 Y106.402 E25.56079
G1 X103.724 Y106.402 E25.59143
G1 X92.457 Y95.134 E26.10987
G1 X93.398 Y95.134 E26.14051
G1 X104.666 Y106.402 E26.65895
G1 X105.608 Y106.402 E26.68959
G1 X94.340 Y95.134 E27.20803
G1 X94.554 Y94.407 E27.23270
G1 X106.550 Y106.402 E27.78462
G1 X107.491 Y106.402 E27.81526
G1 X94.554 Y93.465 E28.41051
G1 X94.554 Y92.523 E28.44115
G1 X108.433 Y106.402 E29.07974
G1 X109.375 Y106.402 E29.11038
G1 X95.238 Y92.265 E29.76082
G1 X96.180 Y92.265 E29.79146
G1 X110.317 Y106.402 E30.44191
G1 X111.259 Y106.402 E30.47255
G1 X97.122 Y92.265 E31.12299
G1 X98.064 Y92.265 E31.15364
G1 X111.779 Y105.981 E31.78470
G1 X111.779 Y105.039 E31.81534
G1 X99.006 Y92.265 E32.40307
G1 X99.948 Y92.265 E32.43371
G1 X111.779 Y104.097 E32.97811
G1 X111.779 Y103.155 E33.00875
G1 X100.889 Y92.265 E33.50981
G1 X101.831 Y92.265 E33.54046
G1 X111.779 Y102.213 E33.99818
G1 X111.779 Y101.272 E34.02883
G1 X102.773 Y92.265 E34.44322
G1 X103.715 Y92.265 E34.47386
G1 X111.779 Y100.330 E34.84492
G1 X111.779 Y99.388 E34.87556
G1 X104.657 Y92.265 E35.20329
G1 X105.598 Y92.265 E35.23393
G1 X111.779 Y98.446 E35.51832
G1 X111.861 Y97.586 E35.54642
G1 X106.540 Y92.265 E35.79126
G1 X107.482 Y92.265 E35.82190
G1 X112.167 Y96.950 E36.03746
G1 X112.473 Y96.314 E36.06042
G1 X108.424 Y92.265 E36.24672
G1 X109.366 Y92.265 E36.27736
G1 X112.778 Y95.678 E36.43438
G1 X113.084 Y95.042 E36.45734
G1 X110.307 Y92.265 E36.58509
G1 X111.249 Y92.265 E36.61573
G1 X113.389 Y94.406 E36.71421
G1 X113.695 Y93.769 E36.73717
G1 X112.191 Y92.265 E36.80637
G1 X113.133 Y92.265 E36.83702
G1 X114.035 Y93.168 E36.87855
G1 X114.074 Y92.264 E36.90797
G1 X114.595 Y92.785 E36.93195
G1 X115.052 Y92.301 E36.95362
G1 X115.002 Y92.251 E36.95594
G1 X90.523 Y111.095 F7800.000
G1 X86.239 Y106.811 E37.15304 F1080.000
G1 X86.240 Y107.754 E37.18369
G1 X88.417 Y109.931 E37.28388
G1 X86.312 Y108.767 F7800.000
G1 X86.240 Y108.696 E37.28715 F1080.000
G1 X116.382 Y90.772 F7800.000
G1 X116.382 Y85.651 E37.38405 F360.000
G1 X93.111 Y85.650 F7800.000
G1 X93.692 Y86.229 E37.42363 F360.000
G1 X93.692 Y90.823 E37.64539
G1 X96.224 Y114.091 F7800.000
G1 X100.245 Y114.091 E37.72150 F360.000
G1 F1800.000 E36.72150
G92 E0
G1 X106.629 Y114.091 F7800.000
G1 E1.00000 F1800.000
G1 X111.366 Y114.091 E1.08965 F360.000
G1 X112.294 Y113.784 F7800.000
G1 X112.294 Y107.187 E1.21449 F360.000
M106 S189
G1 F1800.000 E0.21449
G92 E0
G1 Z0.750 F7800.000
G1 X117.023 Y90.194 F7800.000
G1 E1.00000 F1800.000
G1 X117.023 Y85.633 E1.12907 F1260.000
G1 X119.022 Y85.633 E1.18564
G1 X119.022 Y90.194 E1.31471
G1 X117.098 Y90.194 E1.36917
G1 X116.523 Y90.194 F7800.000
G1 X115.741 Y90.188 F7800.000
G1 X113.650 Y90.219 E1.42834 F1260.000
G1 X113.650 Y85.633 E1.55812
G1 X115.741 Y85.633 E1.61728
G1 X115.741 Y90.113 E1.74405
G1 X115.746 Y90.688 F7800.000
G1 X112.501 Y90.221 F7800.000
G1 X110.403 Y90.221 E1.80342 F1260.000
G1 X110.403 Y85.633 E1.93324
G1 X112.501 Y85.633 E1.99261
G1 X112.501 Y90.146 E2.12030
G1 X112.501 Y90.721 F7800.000
G1 X109.239 Y90.221 F7800.000
G1 X107.026 Y90.221 E2.18292 F1260.000
G1 X107.026 Y85.633 E2.31273
G1 X109.239 Y85.633 E2.37535
G1 X109.239 Y90.146 E2.50304
G1 X109.239 Y90.721 F7800.000
G1 X105.893 Y90.221 F7800.000
G1 X103.901 Y90.221 E2.55940 F1260.000
G1 X103.901 Y85.633 E2.68922
G1 X105.893 Y85.633 E2.74558
G1 X105.893 Y90.146 E2.87327
G1 X105.893 Y90.721 F7800.000
G1 X102.814 Y90.221 F7800.000
G1 X100.917 Y90.221 E2.92694 F1260.000
G1 X100.917 Y85.633 E3.05676
G1 X102.814 Y85.633 E3.11043
G1 X102.814 Y90.146 E3.23812
G1 X102.814 Y90.721 F7800.000
G1 X99.845 Y90.221 F7800.000
G1 X97.853 Y90.221 E3.29448 F1260.000
G1 X97.853 Y85.633 E3.42430
G1 X99.845 Y85.633 E3.48066
G1 X99.845 Y90.146 E3.60835
G1 X99.845 Y90.721 F7800.000
G1 X96.762 Y90.221 F7800.000
G1 X94.699 Y90.221 E3.66672 F1260.000
G1 X94.699 Y85.633 E3.79654
G1 X96.762 Y85.633 E3.85491
G1 X96.762 Y90.146 E3.98260
G1 X96.762 Y90.721 F7800.000
G1 X92.184 Y92.584 F7800.000
M106 S255
G1 X90.670 Y92.584 E4.02465 F3600.000
M106 S189
G1 X89.845 Y92.584 E4.04799 F1260.000
G1 X89.840 Y85.633 E4.24467
G1 X92.353 Y85.633 E4.31579
G1 X92.359 Y92.584 E4.51247
G1 X92.259 Y92.584 E4.51530
G1 X90.420 Y93.017 F7800.000
G1 X88.579 Y93.452 F7800.000
M106 S255
G1 X87.126 Y93.452 E4.55567 F3600.000
M106 S189
G1 X86.301 Y93.452 E4.57901 F1260.000
G1 X86.299 Y85.633 E4.80026
G1 X88.749 Y85.633 E4.86958
G1 X88.755 Y93.452 E5.09084
G1 X88.654 Y93.452 E5.09367
G1 X86.876 Y93.885 F7800.000
G1 X89.755 Y94.452 F7800.000
G1 X89.755 Y93.584 E5.11824 F1800.000
G1 X93.359 Y93.584 E5.22023
G1 X93.359 Y91.221 E5.28709
G1 X113.501 Y91.221 E5.85700
G1 X116.023 Y91.182 E5.92835
G1 X117.962 Y91.194 E5.98322
G1 X118.049 Y91.476 E5.99157
G1 X114.643 Y93.807 E6.10836
G1 X112.650 Y97.956 E6.23858
G1 X112.650 Y113.992 E6.69230
G1 X111.938 Y113.992 E6.71245
G1 X111.938 Y107.449 E6.89755
G1 X95.652 Y107.449 E7.35833
G1 X95.652 Y113.992 E7.54344
G1 X93.743 Y113.992 E7.59745
G1 X85.038 Y109.181 E7.87887
G1 X85.038 Y94.452 E8.29560
G1 X89.680 Y94.452 E8.42694
G1 X89.255 Y93.952 F7800.000
G1 X89.255 Y93.084 E8.45151 F1800.000
G1 X92.859 Y93.084 E8.55349
G1 X92.853 Y85.585 E8.76568
G1 X94.199 Y85.583 E8.80377
G1 X94.199 Y90.721 E8.94912
G1 X114.288 Y90.719 E9.51752
G1 X116.523 Y90.671 E9.58077
G1 X116.523 Y90.694 E9.58141
G1 X119.348 Y90.694 E9.66134
G1 X119.344 Y91.196 E9.67553
G1 X115.035 Y94.144 E9.82325
G1 X113.150 Y98.069 E9.94646
G1 X113.150 Y114.492 E10.41111
G1 X106.700 Y114.492 E10.59359
G1 X106.700 Y113.813 E10.61278
G1 X111.438 Y113.813 E10.74681
G1 X111.438 Y107.949 E10.91272
G1 X96.152 Y107.949 E11.34521
G1 X96.152 Y113.813 E11.51112
G1 X100.174 Y113.813 E11.62491
G1 X100.174 Y114.492 E11.64410
G1 X93.614 Y114.492 E11.82971
G1 X84.537 Y109.476 E12.12313
G1 X84.535 Y86.302 E12.77881
G1 X84.807 Y86.135 E12.78784
G1 X85.799 Y85.662 E12.81893
G1 X85.801 Y93.952 E13.05351
G1 X89.180 Y93.952 E13.14909
G1 X96.652 Y108.449 F7800.000
G1 X96.652 Y113.313 E13.28671 F1260.000
G1 X100.674 Y113.313 E13.40050
G1 X100.674 Y114.992 E13.44798
G1 X93.485 Y114.992 E13.65138
G1 X84.037 Y109.770 E13.95682
G1 X84.035 Y86.022 E14.62874
G1 X84.568 Y85.695 E14.64644
G1 X85.847 Y85.084 E14.68655
G1 X93.789 Y85.083 E14.91127
G1 X119.854 Y85.084 E15.64877
G1 X119.842 Y91.461 E15.82917
G1 X115.428 Y94.481 E15.98052
G1 X113.650 Y98.183 E16.09672
G1 X113.650 Y114.992 E16.57230
G1 X106.200 Y114.992 E16.78307
G1 X106.200 Y113.313 E16.83056
G1 X110.938 Y113.313 E16.96459
G1 X110.938 Y108.449 E17.10221
G1 X96.727 Y108.449 E17.50428
G1 X96.152 Y108.449 F7800.000
G1 X95.305 Y108.551 F7800.000
G1 X91.501 Y112.356 E17.66251 F3600.000
G1 X91.976 Y112.619 E17.67849
G1 X95.305 Y109.290 E17.81693
G1 X95.305 Y110.028 E17.83865
G1 X92.452 Y112.882 E17.95731
G1 X92.928 Y113.144 E17.97329
G1 X95.305 Y110.767 E18.07217
G1 X95.305 Y111.505 E18.09389
G1 X93.403 Y113.407 E18.17299
G1 X93.904 Y113.645 E18.18930
G1 X95.305 Y112.244 E18.24755
G1 X95.305 Y112.982 E18.26927
G1 X94.643 Y113.645 E18.29682
G1 X95.305 Y107.813 F7800.000
G1 X91.025 Y112.093 E18.47482 F3600.000
G1 X90.549 Y111.830 E18.49080
G1 X110.813 Y91.567 E19.33347
G1 X110.074 Y91.567 E19.35519
G1 X90.074 Y111.567 E20.18693
G1 X89.598 Y111.304 E20.20291
G1 X109.336 Y91.567 E21.02372
G1 X108.597 Y91.567 E21.04543
G1 X89.122 Y111.042 E21.85531
G1 X88.647 Y110.779 E21.87129
G1 X107.859 Y91.567 E22.67023
G1 X107.120 Y91.567 E22.69195
G1 X88.171 Y110.516 E23.47995
G1 X87.695 Y110.253 E23.49593
G1 X106.382 Y91.567 E24.27301
G1 X105.643 Y91.567 E24.29472
G1 X87.220 Y109.990 E25.06086
G1 X86.744 Y109.727 E25.07685
G1 X104.904 Y91.567 E25.83205
G1 X104.166 Y91.567 E25.85377
G1 X86.268 Y109.464 E26.59804
G1 X85.793 Y109.202 E26.61403
G1 X103.427 Y91.567 E27.34737
G1 X102.689 Y91.567 E27.36908
G1 X85.385 Y108.871 E28.08868
G1 X85.385 Y108.133 E28.11040
G1 X101.950 Y91.567 E28.79928
G1 X101.212 Y91.567 E28.82100
G1 X85.385 Y107.394 E29.47916
G1 X85.385 Y106.656 E29.50088
G1 X100.473 Y91.567 E30.12833
G1 X99.734 Y91.567 E30.15005
G1 X85.385 Y105.917 E30.74679
G1 X85.385 Y105.178 E30.76851
G1 X98.996 Y91.567 E31.33454
G1 X98.257 Y91.567 E31.35626
G1 X85.385 Y104.440 E31.89157
G1 X85.385 Y103.701 E31.91329
G1 X97.519 Y91.567 E32.41789
G1 X96.780 Y91.567 E32.43960
G1 X85.385 Y102.963 E32.91349
G1 X85.385 Y102.224 E32.93521
G1 X96.042 Y91.567 E33.37838
G1 X95.303 Y91.568 E33.40010
G1 X93.706 Y93.165 E33.46652
G1 X93.706 Y92.426 E33.48823
G1 X94.564 Y91.568 E33.52393
G1 X93.826 Y91.568 E33.54565
G1 X93.706 Y91.688 E33.55064
G1 X92.940 Y93.931 F7800.000
G1 X85.385 Y101.486 E33.86482 F3600.000
G1 X85.385 Y100.747 E33.88654
G1 X92.201 Y93.931 E34.17000
G1 X91.463 Y93.931 E34.19172
G1 X85.385 Y100.009 E34.44448
G1 X85.385 Y99.270 E34.46619
G1 X90.724 Y93.931 E34.68824
G1 X89.117 Y94.799 F7800.000
G1 X85.385 Y98.532 E34.84346 F3600.000
G1 X85.385 Y97.793 E34.86517
G1 X88.379 Y94.799 E34.98968
G1 X87.640 Y94.799 E35.01140
G1 X85.385 Y97.055 E35.10520
G1 X85.385 Y96.316 E35.12691
G1 X86.902 Y94.799 E35.19000
G1 X86.163 Y94.799 E35.21172
G1 X85.385 Y95.578 E35.24409
G1 X85.385 Y94.839 E35.26581
G1 X85.425 Y94.799 E35.26747
G1 X96.015 Y107.103 F7800.000
G1 X111.552 Y91.566 E35.91355 F3600.000
G1 X112.290 Y91.566 E35.93527
G1 X96.754 Y107.103 E36.58134
G1 X97.492 Y107.103 E36.60306
G1 X113.029 Y91.566 E37.24914
G1 X113.767 Y91.566 E37.27086
G1 X98.231 Y107.103 E37.91694
G1 X98.969 Y107.103 E37.93865
G1 X114.510 Y91.562 E38.58493
G1 X115.265 Y91.546 E38.60712
G1 X99.708 Y107.103 E39.25407
G1 X100.447 Y107.103 E39.27579
G1 X116.008 Y91.541 E39.92292
G1 X116.746 Y91.541 E39.94463
G1 X115.460 Y92.827 E39.99811
G1 X114.052 Y94.236 F7800.000
G1 X101.185 Y107.103 E40.53318 F3600.000
G1 X101.924 Y107.103 E40.55490
G1 X113.369 Y95.657 E41.03087
G1 X112.686 Y97.078 F7800.000
G1 X102.662 Y107.103 E41.44772 F3600.000
G1 X103.401 Y107.103 E41.46944
G1 X112.303 Y98.200 E41.83964
G1 X112.303 Y98.939 E41.86136
G1 X104.139 Y107.103 E42.20085
G1 X104.878 Y107.103 E42.22257
G1 X112.303 Y99.677 E42.53135
G1 X112.303 Y100.416 E42.55306
G1 X105.616 Y107.103 E42.83113
G1 X106.355 Y107.103 E42.85285
G1 X112.303 Y101.154 E43.10020
G1 X112.303 Y101.893 E43.12192
G1 X107.093 Y107.103 E43.33856
G1 X107.832 Y107.103 E43.36028
G1 X112.303 Y102.631 E43.54621
G1 X112.303 Y103.370 E43.56793
G1 X108.570 Y107.103 E43.72315
G1 X109.309 Y107.103 E43.74487
G1 X112.303 Y104.109 E43.86938
G1 X112.303 Y104.847 E43.89109
G1 X110.047 Y107.103 E43.98489
G1 X110.786 Y107.103 E44.00661
G1 X112.303 Y105.586 E44.06970
G1 X112.303 Y106.324 E44.09141
G1 X111.524 Y107.103 E44.12379
G1 X112.263 Y107.103 E44.14550
G1 X112.303 Y107.063 E44.14717
G1 X113.075 Y90.469 F7800.000
G1 X113.075 Y85.334 E44.34952 F1200.000
