; generated by Slic3r 1.1.7 on 2014-11-23 at 12:12:04

; perimeters extrusion width = 0.40mm
; infill extrusion width = 0.42mm
; solid infill extrusion width = 0.42mm
; top infill extrusion width = 0.42mm

G21 ; set units to millimeters
M107
G28 ; home all axes

G90 ; use absolute coordinates
G92 E0
M82 ; use absolute distances for extrusion
G1 F1800.000 E-1.00000
G92 E0
G1 Z0.350 F7800.000
G1 X73.005 Y79.851 F7800.000
G1 E1.00000 F1800.000
G1 X87.305 Y66.776 E2.79220 F1080.000
G1 X88.925 Y65.684 E2.97283
G1 X94.123 Y63.204 E3.50553
G1 X96.614 Y62.567 E3.74336
G1 X102.365 Y62.249 E4.27606
G1 X104.916 Y62.609 E4.51437
G1 X110.344 Y64.501 E5.04605 F1080.000
G1 X112.576 Y65.814 E5.28551
G1 X117.004 Y69.767 E5.83456
G1 X138.059 Y89.732 E8.51820
G1 X138.906 Y90.710 E8.63790
G1 X142.221 Y95.387 E9.16813
G1 X143.281 Y97.763 E9.40876
G1 X144.540 Y103.344 E9.93796
G1 X144.603 Y105.951 E10.17908
G1 X143.570 Y111.822 E10.73045
G1 X136.996 Y142.723 E13.65249
G1 X136.163 Y144.811 E13.86049
G1 X133.171 Y149.689 E14.38969
G1 X131.403 Y151.597 E14.63032
G1 X126.757 Y154.956 E15.16055
G1 X124.403 Y156.034 E15.40002
G1 X118.810 Y157.363 E15.93170
G1 X117.321 Y157.543 E16.07044
G1 X84.654 Y157.751 E19.09192
G1 X78.930 Y157.427 E19.62215
G1 X76.416 Y156.776 E19.86236
G1 X71.263 Y154.284 E20.39181
G1 X69.181 Y152.707 E20.63335
G1 X65.390 Y148.421 E21.16255
G1 X64.080 Y146.167 E21.40368
G1 X62.008 Y139.926 E22.01192
G1 X55.431 Y107.730 E25.05127
G1 X55.349 Y105.575 E25.25068
G1 X56.063 Y99.886 E25.78099
G1 X56.877 Y97.435 E26.01996
G1 X59.717 Y92.437 E26.55164
G1 X61.009 Y90.817 E26.74322
G1 X72.960 Y79.891 E28.24093
G1 F1800.000 E27.24093
G92 E0
G1 X89.949 Y134.058 F7800.000
G1 E1.00000 F1800.000
G1 X89.620 Y134.354 E1.04095 F540.000
G1 X89.237 Y134.570 E1.08160
G1 X88.821 Y134.701 E1.12189
G1 X88.392 Y134.745 E1.16180
G1 X87.966 Y134.709 E1.20140
G1 X87.555 Y134.596 E1.24081
G1 X87.171 Y134.414 E1.28008
G1 X86.825 Y134.168 E1.31931
G1 X86.526 Y133.867 E1.35857
G1 X86.283 Y133.518 E1.39794
G1 X86.107 Y133.128 E1.43749
G1 X86.006 Y132.709 E1.47734
G1 X85.989 Y132.275 E1.51755
G1 X86.063 Y131.842 E1.55816
G1 X86.230 Y131.432 E1.59912
G1 X86.484 Y131.066 E1.64027
G1 X86.812 Y130.766 E1.68141
G1 X87.195 Y130.546 E1.72232
G1 X87.613 Y130.413 E1.76286
G1 X88.045 Y130.369 E1.80302
G1 X88.345 Y130.398 E1.83085
G1 X88.474 Y130.409 E1.84281 F540.000
G1 X88.885 Y130.525 E1.88234
G1 X89.268 Y130.711 E1.92172
G1 X89.614 Y130.958 E1.96102
G1 X89.912 Y131.260 E2.00032
G1 X90.155 Y131.610 E2.03971
G1 X90.331 Y132.000 E2.07928
G1 X90.432 Y132.419 E2.11915
G1 X90.448 Y132.854 E2.15938
G1 X90.373 Y133.286 E2.20000
G1 X90.204 Y133.695 E2.24091
G1 X89.983 Y134.009 E2.27640
G1 X89.470 Y133.634 F7800.000
G1 X89.246 Y133.835 E2.30428 F378.000
G1 X88.983 Y133.984 E2.33226
G1 X88.692 Y134.075 E2.36042
G1 X88.387 Y134.107 E2.38882
G1 X88.078 Y134.080 E2.41746
G1 X87.777 Y133.998 E2.44633
G1 X87.494 Y133.863 E2.47534
G1 X87.238 Y133.682 E2.50441
G1 X87.016 Y133.459 E2.53343
G1 X86.838 Y133.203 E2.56231
G1 X86.710 Y132.920 E2.59098
G1 X86.638 Y132.621 E2.61943
G1 X86.627 Y132.316 E2.64766
G1 X86.678 Y132.017 E2.67573
G1 X86.792 Y131.736 E2.70373
G1 X86.964 Y131.488 E2.73170
G1 X87.187 Y131.283 E2.75971
G1 X87.450 Y131.132 E2.78780
G1 X87.742 Y131.039 E2.81606
G1 X87.992 Y131.014 E2.83934
G1 X88.358 Y131.037 E2.87323 F378.000
G1 X88.659 Y131.123 E2.90223
G1 X88.943 Y131.260 E2.93140
G1 X89.200 Y131.444 E2.96061
G1 X89.421 Y131.668 E2.98975
G1 X89.600 Y131.925 E3.01870
G1 X89.728 Y132.208 E3.04740
G1 X89.800 Y132.507 E3.07583
G1 X89.811 Y132.811 E3.10401
G1 X89.759 Y133.109 E3.13200
G1 X89.644 Y133.388 E3.15986
G1 X89.505 Y133.585 E3.18214
G1 F1800.000 E2.18214
G92 E0
G1 X87.933 Y130.652 F7800.000
G1 X85.000 Y135.672 F7800.000
G1 E1.00000 F1800.000
G1 X85.120 Y136.038 E1.03567 F540.000
G1 X85.167 Y136.393 E1.06881
G1 X85.164 Y136.656 E1.09314
G1 X85.118 Y136.996 E1.12483
G1 X85.001 Y137.339 E1.15835
G1 X84.899 Y137.553 E1.18026
G1 X84.695 Y137.847 E1.21334
G1 X84.550 Y138.013 E1.23370
G1 X84.371 Y138.169 E1.25575
G1 X84.072 Y138.375 E1.28930
G1 X83.846 Y138.478 E1.31227
G1 X83.526 Y138.581 E1.34341
G1 X83.283 Y138.626 E1.36627
G1 X83.057 Y138.635 E1.38712
G1 X82.797 Y138.620 E1.41123
G1 X82.480 Y138.562 E1.44109
G1 X82.221 Y138.471 E1.46646
G1 X81.824 Y138.253 E1.50831
G1 X81.641 Y138.114 E1.52955
G1 X81.480 Y137.953 E1.55068
G1 X81.310 Y137.745 E1.57546
G1 X81.141 Y137.467 E1.60560
G1 X81.006 Y137.134 E1.63881
G1 X80.943 Y136.899 E1.66135
G1 X80.912 Y136.519 E1.69660
G1 X80.918 Y136.320 E1.71498
G1 X80.954 Y136.091 E1.73639
G1 X81.025 Y135.825 E1.76195
G1 X81.155 Y135.521 E1.79249
G1 X81.346 Y135.224 E1.82513
G1 X81.587 Y134.951 E1.85880
G1 X81.840 Y134.750 E1.88875
G1 X82.068 Y134.611 E1.91342
G1 X82.291 Y134.510 E1.93604
G1 X82.501 Y134.443 E1.95641
G1 X82.876 Y134.381 E1.99157
G1 X83.172 Y134.383 E2.01898
G1 X83.452 Y134.418 E2.04509 F540.000
G1 X83.667 Y134.468 E2.06549
G1 X84.095 Y134.652 E2.10860
G1 X84.319 Y134.799 E2.13333
G1 X84.647 Y135.106 E2.17492
G1 X84.869 Y135.413 E2.20991
G1 X84.975 Y135.617 E2.23122
G1 X84.422 Y135.935 F7800.000
G1 X84.501 Y136.184 E2.25538 F378.000
G1 X84.532 Y136.433 E2.27861
G1 X84.531 Y136.606 E2.29461
G1 X84.497 Y136.850 E2.31738
G1 X84.344 Y137.239 E2.35601
G1 X84.203 Y137.444 E2.37909
G1 X83.972 Y137.674 E2.40918
G1 X83.764 Y137.816 E2.43248
G1 X83.610 Y137.887 E2.44824
G1 X83.380 Y137.962 E2.47057
G1 X83.049 Y137.999 E2.50134
G1 X82.644 Y137.947 E2.53914
G1 X82.475 Y137.888 E2.55571
G1 X82.190 Y137.733 E2.58568
G1 X82.059 Y137.633 E2.60094
G1 X81.831 Y137.380 E2.63241
G1 X81.707 Y137.177 E2.65443
G1 X81.614 Y136.944 E2.67765
G1 X81.571 Y136.782 E2.69318
G1 X81.549 Y136.523 E2.71716
G1 X81.553 Y136.371 E2.73126
G1 X81.620 Y136.051 E2.76153
G1 X81.719 Y135.814 E2.78525
G1 X81.809 Y135.666 E2.80131
G1 X82.020 Y135.417 E2.83151
G1 X82.205 Y135.271 E2.85331
G1 X82.358 Y135.178 E2.86981
G1 X82.664 Y135.059 E2.90018
G1 X82.918 Y135.017 E2.92396
G1 X83.049 Y135.015 E2.93615
G1 X83.242 Y135.029 E2.95402 F378.000
G1 X83.483 Y135.078 E2.97674
G1 X83.785 Y135.208 E3.00714
G1 X83.934 Y135.306 E3.02366
G1 X84.169 Y135.526 E3.05343
G1 X84.321 Y135.736 E3.07741
G1 X84.397 Y135.881 E3.09250
G1 X82.991 Y134.831 F7800.000
G1 F1800.000 E2.09250
G92 E0
G1 X79.635 Y139.241 F7800.000
G1 E1.00000 F1800.000
G1 X79.865 Y139.573 E1.03733 F540.000
G1 X80.041 Y139.962 E1.07688
G1 X80.142 Y140.381 E1.11673
G1 X80.159 Y140.815 E1.15694
G1 X80.085 Y141.248 E1.19756
G1 X79.989 Y141.487 E1.22137
G1 X79.918 Y141.659 E1.23852
G1 X79.664 Y142.024 E1.27967
G1 X79.336 Y142.324 E1.32080
G1 X79.065 Y142.481 E1.34981
G1 X78.953 Y142.544 E1.36172
G1 X78.535 Y142.677 E1.40226
G1 X78.103 Y142.721 E1.44241
G1 X77.675 Y142.681 E1.48219
G1 X77.263 Y142.565 E1.52173
G1 X76.880 Y142.380 E1.56111
G1 X76.534 Y142.132 E1.60041
G1 X76.236 Y141.830 E1.63971
G1 X75.993 Y141.480 E1.67910
G1 X75.817 Y141.090 E1.71868
G1 X75.716 Y140.671 E1.75853
G1 X75.700 Y140.236 E1.79877
G1 X75.775 Y139.804 E1.83938
G1 X75.944 Y139.395 E1.88031
G1 X76.041 Y139.256 E1.89597
G1 X76.199 Y139.032 E1.92134
G1 X76.528 Y138.736 E1.96229
G1 X76.911 Y138.520 E2.00294
G1 X77.327 Y138.389 E2.04323
G1 X77.756 Y138.345 E2.08315
G1 X77.911 Y138.358 E2.09755
G1 X78.183 Y138.382 E2.12275 F540.000
G1 X78.593 Y138.494 E2.16215
G1 X78.977 Y138.677 E2.20143
G1 X79.323 Y138.922 E2.24065
G1 X79.595 Y139.196 E2.27640
G1 X79.132 Y139.631 F7800.000
G1 X79.310 Y139.888 E2.30528 F378.000
G1 X79.438 Y140.170 E2.33395
G1 X79.510 Y140.469 E2.36239
G1 X79.521 Y140.774 E2.39062
G1 X79.470 Y141.073 E2.41871
G1 X79.356 Y141.354 E2.44670
G1 X79.239 Y141.525 E2.46592
G1 X79.184 Y141.602 E2.47467
G1 X78.961 Y141.807 E2.50268
G1 X78.698 Y141.959 E2.53078
G1 X78.407 Y142.051 E2.55903
G1 X78.100 Y142.082 E2.58753
G1 X77.790 Y142.053 E2.61628
G1 X77.489 Y141.968 E2.64529
G1 X77.205 Y141.830 E2.67446
G1 X76.948 Y141.646 E2.70367
G1 X76.727 Y141.422 E2.73281
G1 X76.549 Y141.165 E2.76176
G1 X76.421 Y140.882 E2.79046
G1 X76.349 Y140.583 E2.81889
G1 X76.337 Y140.279 E2.84707
G1 X76.389 Y139.981 E2.87505
G1 X76.427 Y139.887 E2.88438
G1 X76.504 Y139.702 E2.90292
G1 X76.678 Y139.456 E2.93075
G1 X76.902 Y139.255 E2.95862
G1 X77.165 Y139.106 E2.98660
G1 X77.456 Y139.015 E3.01477
G1 X77.550 Y139.005 E3.02349
G1 X77.761 Y138.983 E3.04317 F378.000
G1 X78.070 Y139.010 E3.07181
G1 X78.371 Y139.092 E3.10067
G1 X78.654 Y139.227 E3.12969
G1 X78.910 Y139.409 E3.15875
G1 X79.089 Y139.589 E3.18223
G1 X77.448 Y138.818 F7800.000
G1 X72.769 Y145.260 F7800.000
G1 X71.230 Y143.519 E3.39711 F540.000
G1 X69.505 Y138.465 E3.89107
G1 X69.843 Y133.118 E4.38661
G1 X72.197 Y128.292 E4.88327
G1 X76.209 Y124.723 E5.37993
G1 X76.725 Y124.543 E5.43040
G1 X81.267 Y122.955 E5.87544 F540.000
G1 X86.598 Y123.257 E6.36931
G1 X91.392 Y125.579 E6.86202
G1 X94.922 Y129.569 E7.35473
G1 X96.650 Y134.621 E7.84861
G1 X96.312 Y139.968 E8.34411
G1 X93.958 Y144.794 E8.84077
G1 X89.946 Y148.363 E9.33743
G1 X84.888 Y150.131 E9.83294
G1 X79.557 Y149.829 E10.32684
G1 X74.759 Y147.509 E10.81981
G1 X72.809 Y145.305 E11.09202
G1 X72.293 Y145.681 F7800.000
G1 X70.669 Y143.845 E11.31867 F378.000
G1 X68.863 Y138.551 E11.83608
G1 X69.217 Y132.952 E12.35493
G1 X71.681 Y127.900 E12.87483
G1 X75.881 Y124.164 E13.39474
G1 X81.177 Y122.314 E13.91357
G1 X81.897 Y122.354 E13.98034
G1 X86.761 Y122.629 E14.43089 F378.000
G1 X91.784 Y125.063 E14.94713
G1 X95.482 Y129.243 E15.46337
G1 X97.292 Y134.535 E15.98069
G1 X96.939 Y140.134 E16.49953
G1 X94.474 Y145.186 E17.01943
G1 X90.274 Y148.922 E17.53934
G1 X84.979 Y150.772 E18.05817
G1 X79.394 Y150.457 E18.57550
G1 X74.367 Y148.026 E19.09200
G1 X72.333 Y145.726 E19.37601
G1 X82.214 Y122.598 F7800.000
G1 X86.099 Y123.670 F7800.000
G1 X95.734 Y133.304 E20.63622 F1080.000
G1 X96.205 Y134.684 F7800.000
G1 X85.136 Y123.616 E22.08395 F1080.000
G1 X84.173 Y123.561 E22.17315
G1 X96.151 Y135.538 E23.73977
G1 X96.097 Y136.393 E23.81896
G1 X83.211 Y123.507 E25.50447
G1 X82.248 Y123.452 E25.59367
G1 X88.854 Y130.058 E26.45777
G1 X87.835 Y129.948 E26.55256
G1 X81.298 Y123.411 E27.40757
G1 X80.625 Y123.647 E27.47353
G1 X87.094 Y130.115 E28.31967
G1 X86.512 Y130.442 E28.38138
G1 X79.952 Y123.882 E29.23950
G1 X79.279 Y124.117 E29.30546
G1 X86.062 Y130.900 E30.19274
G1 X85.734 Y131.481 E30.25441
G1 X78.606 Y124.352 E31.18686
G1 X77.932 Y124.588 E31.25282
G1 X85.553 Y132.209 E32.24967
G1 X85.682 Y133.245 E32.34628
G1 X77.259 Y124.823 E33.44796
G1 X76.586 Y125.058 E33.51392
G1 X94.404 Y142.876 E35.84449
G1 X94.106 Y143.486 E35.90733
G1 X76.063 Y125.443 E38.26740
G1 X75.582 Y125.871 E38.32691
G1 X83.744 Y134.033 E39.39457
G1 X82.760 Y133.957 E39.48588
G1 X75.101 Y126.299 E40.48767
G1 X74.620 Y126.726 E40.54718
G1 X82.036 Y134.142 E41.51713
G1 X81.471 Y134.485 E41.57827
G1 X74.140 Y127.154 E42.53726
G1 X73.659 Y127.582 E42.59677
G1 X81.015 Y134.937 E43.55892
G1 X80.676 Y135.507 E43.62023
G1 X73.178 Y128.009 E44.60096
G1 X72.704 Y128.443 E44.66043
G1 X80.487 Y136.226 E45.67847
G1 X80.572 Y137.221 E45.77077
G1 X72.345 Y128.993 E46.84689
G1 X72.047 Y129.604 E46.90973
G1 X90.089 Y147.646 E49.26962
G1 X90.570 Y147.218 E49.32914
G1 X82.321 Y138.969 E50.40808
G1 X83.326 Y139.066 E50.50141
G1 X91.051 Y146.790 E51.51184
G1 X91.532 Y146.363 E51.57136
G1 X84.042 Y138.873 E52.55103
G1 X84.612 Y138.534 E52.61233
G1 X92.012 Y145.935 E53.58036
G1 X92.493 Y145.508 E53.63987
G1 X85.066 Y138.081 E54.61131
G1 X85.406 Y137.512 E54.67257
G1 X92.974 Y145.080 E55.66241
G1 X93.448 Y144.646 E55.72189
G1 X85.586 Y136.784 E56.75029
G1 X85.512 Y135.801 E56.84143
G1 X93.808 Y144.097 E57.92654
G1 X94.701 Y142.265 F7800.000
G1 X87.465 Y135.028 E58.87314 F1080.000
G1 X88.520 Y135.175 E58.97172
G1 X94.999 Y141.655 E59.81921
G1 X95.297 Y141.044 E59.88204
G1 X89.274 Y135.021 E60.66989
G1 X89.877 Y134.715 E60.73240
G1 X95.595 Y140.433 E61.48034
G1 X95.881 Y139.811 E61.54372
G1 X90.339 Y134.269 E62.26854
G1 X90.679 Y133.701 E62.32981
G1 X95.935 Y138.956 E63.01724
G1 X95.989 Y138.102 E63.09643
G1 X90.873 Y132.986 E63.76559
G1 X90.781 Y131.986 E63.85848
G1 X96.043 Y137.247 E64.54669
G1 X95.261 Y131.924 F7800.000
G1 X87.541 Y124.203 E65.55652 F1080.000
G1 X89.303 Y125.057 F7800.000
G1 X94.789 Y130.543 E66.27409 F1080.000
G1 X91.340 Y126.185 F7800.000
G1 X91.065 Y125.911 E66.31000 F1080.000
G1 F1800.000 E65.31000
G92 E0
G1 X80.465 Y139.838 F7800.000
G1 E1.00000 F1800.000
G1 X88.891 Y148.265 E2.10219 F1080.000
G1 X88.218 Y148.500 E2.16815
G1 X80.595 Y140.877 E3.16522
G1 X80.415 Y141.606 E3.23461
G1 X87.545 Y148.735 E4.16718
G1 X86.872 Y148.971 E4.23314
G1 X80.089 Y142.188 E5.12037
G1 X79.638 Y142.646 E5.17979
G1 X86.199 Y149.206 E6.03789
G1 X85.525 Y149.441 E6.10385
G1 X79.058 Y142.974 E6.94982
G1 X78.318 Y143.142 E7.02002
G1 X84.852 Y149.676 E7.87473
G1 X83.901 Y149.633 E7.96283
G1 X77.301 Y143.034 E8.82607
G1 X74.811 Y146.903 F7800.000
G1 X75.086 Y147.177 E8.86196 F1080.000
G1 X76.845 Y148.028 F7800.000
G1 X71.364 Y142.547 E9.57890 F1080.000
G1 X70.893 Y141.168 F7800.000
G1 X78.604 Y148.879 E10.58746 F1080.000
G1 X89.564 Y148.030 F7800.000
G1 X71.750 Y130.215 E12.91769 F1080.000
G1 X71.452 Y130.825 E12.98052
G1 X78.690 Y138.064 E13.92734
G1 X77.632 Y137.914 E14.02615
G1 X71.154 Y131.436 E14.87355
G1 X70.856 Y132.046 E14.93639
G1 X76.878 Y138.068 E15.72405
G1 X76.274 Y138.373 E15.78659
G1 X70.558 Y132.657 E16.53428
G1 X70.274 Y133.282 E16.59773
G1 X75.811 Y138.818 E17.32193
G1 X75.470 Y139.386 E17.38318
G1 X70.220 Y134.136 E18.06990
G1 X70.166 Y134.991 E18.14909
G1 X75.276 Y140.100 E18.81744
G1 X75.365 Y141.098 E18.91010
G1 X70.112 Y135.845 E19.59721
G1 X70.058 Y136.699 E19.67640
G1 X82.938 Y149.579 E21.36105
G1 X81.975 Y149.524 E21.45025
G1 X70.004 Y137.554 E23.01601
G1 X69.952 Y138.410 E23.09536
G1 X81.012 Y149.470 E24.54199
G1 X80.049 Y149.416 E24.63119
G1 X70.423 Y139.789 E25.89034
G1 F1800.000 E24.89034
G92 E0
G1 X82.613 Y106.110 F7800.000
G1 E1.00000 F1800.000
G1 X82.207 Y105.962 E1.03991 F540.000
G1 X81.840 Y105.742 E1.07952
G1 X81.520 Y105.461 E1.11892
G1 X81.255 Y105.129 E1.15820
G1 X81.051 Y104.756 E1.19744
G1 X80.915 Y104.354 E1.23671
G1 X80.850 Y103.934 E1.27609
G1 X80.862 Y103.506 E1.31567
G1 X80.955 Y103.085 E1.35553
G1 X81.130 Y102.687 E1.39578
G1 X81.387 Y102.330 E1.43642
G1 X81.716 Y102.034 E1.47742
G1 X82.104 Y101.816 E1.51859
G1 X82.531 Y101.689 E1.55975
G1 X82.970 Y101.659 E1.60043
G1 X83.381 Y101.719 E1.63887
G1 X83.820 Y101.875 E1.68201 F540.000
G1 X84.182 Y102.097 E1.72119
G1 X84.500 Y102.382 E1.76071
G1 X84.763 Y102.717 E1.80012
G1 X84.965 Y103.091 E1.83945
G1 X85.101 Y103.494 E1.87879
G1 X85.165 Y103.915 E1.91821
G1 X85.153 Y104.343 E1.95781
G1 X85.060 Y104.764 E1.99768
G1 X84.884 Y105.162 E2.03794
G1 X84.627 Y105.518 E2.07857
G1 X84.296 Y105.812 E2.11949
G1 X83.908 Y106.026 E2.16054
G1 X83.482 Y106.148 E2.20148
G1 X83.043 Y106.175 E2.24214
G1 X82.672 Y106.119 E2.27688
G1 X82.771 Y105.491 F7800.000
G1 X82.482 Y105.386 E2.30527 F378.000
G1 X82.217 Y105.227 E2.33391
G1 X81.982 Y105.021 E2.36278
G1 X81.787 Y104.775 E2.39180
G1 X81.636 Y104.500 E2.42088
G1 X81.534 Y104.202 E2.44991
G1 X81.487 Y103.894 E2.47880
G1 X81.496 Y103.584 E2.50750
G1 X81.562 Y103.283 E2.53596
G1 X81.685 Y103.003 E2.56423
G1 X81.862 Y102.757 E2.59234
G1 X82.088 Y102.554 E2.62037
G1 X82.351 Y102.405 E2.64836
G1 X82.642 Y102.318 E2.67639
G1 X82.783 Y102.308 E2.68952
G1 X82.945 Y102.297 E2.70451 F378.000
G1 X83.239 Y102.341 E2.73202
G1 X83.540 Y102.450 E2.76162
G1 X83.802 Y102.610 E2.79003
G1 X84.035 Y102.820 E2.81904
G1 X84.230 Y103.068 E2.84825
G1 X84.380 Y103.347 E2.87749
G1 X84.481 Y103.645 E2.90667
G1 X84.528 Y103.955 E2.93565
G1 X84.520 Y104.266 E2.96438
G1 X84.453 Y104.566 E2.99282
G1 X84.330 Y104.845 E3.02102
G1 X84.153 Y105.090 E3.04901
G1 X83.927 Y105.290 E3.07689
G1 X83.664 Y105.435 E3.10472
G1 X83.374 Y105.518 E3.13260
G1 X83.072 Y105.536 E3.16058
G1 X82.830 Y105.500 E3.18320
G1 F1800.000 E2.18320
G92 E0
G1 X82.771 Y102.147 F7800.000
G1 X78.752 Y105.339 F7800.000
G1 E1.00000 F1800.000
G1 X78.699 Y105.692 E1.03301 F540.000
G1 X78.586 Y106.032 E1.06613
G1 X78.468 Y106.267 E1.09043
