; generated by Slic3r 1.1.7 on 2014-11-22 at 18:02:14

; perimeters extrusion width = 0.40mm
; infill extrusion width = 0.42mm
; solid infill extrusion width = 0.42mm
; top infill extrusion width = 0.42mm

G21 ; set units to millimeters
M107
G28 ; home all axes

G90 ; use absolute coordinates
G92 E0
M82 ; use absolute distances for extrusion
G1 F1800.000 E-1.00000
G92 E0
G1 Z0.350 F7800.000
G1 X43.251 Y55.342 F7800.000
G1 E1.00000 F1800.000
G1 X45.734 Y53.561 E1.28262 F1080.000
G1 X51.996 Y50.987 E1.90885
G1 X91.477 Y35.229 E5.84061
G1 X92.701 Y34.803 E5.96047
G1 X93.885 Y34.474 E6.07414
G1 X95.137 Y34.207 E6.19250
G1 X96.351 Y34.026 E6.30603
G1 X97.666 Y33.912 E6.42812
G1 X98.700 Y33.886 E6.52380
G1 X130.142 Y33.888 E9.43186
G1 X131.456 Y33.942 E9.55350 F1080.000
G1 X132.676 Y34.074 E9.66703
G1 X133.941 Y34.287 E9.78563
G1 X135.156 Y34.572 E9.90108
G1 X136.377 Y34.940 E10.01902
G1 X137.547 Y35.375 E10.13448
G1 X138.707 Y35.889 E10.25186
G1 X139.357 Y36.219 E10.31930
G1 X139.831 Y36.475 E10.36906
G1 X140.935 Y37.143 E10.48841
G1 X141.956 Y37.856 E10.60362
G1 X142.961 Y38.653 E10.72221
G1 X143.508 Y39.138 E10.78982
G1 X143.886 Y39.489 E10.83762
G1 X144.758 Y40.378 E10.95277
G1 X145.602 Y41.351 E11.07186
G1 X146.352 Y42.338 E11.18653
G1 X146.765 Y42.942 E11.25416
G1 X147.069 Y43.413 E11.30604
G1 X147.702 Y44.511 E11.42326
G1 X148.264 Y45.648 E11.54062
G1 X148.747 Y46.798 E11.65598
G1 X149.169 Y48.010 E11.77464
G1 X149.501 Y49.202 E11.88913
G1 X149.679 Y49.992 E11.96403
G1 X149.769 Y50.459 E12.00802
G1 X149.949 Y51.671 E12.12136
G1 X150.045 Y52.647 E12.21206
G1 X159.163 Y167.137 E22.83483
G1 X159.163 Y171.017 E23.19369
G1 X158.328 Y174.239 E23.50158
G1 X156.928 Y176.759 E23.76823
G1 X155.528 Y178.504 E23.97512
G1 X151.707 Y181.861 E24.44549
G1 X147.847 Y184.775 E24.89282
G1 X145.804 Y185.820 E25.10511
G1 X143.849 Y186.114 E25.28793
G1 X81.881 Y186.114 E31.01941
G1 X79.621 Y185.717 E31.23171
G1 X78.377 Y185.114 E31.35953
G1 X73.263 Y181.934 E31.91652
G1 X71.948 Y180.860 E32.07354
G1 X68.198 Y176.884 E32.57906
G1 X44.724 Y149.175 E35.93794
G1 X43.566 Y147.193 E36.15024
G1 X43.167 Y145.329 E36.32652
G1 X40.837 Y110.368 E39.56732
G1 X40.838 Y97.104 E40.79413
G1 X41.622 Y59.560 E44.26735
G1 X42.066 Y57.308 E44.47964
G1 X43.220 Y55.393 E44.68639
G1 F1800.000 E43.68639
G92 E0
G1 X55.488 Y66.811 F7800.000
G1 E1.00000 F1800.000
G1 X55.181 Y66.977 E1.03228 F378.000
G1 X54.801 Y67.095 E1.06904
G1 X54.409 Y67.131 E1.10545
G1 X54.024 Y67.084 E1.14138
G1 X53.662 Y66.961 E1.17674
G1 X53.337 Y66.771 E1.21151
G1 X53.059 Y66.526 E1.24581
G1 X52.829 Y66.227 E1.28067
G1 X52.663 Y65.895 E1.31499
G1 X52.563 Y65.540 E1.34909
G1 X52.528 Y65.169 E1.38356
G1 X52.572 Y64.754 E1.42214
G1 X52.681 Y64.399 E1.45658
G1 X52.861 Y64.065 E1.49164
G1 X53.068 Y63.810 E1.52202
G1 X53.366 Y63.553 E1.55840
G1 X53.707 Y63.364 E1.59446
G1 X54.079 Y63.250 E1.63050
G1 X54.473 Y63.214 E1.66707
G1 X54.516 Y63.226 E1.67122
G1 X54.860 Y63.260 E1.70319 F378.000
G1 X55.223 Y63.383 E1.73860
G1 X55.547 Y63.573 E1.77334
G1 X55.826 Y63.821 E1.80790
G1 X56.051 Y64.116 E1.84216
G1 X56.217 Y64.448 E1.87650
G1 X56.318 Y64.804 E1.91071
G1 X56.353 Y65.173 E1.94502
G1 X56.308 Y65.589 E1.98374
G1 X56.204 Y65.937 E2.01732
G1 X56.027 Y66.272 E2.05238
G1 X55.787 Y66.567 E2.08750
G1 X55.536 Y66.775 E2.11771
G1 F1800.000 E1.11771
G92 E0
G1 X54.497 Y62.881 F7800.000
G1 X53.124 Y135.900 F7800.000
G1 E1.00000 F1800.000
G1 X53.167 Y135.912 E1.00417 F378.000
G1 X53.510 Y135.946 E1.03600 F378.000
G1 X53.872 Y136.069 E1.07135
G1 X54.196 Y136.259 E1.10612
G1 X54.474 Y136.505 E1.14042
G1 X54.704 Y136.803 E1.17528
G1 X54.870 Y137.135 E1.20959
G1 X54.970 Y137.490 E1.24370
G1 X55.005 Y137.861 E1.27817
G1 X54.961 Y138.276 E1.31675
G1 X54.852 Y138.632 E1.35119
G1 X54.672 Y138.966 E1.38625
G1 X54.436 Y139.255 E1.42082
G1 X54.168 Y139.478 E1.45306
G1 X53.826 Y139.666 E1.48912
G1 X53.454 Y139.780 E1.52515
G1 X53.060 Y139.816 E1.56172
G1 X52.673 Y139.770 E1.59779
G1 X52.310 Y139.647 E1.63320
G1 X51.986 Y139.457 E1.66794
G1 X51.707 Y139.209 E1.70250
G1 X51.482 Y138.914 E1.73676
G1 X51.316 Y138.582 E1.77110
G1 X51.215 Y138.227 E1.80531
G1 X51.181 Y137.857 E1.83962
G1 X51.215 Y137.488 E1.87393
G1 X51.329 Y137.093 E1.91192
G1 X51.506 Y136.758 E1.94699
G1 X51.746 Y136.464 E1.98210
G1 X52.045 Y136.219 E2.01786
G1 X52.352 Y136.053 E2.05013
G1 X52.732 Y135.935 E2.08689
G1 X53.064 Y135.906 E2.11776
G1 X53.354 Y135.623 F7800.000
G1 F1800.000 E1.11776
G92 E0
G1 X53.113 Y140.427 F7800.000
G1 E1.00000 F1800.000
G1 X53.157 Y140.436 E1.00412 F378.000
G1 X53.491 Y140.469 E1.03517 F378.000
G1 X53.851 Y140.586 E1.07014
G1 X54.178 Y140.770 E1.10490
G1 X54.462 Y141.014 E1.13948
G1 X54.692 Y141.305 E1.17377
G1 X54.864 Y141.638 E1.20850
G1 X54.969 Y141.996 E1.24293
G1 X55.005 Y142.370 E1.27776
G1 X54.969 Y142.742 E1.31232
G1 X54.861 Y143.106 E1.34743
G1 X54.687 Y143.437 E1.38203
G1 X54.449 Y143.733 E1.41709
G1 X54.157 Y143.977 E1.45236
G1 X53.819 Y144.160 E1.48782
G1 X53.452 Y144.270 E1.52331
G1 X53.072 Y144.305 E1.55861
G1 X52.694 Y144.262 E1.59376
G1 X52.334 Y144.145 E1.62879
G1 X52.007 Y143.961 E1.66352
G1 X51.723 Y143.717 E1.69811
G1 X51.493 Y143.426 E1.73246
G1 X51.321 Y143.092 E1.76716
G1 X51.217 Y142.738 E1.80129
G1 X51.180 Y142.359 E1.83658
G1 X51.217 Y141.990 E1.87081
G1 X51.324 Y141.627 E1.90586
G1 X51.498 Y141.295 E1.94053
G1 X51.735 Y140.999 E1.97559
G1 X52.027 Y140.755 E2.01080
G1 X52.366 Y140.572 E2.04642
G1 X52.732 Y140.461 E2.08182
G1 X53.054 Y140.433 E2.11164
G1 X53.338 Y140.154 F7800.000
G1 F1800.000 E1.11164
G92 E0
G1 X52.958 Y111.353 F7800.000
G1 E1.00000 F1800.000
G1 X52.958 Y96.256 E2.39633 F540.000
G1 X48.479 Y96.256 E2.81057
G1 X49.228 Y60.391 E6.12849
G1 X52.239 Y59.139 E6.43012
G1 X51.937 Y60.156 E6.52819
G1 X51.890 Y60.642 E6.57337
G1 X51.936 Y61.136 E6.61924
G1 X52.070 Y61.601 E6.66400
G1 X52.294 Y62.041 E6.70969
G1 X52.589 Y62.424 E6.75434
G1 X52.885 Y62.669 E6.78994
G1 X53.122 Y62.929 E6.82246
G1 X52.649 Y63.321 E6.87926
G1 X52.579 Y63.403 E6.88924
G1 X52.338 Y63.700 E6.92466
G1 X52.098 Y64.142 E6.97115
G1 X51.933 Y64.709 E7.02574
G1 X51.890 Y65.177 E7.06922
G1 X51.933 Y65.654 E7.11349
G1 X52.056 Y66.106 E7.15680
G1 X52.227 Y66.429 E7.19060
G1 X52.261 Y66.535 E7.20099
G1 X52.503 Y66.833 E7.23644
G1 X52.555 Y66.933 E7.24690
G1 X52.841 Y67.170 E7.28119
G1 X52.907 Y67.262 E7.29166
G1 X53.249 Y67.446 E7.32764
G1 X53.330 Y67.524 E7.33805
G1 X53.722 Y67.644 E7.37594
G1 X53.817 Y67.702 E7.38626
G1 X54.245 Y67.745 E7.42603
G1 X54.351 Y67.775 E7.43616
G1 X54.901 Y67.729 E7.48727
G1 X55.438 Y67.560 E7.53935
G1 X55.828 Y67.350 E7.58031
G1 X56.240 Y67.017 E7.62929
G1 X56.560 Y66.624 E7.67621
G1 X56.795 Y66.179 E7.72270
G1 X56.947 Y65.636 E7.77485
G1 X56.990 Y65.164 E7.81874
G1 X56.949 Y64.692 E7.86255
G1 X56.825 Y64.237 E7.90616
G1 X56.653 Y63.913 E7.94003
G1 X56.619 Y63.806 E7.95042
G1 X56.387 Y63.522 E7.98437
G1 X56.338 Y63.420 E7.99481
G1 X56.046 Y63.178 E8.02992
G1 X55.981 Y63.085 E8.04037
G1 X55.691 Y62.929 E8.07081
G1 X56.259 Y62.453 E8.13936
G1 X56.512 Y62.141 E8.17645
G1 X56.575 Y62.056 E8.18629
G1 X56.803 Y61.617 E8.23199
G1 X56.874 Y61.380 E8.25487
G1 X57.289 Y61.420 E8.29342
G1 X61.012 Y97.293 E11.62922
G1 X61.012 Y142.313 E15.79312
G1 X59.871 Y143.632 E15.95451
G1 X54.994 Y144.807 E16.41843
G1 X54.294 Y144.689 E16.48417
G1 X54.910 Y144.174 E16.55848
G1 X55.226 Y143.777 E16.60542
G1 X55.454 Y143.341 E16.65088
G1 X55.596 Y142.856 E16.69766
G1 X55.643 Y142.370 E16.74283
G1 X55.597 Y141.876 E16.78869
G1 X55.463 Y141.411 E16.83347
G1 X55.239 Y140.971 E16.87917
G1 X54.945 Y140.588 E16.92380
G1 X54.648 Y140.343 E16.95940
G1 X54.420 Y140.093 E16.99063
G1 X54.884 Y139.709 E17.04631
G1 X55.195 Y139.330 E17.09171
G1 X55.435 Y138.888 E17.13818
G1 X55.579 Y138.429 E17.18267
G1 X55.643 Y137.853 E17.23626
G1 X55.600 Y137.377 E17.28053
G1 X55.477 Y136.925 E17.32385
G1 X55.306 Y136.602 E17.35765
G1 X55.272 Y136.495 E17.36803
G1 X55.030 Y136.197 E17.40349
G1 X54.978 Y136.097 E17.41394
G1 X54.692 Y135.860 E17.44824
G1 X54.626 Y135.769 E17.45870
G1 X54.284 Y135.584 E17.49469
G1 X54.203 Y135.506 E17.50510
G1 X53.811 Y135.386 E17.54296
G1 X53.716 Y135.328 E17.55328
G1 X53.288 Y135.285 E17.59306
G1 X53.183 Y135.255 E17.60319
G1 X52.632 Y135.301 E17.65434
G1 X52.094 Y135.470 E17.70642
G1 X51.705 Y135.680 E17.74736
G1 X51.293 Y136.013 E17.79633
G1 X50.973 Y136.406 E17.84324
G1 X50.738 Y136.851 E17.88975
G1 X50.671 Y137.075 E17.91134
G1 X50.249 Y137.027 E17.95062
G1 X48.530 Y111.353 E20.33052
G1 X52.898 Y111.353 E20.73449
G1 X50.824 Y138.946 F7800.000
G1 X50.915 Y139.224 E20.76148 F540.000
G1 X51.146 Y139.509 E20.79543
G1 X51.195 Y139.610 E20.80587
G1 X51.487 Y139.852 E20.84098
G1 X51.720 Y140.184 E20.87846
G1 X51.274 Y140.559 E20.93240
G1 X51.021 Y140.871 E20.96950
G1 X50.549 Y141.514 E21.04325
G1 X50.383 Y139.032 E21.27332
G1 X50.765 Y138.958 E21.30929
G1 X52.323 Y110.718 F7800.000
G1 X52.323 Y96.892 E22.58804 F378.000
G1 X47.830 Y96.892 E23.00357
G1 X48.601 Y59.964 E26.41987
G1 X54.399 Y57.553 E27.00062
G1 X55.525 Y58.547 E27.13953
G1 X55.324 Y58.905 E27.17748
G1 X54.839 Y58.750 E27.22459
G1 X54.461 Y58.707 E27.25975
G1 X54.081 Y58.742 E27.29506
G1 X53.714 Y58.852 E27.33053
G1 X53.377 Y59.035 E27.36600
G1 X53.117 Y59.250 E27.39721
G1 X52.846 Y59.575 E27.43629
G1 X52.672 Y59.906 E27.47088
G1 X52.576 Y60.227 E27.50185
G1 X52.528 Y60.642 E27.54051
G1 X52.564 Y61.017 E27.57533
G1 X52.669 Y61.374 E27.60976
G1 X52.842 Y61.707 E27.64448
G1 X53.071 Y61.998 E27.67878
G1 X53.355 Y62.242 E27.71336
G1 X53.683 Y62.426 E27.74813
G1 X54.042 Y62.543 E27.78309
G1 X54.420 Y62.585 E27.81823
G1 X54.801 Y62.551 E27.85360
G1 X55.167 Y62.440 E27.88900
G1 X55.506 Y62.257 E27.92462
G1 X55.765 Y62.042 E27.95578
G1 X56.035 Y61.717 E27.99484
G1 X56.209 Y61.385 E28.02952
G1 X56.316 Y61.022 E28.06458
G1 X56.353 Y60.653 E28.09880
G1 X56.316 Y60.274 E28.13408
G1 X56.212 Y59.920 E28.16822
G1 X56.006 Y59.529 E28.20913
G1 X56.339 Y59.266 E28.24836
G1 X57.842 Y60.594 E28.43389
G1 X61.648 Y97.260 E31.84341
G1 X61.648 Y142.549 E36.03225
G1 X60.218 Y144.203 E36.23441
G1 X55.017 Y145.456 E36.72923
G1 X50.121 Y144.631 E37.18843
G1 X47.849 Y110.718 E40.33215
G1 X52.263 Y110.718 E40.74042
G1 X52.723 Y110.718 F7800.000
G1 X53.399 Y97.010 F7800.000
G1 X60.571 Y104.183 E41.67865 F1080.000
G1 X60.571 Y105.084 E41.76202
G1 X53.399 Y97.911 E42.70025
G1 X53.399 Y98.813 E42.78363
G1 X60.571 Y105.986 E43.72186
G1 X60.571 Y106.887 E43.80523
G1 X53.399 Y99.714 E44.74346
G1 X53.399 Y100.616 E44.82684
G1 X60.571 Y107.789 E45.76507
G1 X60.571 Y108.690 E45.84844
G1 X53.399 Y101.517 E46.78667
G1 X53.399 Y102.419 E46.87005
G1 X60.571 Y109.592 E47.80828
G1 X60.571 Y110.493 E47.89165
G1 X53.399 Y103.320 E48.82988
G1 X53.399 Y104.222 E48.91326
G1 X60.571 Y111.394 E49.85149
G1 X60.571 Y112.296 E49.93487
G1 X53.399 Y105.123 E50.87309
G1 X53.399 Y106.025 E50.95647
G1 X60.571 Y113.197 E51.89470
G1 X60.571 Y114.099 E51.97808
G1 X53.399 Y106.926 E52.91630
G1 X53.399 Y107.827 E52.99968
G1 X60.571 Y115.000 E53.93791
G1 X60.571 Y115.902 E54.02129
G1 X53.399 Y108.729 E54.95951
G1 X53.399 Y109.630 E55.04289
G1 X60.571 Y116.803 E55.98112
G1 X60.571 Y117.705 E56.06450
G1 X53.399 Y110.532 E57.00273
G1 X53.399 Y111.433 E57.08610
G1 X60.571 Y118.606 E58.02433
G1 X60.571 Y119.508 E58.10771
G1 X52.858 Y111.794 E59.11664
G1 X51.957 Y111.794 E59.20002
G1 X60.571 Y120.409 E60.32687
G1 X60.571 Y121.311 E60.41024
G1 X51.055 Y111.794 E61.65500
G1 X50.154 Y111.794 E61.73838
G1 X60.571 Y122.212 E63.10106
G1 X60.571 Y123.114 E63.18443
G1 X49.252 Y111.794 E64.66502
G1 X49.048 Y112.492 E64.73223
G1 X60.571 Y124.015 E66.23951
G1 X60.571 Y124.917 E66.32289
G1 X49.113 Y113.458 E67.82171
G1 X49.177 Y114.424 E67.91127
G1 X60.571 Y125.818 E69.40163
G1 X60.571 Y126.719 E69.48501
G1 X49.242 Y115.390 E70.96690
G1 X49.307 Y116.356 E71.05646
G1 X60.571 Y127.621 E72.52990
G1 X60.571 Y128.522 E72.61328
G1 X49.372 Y117.322 E74.07825
G1 X49.436 Y118.289 E74.16781
G1 X60.571 Y129.424 E75.62433
G1 X60.571 Y130.325 E75.70770
G1 X49.501 Y119.255 E77.15576
G1 X49.566 Y120.221 E77.24532
G1 X60.571 Y131.227 E78.68491
G1 X60.571 Y132.128 E78.76829
G1 X49.630 Y121.187 E80.19941
G1 X49.695 Y122.153 E80.28898
G1 X60.571 Y133.030 E81.71164
G1 X60.571 Y133.931 E81.79502
G1 X49.760 Y123.119 E83.20923
G1 X49.824 Y124.086 E83.29879
G1 X60.571 Y134.833 E84.70453
G1 X60.571 Y135.734 E84.78791
G1 X49.889 Y125.052 E86.18520
G1 X49.954 Y126.018 E86.27476
G1 X60.571 Y136.636 E87.66358
G1 X60.571 Y137.537 E87.74696
G1 X50.018 Y126.984 E89.12732
G1 X50.083 Y127.950 E89.21688
G1 X60.571 Y138.439 E90.58878
G1 X60.571 Y139.340 E90.67216
G1 X50.148 Y128.916 E92.03560
G1 X50.212 Y129.883 E92.12516
G1 X60.571 Y140.242 E93.48014
G1 X60.571 Y141.143 E93.56352
G1 X50.277 Y130.849 E94.91003
G1 X50.342 Y131.815 E94.99959
G1 X53.378 Y134.851 E95.39679
G1 X52.504 Y134.879 E95.47768
G1 X50.407 Y132.781 E95.75207
G1 X50.471 Y133.747 E95.84164
G1 X51.834 Y135.110 E96.01986
G1 X51.280 Y135.457 E96.08035
G1 X50.536 Y134.713 E96.17765
G1 X50.601 Y135.679 E96.26721
G1 X50.819 Y135.898 E96.29575
G1 F1800.000 E95.29575
G92 E0
G1 X56.056 Y137.529 F7800.000
G1 E1.00000 F1800.000
G1 X60.571 Y142.044 E1.59058 F1080.000
G1 X60.202 Y142.576 E1.65048
G1 X56.025 Y138.400 E2.19674
G1 X55.822 Y139.098 E2.26402
G1 X59.781 Y143.057 E2.78183
G1 X59.170 Y143.348 E2.84439
G1 X55.489 Y139.667 E3.32589
G1 X55.472 Y140.551 E3.40771
G1 X58.444 Y143.523 E3.79641
G1 X57.718 Y143.698 E3.86553
G1 X56.055 Y142.035 E4.08304
G1 X56.033 Y142.915 E4.16448
G1 X56.991 Y143.873 E4.28976
G1 X56.265 Y144.048 E4.35887
G1 X55.816 Y143.600 E4.41752
G1 X55.507 Y144.192 E4.47931
G1 X55.538 Y144.223 E4.48341
G1 F1800.000 E3.48341
G92 E0
G1 X48.941 Y95.256 F7800.000
G1 E1.00000 F1800.000
G1 X49.500 Y95.816 E1.07315 F1080.000
G1 X50.402 Y95.816 E1.15653
G1 X48.959 Y94.373 E1.34518
G1 X48.978 Y93.490 E1.42687
G1 X51.303 Y95.816 E1.73102
G1 X52.204 Y95.816 E1.81440
G1 X48.996 Y92.607 E2.23406
G1 X49.015 Y91.724 E2.31575
G1 X60.571 Y103.281 E3.82742
G1 X60.571 Y102.380 E3.91079
G1 X49.033 Y90.841 E5.42005
G1 X49.051 Y89.958 E5.50174
G1 X60.571 Y101.478 E7.00858
G1 X60.571 Y100.577 E7.09196
G1 X49.070 Y89.075 E8.59640
G1 X49.088 Y88.192 E8.67809
G1 X60.571 Y99.675 E10.18011
G1 X60.571 Y98.774 E10.26349
G1 X49.107 Y87.309 E11.76310
G1 X49.125 Y86.426 E11.84479
G1 X60.571 Y97.872 E13.34199
G1 X60.531 Y96.931 E13.42914
G1 X49.144 Y85.543 E14.91871
G1 X49.162 Y84.660 E15.00040
G1 X60.427 Y95.925 E16.47390
G1 X60.323 Y94.919 E16.56743
G1 X49.180 Y83.777 E18.02486
G1 X49.199 Y82.894 E18.10655
G1 X60.218 Y93.913 E19.54792
G1 X60.114 Y92.908 E19.64145
G1 X49.217 Y82.011 E21.06675
G1 X49.236 Y81.128 E21.14844
G1 X60.010 Y91.902 E22.55768
G1 X59.905 Y90.896 E22.65121
G1 X49.254 Y80.245 E24.04438
G1 X49.273 Y79.362 E24.12607
G1 X59.801 Y89.890 E25.50317
G1 X59.696 Y88.884 E25.59670
G1 X49.291 Y78.479 E26.95774
G1 X49.309 Y77.596 E27.03943
G1 X59.592 Y87.878 E28.38440
G1 X59.488 Y86.872 E28.47793
G1 X49.328 Y76.713 E29.80683
G1 X49.346 Y75.830 E29.88852
G1 X59.383 Y85.866 E31.20136
G1 X59.279 Y84.861 E31.29490
G1 X49.365 Y74.947 E32.59167
G1 X49.383 Y74.064 E32.67336
G1 X59.174 Y83.855 E33.95406
G1 X59.070 Y82.849 E34.04760
G1 X49.402 Y73.180 E35.31223
G1 X49.420 Y72.297 E35.39393
G1 X58.966 Y81.843 E36.64250
G1 X58.861 Y80.837 E36.73603
G1 X49.438 Y71.414 E37.96854
G1 X49.457 Y70.531 E38.05023
G1 X58.757 Y79.831 E39.26667
G1 X58.652 Y78.825 E39.36020
G1 X49.475 Y69.648 E40.56058
G1 X49.494 Y68.765 E40.64227
G1 X58.548 Y77.820 E41.82658
G1 X58.444 Y76.814 E41.92011
G1 X49.512 Y67.882 E43.08835
G1 X49.531 Y66.999 E43.17004
G1 X58.339 Y75.808 E44.32222
G1 X58.235 Y74.802 E44.41575
G1 X49.549 Y66.116 E45.55186
G1 X49.567 Y65.233 E45.63355
G1 X58.130 Y73.796 E46.75360
G1 X58.026 Y72.790 E46.84713
G1 X53.173 Y67.937 E47.48192
G1 X51.799 Y66.564 F7800.000
G1 X49.586 Y64.350 E47.77144 F1080.000
G1 X49.604 Y63.467 E47.85313
G1 X51.461 Y65.324 E48.09596
G1 X51.536 Y64.497 E48.17272
G1 X49.623 Y62.584 E48.42295
G1 X49.641 Y61.701 E48.50464
G1 X51.767 Y63.827 E48.78275
G1 X52.116 Y63.274 E48.84320
