; generated by Slic3r 1.1.7 on 2014-11-16 at 11:39:38

; perimeters extrusion width = 0.40mm
; infill extrusion width = 0.42mm
; solid infill extrusion width = 0.42mm
; top infill extrusion width = 0.42mm

G21 ; set units to millimeters
M107
M190 S50 ; wait for bed temperature to be reached
M104 S240 ; set temperature
G28 ; home all axes

M109 S240 ; wait for temperature to be reached
G90 ; use absolute coordinates
G92 E0
M82 ; use absolute distances for extrusion
G1 F1800.000 E-1.00000
G92 E0
G1 Z0.400 F7800.000
G1 X80.027 Y78.430 F7800.000
G1 E1.00000 F1800.000
G1 X80.922 Y77.537 E1.15021 F1080.000
G1 X81.850 Y76.772 E1.29309
G1 X82.960 Y76.031 E1.45156
G1 X84.016 Y75.468 E1.59365
G1 X85.216 Y74.970 E1.74804
G1 X86.407 Y74.612 E1.89567
G1 X87.647 Y74.367 E2.04584
G1 X88.251 Y74.307 E2.11788
G1 X89.559 Y74.216 E2.27363
G1 X110.726 Y74.420 E4.78758
G1 X111.918 Y74.539 E4.92995 F1080.000
G1 X113.208 Y74.797 E5.08613
G1 X114.349 Y75.145 E5.22775
G1 X115.552 Y75.644 E5.38251
G1 X116.604 Y76.205 E5.52412
G1 X117.705 Y76.940 E5.68129
G1 X118.625 Y77.695 E5.82263
G1 X119.544 Y78.613 E5.97697
G1 X120.312 Y79.546 E6.12041
G1 X121.045 Y80.643 E6.27711
G1 X121.625 Y81.741 E6.42463
G1 X122.092 Y82.872 E6.56996
G1 X122.448 Y84.028 E6.71361
G1 X122.711 Y85.337 E6.87223
G1 X122.857 Y86.952 E7.06473
G1 X123.619 Y109.459 E9.73934
G1 X122.671 Y134.292 E12.69082
G1 X122.334 Y136.671 E12.97614
G1 X121.920 Y138.058 E13.14802
G1 X121.410 Y139.280 E13.30532
G1 X120.183 Y141.352 E13.59128
G1 X119.299 Y142.440 E13.75787
G1 X118.362 Y143.377 E13.91516
G1 X117.390 Y144.173 E14.06447
G1 X116.299 Y144.901 E14.22015
G1 X115.189 Y145.494 E14.36962
G1 X113.978 Y145.996 E14.52535
G1 X112.770 Y146.363 E14.67529
G1 X111.470 Y146.622 E14.83275
G1 X109.544 Y146.776 E15.06224
G1 X89.022 Y146.668 E17.49955
G1 X87.767 Y146.543 E17.64930
G1 X86.483 Y146.288 E17.80475
G1 X84.275 Y145.529 E18.08202
G1 X83.013 Y144.890 E18.25009
G1 X81.710 Y144.022 E18.43602
G1 X81.394 Y143.752 E18.48540
G1 X79.948 Y142.373 E18.72275
G1 X79.145 Y141.399 E18.87265
G1 X78.407 Y140.296 E19.03024
G1 X77.804 Y139.163 E19.18270
G1 X77.310 Y137.966 E19.33647
G1 X76.936 Y136.729 E19.49000
G1 X76.689 Y135.483 E19.64082
G1 X76.561 Y134.204 E19.79348
G1 X76.531 Y133.528 E19.87380
G1 X76.728 Y86.366 E25.47511
G1 X76.846 Y85.175 E25.61721
G1 X77.099 Y83.899 E25.77176
G1 X77.444 Y82.755 E25.91359
G1 X77.937 Y81.556 E26.06759
G1 X78.529 Y80.446 E26.21703
G1 X79.235 Y79.394 E26.36749
G1 X79.988 Y78.477 E26.50847
G1 F1800.000 E25.50847
G92 E0
G1 X112.493 Y137.450 F7800.000
G1 E1.00000 F1800.000
G1 X111.016 Y137.674 E1.17744 F378.000
G1 X109.569 Y138.760 E1.39225
G1 X108.122 Y137.674 E1.60711
G1 X106.643 Y137.451 E1.78472
G1 X106.643 Y129.595 E2.71771
G1 X108.241 Y129.353 E2.90965
G1 X109.569 Y129.289 E3.06758
G1 X110.898 Y129.353 E3.22556
G1 X112.493 Y129.593 E3.41715
G1 X112.493 Y137.390 E4.34315
G1 X112.533 Y137.848 F7800.000
G1 X113.207 Y137.523 F7800.000
G1 X113.207 Y129.768 E5.26424 F540.000
G1 X113.973 Y130.704 E5.40784
G1 X114.465 Y131.618 E5.53113
G1 X114.762 Y132.611 E5.65433
G1 X114.869 Y133.642 E5.77738
G1 X114.761 Y134.681 E5.90143
G1 X114.466 Y135.664 E6.02332
G1 X113.967 Y136.592 E6.14844
G1 X113.245 Y137.477 E6.28409
G1 F1800.000 E5.28409
G92 E0
G1 X105.929 Y137.520 F7800.000
G1 E1.00000 F1800.000
G1 X105.164 Y136.588 E1.14326 F540.000
G1 X104.673 Y135.668 E1.26713
G1 X104.370 Y134.678 E1.39004
G1 X104.269 Y133.638 E1.51412
G1 X104.369 Y132.614 E1.63634
G1 X104.673 Y131.617 E1.76014
G1 X105.165 Y130.695 E1.88432
G1 X105.929 Y129.760 E2.02763
G1 X105.929 Y137.460 E2.94217
G1 X105.496 Y138.050 F7800.000
G1 X105.310 Y137.898 E2.97069 F378.000
G1 X104.565 Y136.984 E3.11063
G1 X104.010 Y135.943 E3.25078
G1 X103.665 Y134.816 E3.39080
G1 X103.552 Y133.645 E3.53046
G1 X103.567 Y133.450 E3.55366
G1 X103.666 Y132.467 E3.67101
G1 X104.010 Y131.342 E3.81081
G1 X104.565 Y130.302 E3.95077
G1 X105.307 Y129.393 E4.09012
G1 X106.243 Y128.630 E4.23360
G1 X107.261 Y128.093 E4.37025
G1 X108.397 Y127.751 E4.51119
G1 X109.569 Y127.636 E4.65100
G1 X110.507 Y127.727 E4.76294
G1 X110.737 Y127.750 E4.79042 F378.000
G1 X111.870 Y128.092 E4.93092
G1 X112.916 Y128.644 E5.07134
G1 X113.824 Y129.388 E5.21078
G1 X114.565 Y130.300 E5.35032
G1 X115.128 Y131.342 E5.49102
G1 X115.465 Y132.467 E5.63052
G1 X115.490 Y132.665 E5.65424
G1 X115.586 Y133.643 E5.77087
G1 X115.465 Y134.816 E5.91102
G1 X115.128 Y135.942 E6.05052
G1 X114.566 Y136.985 E6.19131
G1 X113.824 Y137.898 E6.33104
G1 X112.912 Y138.645 E6.47102
G1 X111.871 Y139.201 E6.61120
G1 X110.737 Y139.546 E6.75195
G1 X109.568 Y139.660 E6.89139
G1 X108.397 Y139.546 E7.03120
G1 X107.267 Y139.201 E7.17151
G1 X106.226 Y138.644 E7.31171
G1 X105.542 Y138.088 E7.41640
G1 F1800.000 E6.41640
G92 E0
G1 X110.682 Y127.879 F7800.000
G1 X111.372 Y128.316 F7800.000
G1 E1.00000 F1800.000
G1 X111.642 Y128.762 E1.03471 F360.000
G1 X112.620 Y129.083 E1.10317
G1 X113.907 Y132.188 F7800.000
G1 X113.992 Y132.776 E1.21330 F360.000
G1 X114.036 Y133.642 E1.37378
G1 X113.989 Y134.540 E1.54045
G1 X113.905 Y135.111 E1.64751
G1 F1800.000 E0.64751
G92 E0
G1 X113.393 Y129.811 F7800.000
G1 X117.721 Y131.635 F7800.000
G1 X110.743 Y125.338 F7800.000
G1 X110.448 Y128.324 F7800.000
G1 X111.312 Y128.664 F7800.000
G1 E1.00000 F1800.000
G1 X110.579 Y128.537 E1.13775 F360.000
G1 X109.569 Y128.464 E1.32537
G1 X108.553 Y128.538 E1.51406
G1 X107.820 Y128.664 E1.65199
G1 X107.710 Y128.331 F7800.000
G1 X107.489 Y128.760 E1.68412 F360.000
G1 X106.494 Y129.089 E1.75382
G1 X105.230 Y132.186 F7800.000
G1 X105.143 Y132.775 E1.86425 F360.000
G1 X105.100 Y133.630 E2.02278
G1 X105.144 Y134.527 E2.18912
G1 X105.231 Y135.106 E2.29770
G1 F1800.000 E1.29770
G92 E0
G1 X91.635 Y137.195 F7800.000
G1 E1.00000 F1800.000
G1 X90.717 Y137.348 E1.11059 F378.000
G1 X89.674 Y137.410 E1.23465
G1 X88.644 Y137.348 E1.35722
G1 X88.141 Y137.269 E1.41761
G1 X88.073 Y137.208 E1.42851
G1 X87.735 Y137.024 E1.47419
G1 X87.735 Y130.288 E2.27420
G1 X88.480 Y129.357 E2.41576
G1 X89.650 Y128.860 E2.56677
G1 X91.002 Y129.373 E2.73846
G1 X91.635 Y130.331 E2.87483
G1 X91.635 Y137.135 E3.68292
G1 X91.679 Y137.592 F7800.000
G1 F1800.000 E2.68292
G92 E0
G1 X86.307 Y136.037 F7800.000
G1 E1.00000 F1800.000
G1 X85.873 Y136.145 E1.05306 F540.000
G1 X85.432 Y135.312 E1.16493
G1 X85.171 Y134.451 E1.27189
G1 X85.081 Y133.564 E1.37772
G1 X85.168 Y132.661 E1.48542
G1 X85.428 Y131.797 E1.59264
G1 X85.874 Y130.962 E1.70501
G1 X86.307 Y131.071 E1.75798
G1 X86.307 Y135.977 E2.34070
G1 X87.021 Y137.447 F7800.000
G1 X87.661 Y137.797 E2.42728 F540.000
G1 X87.825 Y137.942 E2.45333
G1 X88.570 Y138.060 E2.54287
G1 X89.672 Y138.125 E2.67397
G1 X90.794 Y138.059 E2.80753
G1 X91.711 Y137.906 E2.91790
G1 X91.833 Y138.427 E2.98151
G1 X90.725 Y138.763 E3.11908
G1 X89.685 Y138.867 E3.24319
G1 X88.650 Y138.764 E3.36673
G1 X87.678 Y138.482 E3.48689
G1 X86.679 Y137.972 E3.62008
G1 X85.924 Y137.315 E3.73899
G1 X85.249 Y136.490 E3.86558
G1 X84.769 Y135.585 E3.98717
G1 X84.467 Y134.591 E4.11064
G1 X84.363 Y133.566 E4.23300
G1 X84.464 Y132.522 E4.35754
G1 X84.765 Y131.523 E4.48143
G1 X85.266 Y130.586 E4.60766
G1 X85.922 Y129.788 E4.73034
G1 X86.713 Y129.131 E4.85241
G1 X87.491 Y128.719 E4.95703
G1 X87.789 Y129.077 E5.01240
G1 X87.021 Y130.037 E5.15841
G1 X87.021 Y137.387 E6.03136
G1 F1800.000 E5.03136
G92 E0
G1 X93.063 Y136.023 F7800.000
G1 E1.00000 F1800.000
G1 X93.063 Y131.073 E1.58794 F540.000
G1 X93.496 Y130.964 E1.64091
G1 X93.938 Y131.793 E1.75248
G1 X93.985 Y131.947 E1.77153
G1 X94.199 Y132.662 E1.86023
G1 X94.286 Y133.546 E1.96573
G1 X94.200 Y134.438 E2.07213
G1 X93.934 Y135.317 E2.18120
G1 X93.495 Y136.132 E2.29117
G1 X93.122 Y136.038 E2.33688
G1 X92.349 Y138.190 F7800.000
G1 X92.349 Y130.116 E3.29584 F540.000
G1 X91.700 Y129.135 E3.43555
G1 X92.010 Y128.805 E3.48922
G1 X92.571 Y129.128 E3.56609
G1 X93.441 Y129.784 E3.69553
G1 X94.112 Y130.602 E3.82113
G1 X94.601 Y131.518 E3.94448
G1 X94.669 Y131.740 E3.97206
G1 X94.903 Y132.525 E4.06934
G1 X95.003 Y133.546 E4.19116
G1 X94.905 Y134.578 E4.31434
G1 X94.597 Y135.592 E4.44011
G1 X94.095 Y136.523 E4.56578
G1 X93.461 Y137.294 E4.68439
G1 X92.396 Y138.152 E4.84682
G1 X92.677 Y138.755 F7800.000
G1 X91.989 Y139.125 E4.93968 F378.000
G1 X90.863 Y139.467 E5.07946
G1 X89.685 Y139.585 E5.22001
G1 X88.509 Y139.468 E5.36035
G1 X87.367 Y139.122 E5.50207
G1 X86.282 Y138.571 E5.64661
G1 X85.415 Y137.820 E5.78279
G1 X84.659 Y136.901 E5.92417
G1 X84.106 Y135.862 E6.06397
G1 X83.763 Y134.729 E6.20457
G1 X83.646 Y133.556 E6.34453
G1 X83.762 Y132.376 E6.48533
G1 X84.105 Y131.242 E6.62600
G1 X84.664 Y130.193 E6.76719
G1 X85.352 Y129.356 E6.89586
G1 X85.414 Y129.282 E6.90739
G1 X86.335 Y128.518 E7.04949
G1 X87.372 Y127.972 E7.18868
G1 X88.505 Y127.629 E7.32925
G1 X89.688 Y127.514 E7.47041
G1 X89.775 Y127.521 E7.48082
G1 X90.861 Y127.630 E7.61036 F378.000
G1 X91.993 Y127.972 E7.75087
G1 X92.964 Y128.530 E7.88396
G1 X93.887 Y129.225 E8.02111
G1 X93.952 Y129.280 E8.03125
G1 X94.706 Y130.198 E8.17227
G1 X95.263 Y131.241 E8.31272
G1 X95.606 Y132.377 E8.45362
G1 X95.720 Y133.550 E8.59365
G1 X95.617 Y134.634 E8.72299
G1 X95.607 Y134.725 E8.73380
G1 X95.262 Y135.863 E8.87508
G1 X94.701 Y136.911 E9.01619
G1 X93.959 Y137.813 E9.15492
G1 X93.111 Y138.489 E9.28371
G1 X92.729 Y138.725 E9.33703
G1 F1800.000 E8.33703
G92 E0
G1 X90.128 Y127.709 F7800.000
G1 X93.592 Y132.475 F7800.000
G1 E1.00000 F1800.000
G1 X93.635 Y132.772 E1.02000 F360.000
G1 X93.673 Y133.547 E1.07159
G1 X93.636 Y134.326 E1.12347
G1 X93.591 Y134.628 E1.14374
G1 F1800.000 E0.14374
G92 E0
G1 X85.779 Y134.637 F7800.000
G1 E1.00000 F1800.000
G1 X85.735 Y134.338 E1.02011 F360.000
G1 X85.695 Y133.563 E1.07177
G1 X85.733 Y132.773 E1.12433
G1 X85.779 Y132.466 E1.14500
G1 F1800.000 E0.14500
G92 E0
G1 X94.743 Y114.198 F7800.000
G1 E1.00000 F1800.000
G1 X94.038 Y114.602 E1.09651 F378.000
G1 X93.506 Y114.800 E1.16395
G1 X92.132 Y115.105 E1.33108
G1 X90.712 Y115.203 E1.50012
G1 X89.303 Y115.105 E1.66785
G1 X87.940 Y114.804 E1.83362
G1 X87.148 Y114.508 E1.93406
G1 X86.693 Y114.159 E2.00217
G1 X86.693 Y106.429 E2.92019
G1 X87.119 Y106.103 E2.98395
G1 X87.941 Y105.782 E3.08870
G1 X89.302 Y105.490 E3.25406
G1 X90.712 Y105.388 E3.42199
G1 X92.132 Y105.490 E3.59104
G1 X93.489 Y105.782 E3.75584
G1 X94.054 Y106.000 E3.82781
G1 X94.743 Y106.395 E3.92213
G1 X94.743 Y114.138 E4.84174
G1 X94.879 Y114.574 F7800.000
G1 F1800.000 E3.84174
G92 E0
G1 X85.979 Y113.238 F7800.000
G1 E1.00000 F1800.000
G1 X85.546 Y113.347 E1.05297 F540.000
G1 X84.948 Y112.226 E1.20380
G1 X84.592 Y111.059 E1.34871
G1 X84.475 Y109.842 E1.49397
G1 X84.592 Y108.624 E1.63924
G1 X84.949 Y107.451 E1.78486
G1 X85.546 Y106.332 E1.93555
G1 X85.979 Y106.440 E1.98854
G1 X85.979 Y113.178 E2.78887
G1 F1800.000 E1.78887
G92 E0
G1 X89.593 Y104.752 F7800.000
G1 E1.00000 F1800.000
G1 X89.544 Y104.191 E1.06695 F540.000
G1 X90.713 Y104.073 E1.20645
G1 X91.861 Y104.188 E1.34351
G1 X91.813 Y104.750 E1.41048
G1 X90.711 Y104.672 E1.54163
G1 X89.653 Y104.748 E1.66760
G1 X95.457 Y106.445 F7800.000
G1 X95.890 Y106.337 E1.72061 F540.000
G1 X96.483 Y107.451 E1.87045
G1 X96.841 Y108.623 E2.01594
G1 X96.958 Y109.842 E2.16139
G1 X96.841 Y111.059 E2.30658
G1 X96.483 Y112.228 E2.45187
G1 X95.889 Y113.337 E2.60118
G1 X95.457 Y113.228 E2.65412
G1 X95.457 Y106.505 E3.45255
G1 X93.935 Y104.060 F7800.000
G1 X93.935 Y103.782 E3.48552 F378.000
G1 X95.652 Y104.931 E3.73086
G1 X96.502 Y105.968 E3.89006
G1 X97.146 Y107.177 E4.05278
G1 X97.545 Y108.483 E4.21492
G1 X97.676 Y109.842 E4.37710
G1 X97.545 Y111.199 E4.53900
G1 X97.146 Y112.503 E4.70097
G1 X96.502 Y113.705 E4.86290
G1 X95.652 Y114.744 E5.02241
G1 X93.363 Y116.277 E5.34955
G1 X92.074 Y116.668 E5.50951
G1 X90.714 Y116.799 E5.67183
G1 X89.356 Y116.668 E5.83381
G1 X88.069 Y116.276 E5.99360
G1 X85.784 Y114.744 E6.32032
G1 X84.928 Y113.704 E6.48032
G1 X84.286 Y112.502 E6.64219
G1 X83.888 Y111.199 E6.80398
G1 X83.758 Y109.842 E6.96590
G1 X83.888 Y108.483 E7.12800
G1 X84.286 Y107.177 E7.29017
G1 X84.928 Y105.973 E7.45222
G1 X85.803 Y104.904 E7.61628
G1 X87.496 Y103.775 E7.85799
G1 X87.496 Y104.060 E7.89185
G1 X89.356 Y103.491 E8.12284
G1 X90.713 Y103.355 E8.28477
G1 X92.074 Y103.491 E8.44719
G1 X93.878 Y104.042 E8.67123
G1 X94.212 Y104.087 F7800.000
G1 X92.191 Y104.526 F7800.000
G1 X93.702 Y104.918 E8.96056 F360.000
G1 X94.306 Y105.121 E9.07858
G1 X95.064 Y105.580 E9.24277
G1 X95.608 Y106.040 E9.37471
G1 X95.985 Y107.626 F7800.000
G1 X96.154 Y108.759 E9.45094 F360.000
G1 X96.206 Y109.842 E9.52302
G1 X96.154 Y110.922 E9.59496
G1 X95.985 Y112.054 E9.67111
G1 X94.096 Y115.149 F7800.000
G1 X93.674 Y115.365 E9.70265 F360.000
G1 X93.057 Y115.629 E9.74727
G1 X92.502 Y115.773 E9.78542
G1 X92.506 Y115.793 F7800.000
G1 X91.922 Y115.901 E9.89545 F360.000
G1 X90.715 Y116.000 E10.11985
G1 X89.508 Y115.899 E10.34414
G1 X88.924 Y115.794 E10.45425
G1 X88.927 Y115.774 F7800.000
G1 X88.376 Y115.629 E10.49219 F360.000
G1 X87.786 Y115.376 E10.53487
G1 X87.351 Y115.154 E10.56737
G1 X85.451 Y112.067 F7800.000
G1 X85.281 Y110.923 E10.64436 F360.000
G1 X85.229 Y109.842 E10.71635
G1 X85.281 Y108.761 E10.78835
G1 X85.451 Y107.614 E10.86546
G1 X85.888 Y106.049 F7800.000
G1 X86.396 Y105.558 E10.99627 F360.000
G1 X86.712 Y105.338 E11.06767
G1 X87.102 Y105.130 E11.14946
G1 X87.726 Y104.919 E11.27166
G1 X89.216 Y104.532 E11.55675
G1 F1800.000 E10.55675
G92 E0
G1 X105.411 Y104.844 F7800.000
G1 E1.00000 F1800.000
G1 X106.001 Y104.538 E1.07903 F378.000
G1 X106.766 Y104.245 E1.17627
G1 X108.143 Y103.946 E1.34365
G1 X109.556 Y103.844 E1.51190
G1 X110.967 Y103.946 E1.67993
G1 X112.331 Y104.242 E1.84566
G1 X112.853 Y104.436 E1.91185
G1 X113.627 Y104.848 E2.01601
G1 X113.627 Y112.687 E2.94705
G1 X112.849 Y113.100 E3.05165
G1 X112.328 Y113.297 E3.11782
G1 X110.969 Y113.590 E3.28302
G1 X109.554 Y113.693 E3.45143
G1 X108.142 Y113.590 E3.61960
G1 X106.782 Y113.297 E3.78486
G1 X106.026 Y113.005 E3.88109
G1 X105.411 Y112.692 E3.96308
G1 X105.411 Y104.904 E4.88800
G1 X105.285 Y104.465 F7800.000
G1 F1800.000 E3.88800
G92 E0
G1 X114.342 Y105.920 F7800.000
G1 E1.00000 F1800.000
G1 X114.774 Y105.811 E1.05290 F540.000
G1 X115.313 Y106.816 E1.18840
G1 X115.665 Y107.988 E1.33366
G1 X115.789 Y109.206 E1.47908
G1 X115.666 Y110.422 E1.62423
G1 X115.313 Y111.590 E1.76913
G1 X114.774 Y112.596 E1.90475
G1 X114.342 Y112.488 E1.95767
G1 X114.342 Y105.980 E2.73057
G1 F1800.000 E1.73057
G92 E0
G1 X114.832 Y105.678 F7800.000
G1 X117.868 Y104.992 F7800.000
G1 X117.268 Y114.490 F7800.000
G1 X110.315 Y118.013 F7800.000
G1 X102.729 Y115.569 F7800.000
G1 X104.053 Y112.304 F7800.000
G1 X104.696 Y106.057 F7800.000
G1 E1.00000 F1800.000
G1 X104.696 Y112.349 E1.74721 F540.000
G1 X104.263 Y112.457 E1.80025
G1 X103.801 Y111.585 E1.91743
G1 X103.445 Y110.420 E2.06211
G1 X103.328 Y109.207 E2.20689
G1 X103.445 Y107.988 E2.35227
G1 X103.800 Y106.817 E2.49756
G1 X104.264 Y105.949 E2.61448
G1 X104.638 Y106.043 E2.66033
G1 F1800.000 E1.66033
G92 E0
G1 X106.343 Y114.978 F7800.000
G1 E1.00000 F1800.000
G1 X106.343 Y115.403 E1.05047 F378.000
G1 X104.639 Y114.113 E1.30438
G1 X103.778 Y113.065 E1.46541
G1 X103.138 Y111.859 E1.62762
G1 X102.741 Y110.560 E1.78888
G1 X102.610 Y109.206 E1.95043
G1 X102.741 Y107.849 E2.11236
G1 X103.137 Y106.542 E2.27454
G1 X103.778 Y105.342 E2.43618
G1 X104.628 Y104.310 E2.59488
G1 X106.915 Y102.779 E2.92182
G1 X108.201 Y102.391 E3.08128
G1 X109.558 Y102.257 E3.24321
G1 X110.910 Y102.391 E3.40463
G1 X112.168 Y102.770 E3.56070
G1 X113.003 Y103.270 E3.67627
G1 X114.480 Y104.304 E3.89039
G1 X115.333 Y105.343 E4.05000
G1 X115.977 Y106.542 E4.21165
G1 X116.369 Y107.849 E4.37372
G1 X116.507 Y109.206 E4.53574
G1 X116.369 Y110.561 E4.69751
G1 X115.977 Y111.864 E4.85915
G1 X115.333 Y113.066 E5.02103
G1 X114.479 Y114.108 E5.18097
G1 X112.769 Y115.318 E5.42987
G1 X112.769 Y114.978 E5.47027
G1 X110.910 Y115.544 E5.70104
G1 X109.557 Y115.675 E5.86249
G1 X108.200 Y115.539 E6.02445
G1 X106.400 Y114.996 E6.24770
G1 X105.945 Y114.939 F7800.000
G1 X104.169 Y110.985 F7800.000
G1 X104.066 Y110.296 E6.29401 F360.000
G1 X104.014 Y109.207 E6.36659
G1 X104.066 Y108.111 E6.43956
