; generated by Slic3r 1.1.7 on 2014-11-17 at 18:47:24

; perimeters extrusion width = 0.40mm
; infill extrusion width = 0.42mm
; solid infill extrusion width = 0.42mm
; top infill extrusion width = 0.42mm

G21 ; set units to millimeters
M107
G28 ; home all axes

G90 ; use absolute coordinates
G92 E0
M82 ; use absolute distances for extrusion
G1 F1800.000 E-1.00000
G92 E0
G1 Z0.400 F7800.000
G1 X74.080 Y90.266 F7800.000
G1 E1.00000 F1800.000
G1 X74.584 Y89.852 E1.07755 F1080.000
G1 X75.678 Y89.121 E1.23376
G1 X76.889 Y88.474 E1.39682
G1 X78.104 Y87.970 E1.55307
G1 X79.418 Y87.572 E1.71604
G1 X80.708 Y87.315 E1.87236
G1 X82.061 Y87.182 E2.03372
G1 X82.732 Y87.148 E2.11358
G1 X117.926 Y87.181 E6.29338
G1 X119.292 Y87.315 E6.45636 F1080.000
G1 X120.583 Y87.572 E6.61268
G1 X121.897 Y87.971 E6.77577
G1 X123.112 Y88.474 E6.93198
G1 X124.324 Y89.122 E7.09519
G1 X125.416 Y89.852 E7.25128
G1 X126.477 Y90.723 E7.41427
G1 X127.408 Y91.653 E7.57056
G1 X128.279 Y92.715 E7.73370
G1 X129.010 Y93.809 E7.88986
G1 X129.656 Y95.019 E8.05284
G1 X130.160 Y96.235 E8.20915
G1 X130.559 Y97.549 E8.37229
G1 X130.815 Y98.839 E8.52845
G1 X130.949 Y100.194 E8.69019
G1 X130.977 Y101.133 E8.80170
G1 X130.156 Y121.238 E11.19146
G1 X130.049 Y122.322 E11.32086
G1 X129.792 Y123.613 E11.47717
G1 X129.476 Y124.655 E11.60657
G1 X128.972 Y125.871 E11.76289
G1 X128.459 Y126.832 E11.89229
G1 X127.727 Y127.927 E12.04862
G1 X127.036 Y128.769 E12.17802
G1 X126.106 Y129.700 E12.33434
G1 X125.263 Y130.391 E12.46375
G1 X124.169 Y131.122 E12.62006
G1 X123.208 Y131.636 E12.74946
G1 X121.992 Y132.139 E12.90578
G1 X120.949 Y132.456 E13.03518
G1 X119.658 Y132.713 E13.19151
G1 X117.916 Y132.852 E13.39910
G1 X81.281 Y132.819 E17.75005
G1 X80.197 Y132.713 E17.87945
G1 X78.906 Y132.456 E18.03574
G1 X77.863 Y132.139 E18.16517
G1 X76.647 Y131.636 E18.32147
G1 X75.686 Y131.122 E18.45089
G1 X74.592 Y130.391 E18.60722
G1 X73.750 Y129.700 E18.73663
G1 X72.819 Y128.769 E18.89292
G1 X72.128 Y127.927 E19.02233
G1 X71.397 Y126.832 E19.17865
G1 X70.883 Y125.872 E19.30805
G1 X70.379 Y124.655 E19.46438
G1 X70.063 Y123.613 E19.59378
G1 X69.806 Y122.322 E19.75006
G1 X69.671 Y120.800 E19.93152
G1 X69.050 Y100.204 E22.37870
G1 X69.185 Y98.839 E22.54168
G1 X69.442 Y97.548 E22.69801
G1 X69.841 Y96.233 E22.86125
G1 X70.344 Y95.019 E23.01730
G1 X70.991 Y93.808 E23.18028
G1 X71.722 Y92.714 E23.33658
G1 X72.592 Y91.653 E23.49955
G1 X73.523 Y90.723 E23.65588
G1 X74.033 Y90.304 E23.73429
G1 F1800.000 E22.73429
G92 E0
G1 X121.059 Y122.462 F7800.000
G1 E1.00000 F1800.000
G1 X117.799 Y124.344 E1.44696 F378.000
G1 X114.540 Y122.462 E1.89392
G1 X114.540 Y118.699 E2.34088
G1 X117.799 Y116.817 E2.78784
G1 X121.059 Y118.699 E3.23480
G1 X121.059 Y122.402 E3.67463
G1 X121.195 Y122.838 F7800.000
G1 X121.773 Y120.943 F7800.000
G1 X121.773 Y120.216 E3.76101 F540.000
G1 X122.316 Y120.189 E3.82561
G1 X122.355 Y120.579 E3.87220
G1 X122.316 Y120.970 E3.91879
G1 X121.833 Y120.946 E3.97626
G1 X123.024 Y121.066 F7800.000
G1 X122.973 Y121.585 E4.03819 F378.000
G1 X122.680 Y122.553 E4.15824
G1 X122.203 Y123.444 E4.27828
G1 X121.562 Y124.225 E4.39833
G1 X120.781 Y124.867 E4.51837
G1 X119.889 Y125.343 E4.63842
G1 X118.922 Y125.636 E4.75847
G1 X117.916 Y125.736 E4.87851
G1 X116.910 Y125.636 E4.99855
G1 X115.943 Y125.343 E5.11860
G1 X115.051 Y124.867 E5.23865
G1 X114.270 Y124.225 E5.35869
G1 X113.629 Y123.444 E5.47874
G1 X113.152 Y122.553 E5.59878
G1 X112.859 Y121.585 E5.71883
G1 X112.760 Y120.579 E5.83887
G1 X112.859 Y119.574 E5.95891
G1 X113.152 Y118.606 E6.07896
G1 X113.629 Y117.715 E6.19901
G1 X114.270 Y116.934 E6.31905
G1 X115.051 Y116.292 E6.43910
G1 X115.943 Y115.816 E6.55914
G1 X116.910 Y115.522 E6.67919
G1 X117.916 Y115.423 E6.79923
G1 X118.922 Y115.522 E6.91928
G1 X119.889 Y115.816 E7.03932 F378.000
G1 X120.781 Y116.292 E7.15937
G1 X121.562 Y116.934 E7.27941
G1 X122.203 Y117.715 E7.39946
G1 X122.680 Y118.606 E7.51950
G1 X122.973 Y119.574 E7.63955
G1 X123.072 Y120.579 E7.75959
G1 X123.030 Y121.007 E7.81058
G1 X119.275 Y115.711 F7800.000
G1 X122.035 Y121.314 F7800.000
G1 X121.899 Y122.229 E7.98213 F360.000
G1 X121.789 Y122.668 E8.06598
G1 X121.718 Y122.849 E8.10195
G1 X121.658 Y122.955 E8.12452
G1 X121.608 Y123.001 E8.13712
G1 X120.921 Y123.584 E8.30409
G1 X120.239 Y124.056 E8.45771
G1 X119.521 Y124.455 E8.60984
G1 X118.753 Y124.788 E8.76496
G1 X117.903 Y125.061 E8.93047
G1 X117.648 Y125.033 F7800.000
G1 X117.067 Y124.847 E9.04354 F360.000
G1 X116.288 Y124.509 E9.20084
G1 X115.561 Y124.105 E9.35510
G1 X114.869 Y123.626 E9.51086
G1 X114.197 Y123.055 E9.67433
G1 X113.842 Y122.420 F7800.000
G1 X113.693 Y121.419 E9.86170 F360.000
G1 X113.652 Y120.579 E10.01751
G1 X113.693 Y119.740 E10.17332
G1 X113.842 Y118.739 E10.36069
G1 X114.193 Y118.108 F7800.000
G1 X114.870 Y117.533 E10.52514 F360.000
G1 X115.561 Y117.055 E10.68087
G1 X116.289 Y116.651 E10.83510
G1 X117.067 Y116.313 E10.99235
G1 X117.653 Y116.125 E11.10627
G1 X117.898 Y116.097 F7800.000
G1 X118.753 Y116.372 E11.27262 F360.000
G1 X119.521 Y116.705 E11.42771
G1 X120.238 Y117.104 E11.57980
G1 X120.920 Y117.575 E11.73339
G1 X121.608 Y118.159 E11.90061
G1 X121.659 Y118.207 E11.91360
G1 X121.720 Y118.315 E11.93656
G1 X121.790 Y118.493 E11.97189
G1 X121.899 Y118.930 E12.05533
G1 X122.035 Y119.845 E12.22688
G1 F1800.000 E11.22688
G92 E0
G1 X102.723 Y122.159 F7800.000
G1 E1.00000 F1800.000
G1 X99.464 Y124.041 E1.44696 F378.000
G1 X96.205 Y122.159 E1.89392
G1 X96.205 Y118.396 E2.34088
G1 X99.464 Y116.514 E2.78784
G1 X102.723 Y118.396 E3.23480
G1 X102.723 Y122.099 E3.67463
G1 X102.860 Y122.535 F7800.000
G1 X103.437 Y120.640 F7800.000
G1 X103.437 Y119.913 E3.76102 F540.000
G1 X103.980 Y119.886 E3.82562
G1 X104.019 Y120.277 E3.87221
G1 X103.980 Y120.667 E3.91880
G1 X103.497 Y120.643 E3.97628
G1 X104.688 Y120.764 F7800.000
G1 X104.637 Y121.283 E4.03821 F378.000
G1 X104.344 Y122.250 E4.15825
G1 X103.867 Y123.141 E4.27830
G1 X103.226 Y123.923 E4.39834
G1 X102.445 Y124.564 E4.51839
G1 X101.553 Y125.040 E4.63843
G1 X100.586 Y125.334 E4.75848
G1 X99.580 Y125.433 E4.87852
G1 X98.574 Y125.334 E4.99856
G1 X97.607 Y125.040 E5.11861
G1 X96.716 Y124.564 E5.23866
G1 X95.934 Y123.923 E5.35870
G1 X95.293 Y123.141 E5.47875
G1 X94.817 Y122.250 E5.59879
G1 X94.523 Y121.283 E5.71883
G1 X94.424 Y120.277 E5.83888
G1 X94.523 Y119.271 E5.95893
G1 X94.817 Y118.304 E6.07897
G1 X95.293 Y117.412 E6.19902
G1 X95.934 Y116.631 E6.31906
G1 X96.716 Y115.990 E6.43911
G1 X97.607 Y115.513 E6.55915
G1 X98.574 Y115.220 E6.67920
G1 X99.580 Y115.121 E6.79924
G1 X100.586 Y115.220 E6.91929
G1 X101.553 Y115.513 E7.03933 F378.000
G1 X102.445 Y115.990 E7.15938
G1 X103.226 Y116.631 E7.27942
G1 X103.867 Y117.412 E7.39947
G1 X104.344 Y118.303 E7.51951
G1 X104.637 Y119.271 E7.63956
G1 X104.736 Y120.277 E7.75960
G1 X104.694 Y120.704 E7.81059
G1 X100.939 Y115.408 F7800.000
G1 X103.699 Y121.011 F7800.000
G1 X103.564 Y121.927 E7.98213 F360.000
G1 X103.454 Y122.366 E8.06599
G1 X103.382 Y122.546 E8.10195
G1 X103.322 Y122.652 E8.12453
G1 X103.272 Y122.698 E8.13713
G1 X102.585 Y123.281 E8.30410
G1 X101.903 Y123.753 E8.45772
G1 X101.186 Y124.152 E8.60985
G1 X100.417 Y124.485 E8.76498
G1 X99.567 Y124.758 E8.93048
G1 X99.313 Y124.731 F7800.000
G1 X98.732 Y124.544 E9.04355 F360.000
G1 X97.953 Y124.206 E9.20084
G1 X97.225 Y123.802 E9.35510
G1 X96.534 Y123.323 E9.51086
G1 X95.861 Y122.753 E9.67432
G1 X95.506 Y122.117 F7800.000
G1 X95.358 Y121.117 E9.86168 F360.000
G1 X95.317 Y120.277 E10.01750
G1 X95.358 Y119.437 E10.17332
G1 X95.506 Y118.436 E10.36068
G1 X95.858 Y117.805 F7800.000
G1 X96.534 Y117.231 E10.52512 F360.000
G1 X97.225 Y116.752 E10.68086
G1 X97.953 Y116.348 E10.83508
G1 X98.732 Y116.010 E10.99235
G1 X99.317 Y115.822 E11.10626
G1 X99.562 Y115.795 F7800.000
G1 X100.417 Y116.069 E11.27261 F360.000
G1 X101.185 Y116.402 E11.42769
G1 X101.903 Y116.801 E11.57980
G1 X102.584 Y117.273 E11.73337
G1 X103.272 Y117.857 E11.90059
G1 X103.324 Y117.904 E11.91358
G1 X103.384 Y118.012 E11.93654
G1 X103.454 Y118.190 E11.97187
G1 X103.564 Y118.627 E12.05531
G1 X103.699 Y119.543 E12.22685
G1 F1800.000 E11.22685
G92 E0
G1 X85.082 Y122.462 F7800.000
G1 E1.00000 F1800.000
G1 X81.823 Y124.344 E1.44696 F378.000
G1 X78.563 Y122.462 E1.89392
G1 X78.563 Y118.699 E2.34088
G1 X81.823 Y116.817 E2.78784
G1 X85.082 Y118.699 E3.23480
G1 X85.082 Y122.402 E3.67463
G1 X85.219 Y122.838 F7800.000
G1 X85.796 Y120.943 F7800.000
G1 X85.796 Y120.216 E3.76104 F540.000
G1 X86.339 Y120.189 E3.82564
G1 X86.378 Y120.579 E3.87225
G1 X86.339 Y120.970 E3.91885
G1 X85.856 Y120.946 E3.97632
G1 X87.047 Y121.066 F7800.000
G1 X86.996 Y121.585 E4.03824 F378.000
G1 X86.703 Y122.553 E4.15829
G1 X86.226 Y123.444 E4.27833
G1 X85.585 Y124.225 E4.39838
G1 X84.804 Y124.867 E4.51842
G1 X83.912 Y125.343 E4.63847
G1 X82.945 Y125.636 E4.75851
G1 X81.939 Y125.736 E4.87856
G1 X80.933 Y125.636 E4.99860
G1 X79.966 Y125.343 E5.11865
G1 X79.075 Y124.867 E5.23869
G1 X78.293 Y124.225 E5.35873
G1 X77.652 Y123.444 E5.47878
G1 X77.176 Y122.553 E5.59883
G1 X76.882 Y121.585 E5.71887
G1 X76.783 Y120.579 E5.83892
G1 X76.882 Y119.574 E5.95896
G1 X77.176 Y118.606 E6.07901
G1 X77.652 Y117.715 E6.19905
G1 X78.293 Y116.934 E6.31910
G1 X79.075 Y116.292 E6.43914
G1 X79.966 Y115.816 E6.55919
G1 X80.933 Y115.522 E6.67923
G1 X81.939 Y115.423 E6.79928
G1 X82.945 Y115.522 E6.91932
G1 X83.912 Y115.816 E7.03937 F378.000
G1 X84.804 Y116.292 E7.15941
G1 X85.585 Y116.934 E7.27946
G1 X86.226 Y117.715 E7.39950
G1 X86.703 Y118.606 E7.51955
G1 X86.996 Y119.574 E7.63960
G1 X87.095 Y120.579 E7.75964
G1 X87.053 Y121.007 E7.81064
G1 X83.298 Y115.711 F7800.000
G1 X86.058 Y121.314 F7800.000
G1 X85.922 Y122.229 E7.98216 F360.000
G1 X85.813 Y122.668 E8.06602
G1 X85.741 Y122.849 E8.10198
G1 X85.681 Y122.955 E8.12456
G1 X85.631 Y123.001 E8.13716
G1 X84.944 Y123.584 E8.30413
G1 X84.262 Y124.056 E8.45775
G1 X83.544 Y124.455 E8.60988
G1 X82.776 Y124.788 E8.76500
G1 X81.926 Y125.061 E8.93051
G1 X81.671 Y125.033 F7800.000
G1 X81.090 Y124.847 E9.04357 F360.000
G1 X80.312 Y124.509 E9.20087
G1 X79.584 Y124.105 E9.35513
G1 X78.893 Y123.626 E9.51089
G1 X78.220 Y123.055 E9.67435
G1 X77.865 Y122.420 F7800.000
G1 X77.717 Y121.419 E9.86172 F360.000
G1 X77.675 Y120.579 E10.01752
G1 X77.717 Y119.740 E10.17334
G1 X77.865 Y118.739 E10.36070
G1 X78.217 Y118.108 F7800.000
G1 X78.893 Y117.533 E10.52515 F360.000
G1 X79.584 Y117.055 E10.68088
G1 X80.312 Y116.651 E10.83510
G1 X81.091 Y116.313 E10.99236
G1 X81.676 Y116.125 E11.10628
G1 X81.921 Y116.097 F7800.000
G1 X82.776 Y116.372 E11.27263 F360.000
G1 X83.544 Y116.705 E11.42772
G1 X84.262 Y117.104 E11.57981
G1 X84.943 Y117.575 E11.73340
G1 X85.631 Y118.159 E11.90062
G1 X85.683 Y118.207 E11.91361
G1 X85.743 Y118.315 E11.93657
G1 X85.813 Y118.493 E11.97190
G1 X85.922 Y118.930 E12.05534
G1 X86.058 Y119.845 E12.22686
G1 F1800.000 E11.22686
G92 E0
G1 X87.630 Y105.245 F7800.000
G1 E1.00000 F1800.000
G1 X87.134 Y104.825 E1.07724 F378.000
G1 X87.587 Y104.265 E1.16286
G1 X88.126 Y103.244 E1.29996
G1 X88.458 Y102.137 E1.43722
G1 X88.570 Y100.986 E1.57459
G1 X88.458 Y99.835 E1.71195
G1 X88.126 Y98.727 E1.84924
G1 X87.587 Y97.706 E1.98632
G1 X86.862 Y96.811 E2.12316
G1 X85.978 Y96.077 E2.25973
G1 X84.968 Y95.530 E2.39609
G1 X83.872 Y95.194 E2.53222
G1 X82.732 Y95.080 E2.66828
G1 X81.544 Y95.208 E2.81020
G1 X80.496 Y95.530 E2.94036
G1 X79.487 Y96.076 E3.07669
G1 X78.571 Y96.850 E3.21912
G1 X77.877 Y97.707 E3.35000
G1 X77.338 Y98.727 E3.48710
G1 X77.006 Y99.834 E3.62436
G1 X76.894 Y100.986 E3.76173
G1 X77.006 Y102.137 E3.89911
G1 X77.338 Y103.244 E4.03637
G1 X77.877 Y104.265 E4.17346
G1 X78.331 Y104.825 E4.25908
G1 X77.834 Y105.245 E4.33632
G1 X77.246 Y104.528 E4.44641
G1 X76.636 Y103.387 E4.60003
G1 X76.261 Y102.150 E4.75365
G1 X76.134 Y100.863 E4.90726
G1 X76.261 Y99.575 E5.06088
G1 X76.636 Y98.338 E5.21449
G1 X77.246 Y97.197 E5.36811
G1 X78.067 Y96.197 E5.52173
G1 X79.066 Y95.376 E5.67534
G1 X80.207 Y94.767 E5.82896
G1 X81.445 Y94.391 E5.98258
G1 X82.732 Y94.264 E6.13620
G1 X84.019 Y94.391 E6.28982
G1 X85.257 Y94.767 E6.44343
G1 X86.398 Y95.376 E6.59705
G1 X87.398 Y96.197 E6.75067
G1 X88.218 Y97.197 E6.90428
G1 X88.828 Y98.338 E7.05790
G1 X89.203 Y99.575 E7.21152
G1 X89.330 Y100.863 E7.36513
G1 X89.203 Y102.150 E7.51875
G1 X88.828 Y103.387 E7.67236
G1 X88.218 Y104.528 E7.82598
G1 X87.668 Y105.198 E7.92895
G1 X87.493 Y104.869 F7800.000
G1 F1800.000 E6.92895
G92 E0
G1 X95.489 Y105.660 F7800.000
G1 E1.00000 F1800.000
G1 X96.801 Y104.347 E1.22046 F378.000
G1 X97.939 Y105.108 E1.38301
G1 X99.682 Y105.454 E1.59400
G1 X101.424 Y105.108 E1.80498
G1 X102.901 Y104.121 E2.01597
G1 X103.799 Y102.778 E2.20782
G1 X103.888 Y102.644 E2.22696
G1 X104.235 Y100.901 E2.43794
G1 X103.888 Y99.159 E2.64893
G1 X102.901 Y97.682 E2.85992
G1 X101.424 Y96.695 E3.07090
G1 X99.682 Y96.348 E3.28189
G1 X97.939 Y96.695 E3.49287
G1 X96.801 Y97.455 E3.65542
G1 X95.489 Y96.143 E3.87589
G1 X97.229 Y94.980 E4.12446
G1 X99.682 Y94.492 E4.42146
G1 X102.134 Y94.980 E4.71847
G1 X104.214 Y96.369 E5.01548
G1 X105.603 Y98.449 E5.31248
G1 X106.091 Y100.901 E5.60949
G1 X105.603 Y103.354 E5.90649
G1 X104.214 Y105.433 E6.20350
G1 X102.134 Y106.823 E6.50051
G1 X99.682 Y107.311 E6.79751
G1 X97.229 Y106.823 E7.09452
G1 X95.539 Y105.693 E7.33597
G1 X95.867 Y105.531 F7800.000
G1 X96.448 Y105.206 F7800.000
G1 X97.586 Y105.960 E7.58901 F360.000
G1 X99.682 Y106.377 E7.98487
G1 X101.777 Y105.960 E8.38073
G1 X103.553 Y104.773 E8.77660
G1 X104.555 Y103.283 E9.10926
G1 X104.740 Y102.997 E9.17247
G1 X105.157 Y100.901 E9.56834
G1 X104.767 Y98.912 E9.94401
G1 X104.740 Y98.806 E9.96422
G1 X104.684 Y98.712 E9.98444
G1 X103.553 Y97.029 E10.36012
G1 X101.777 Y95.842 E10.75598
G1 X99.682 Y95.426 E11.15184
G1 X97.586 Y95.842 E11.54771
G1 X96.448 Y96.597 E11.80075
G1 F1800.000 E10.80075
G92 E0
G1 X111.597 Y104.182 F7800.000
G1 E1.00000 F1800.000
G1 X111.172 Y103.387 E1.10706 F378.000
G1 X110.797 Y102.150 E1.26067
G1 X110.670 Y100.863 E1.41429
G1 X110.797 Y99.575 E1.56790
G1 X111.172 Y98.338 E1.72152
G1 X111.782 Y97.197 E1.87514
G1 X112.602 Y96.197 E2.02875
G1 X113.602 Y95.376 E2.18237
G1 X114.743 Y94.767 E2.33599
G1 X115.981 Y94.391 E2.48960
G1 X117.268 Y94.264 E2.64322
G1 X118.555 Y94.391 E2.79684
G1 X119.793 Y94.767 E2.95046
G1 X120.934 Y95.376 E3.10407
G1 X121.933 Y96.197 E3.25769
G1 X122.754 Y97.197 E3.41131
G1 X123.364 Y98.338 E3.56492
G1 X123.739 Y99.575 E3.71854
G1 X123.866 Y100.863 E3.87215
G1 X123.739 Y102.150 E4.02577
G1 X123.364 Y103.388 E4.17939
G1 X122.939 Y104.182 E4.28644
G1 X122.320 Y103.789 E4.37347
G1 X122.670 Y103.127 E4.46243
G1 X123.002 Y102.017 E4.60003
G1 X123.114 Y100.863 E4.73774
G1 X123.002 Y99.708 E4.87546
G1 X122.670 Y98.598 E5.01307
G1 X122.130 Y97.575 E5.15047
G1 X121.404 Y96.678 E5.28760
G1 X120.518 Y95.941 E5.42445
G1 X119.507 Y95.393 E5.56102
G1 X118.409 Y95.055 E5.69740
G1 X117.268 Y94.941 E5.83362
G1 X116.126 Y95.055 E5.96988
G1 X115.029 Y95.393 E6.10624
G1 X114.018 Y95.941 E6.24283
G1 X113.132 Y96.678 E6.37967
G1 X112.405 Y97.575 E6.51680
G1 X111.866 Y98.598 E6.65421
G1 X111.534 Y99.708 E6.79181
G1 X111.422 Y100.863 E6.92952
G1 X111.534 Y102.017 E7.06724
G1 X111.866 Y103.127 E7.20484
G1 X112.215 Y103.789 E7.29380
G1 X111.648 Y104.150 E7.37370
G1 X111.600 Y103.782 F7800.000
M106 S224
G1 F1800.000 E6.37370
G92 E0
G1 Z0.800 F7800.000
G1 X114.340 Y118.583 F7800.000
G1 E1.00000 F1800.000
G1 X117.799 Y116.586 E1.26570 F1800.000
G1 X121.259 Y118.583 E1.53141
G1 X121.259 Y122.578 E1.79711
G1 X117.799 Y124.575 E2.06281
G1 X114.340 Y122.578 E2.32852
G1 X114.340 Y118.643 E2.59023
G1 X114.740 Y118.814 F7800.000
G1 X117.799 Y117.048 E2.82521 F1260.000
G1 X120.859 Y118.814 E3.06019
G1 X120.859 Y122.347 E3.29517
G1 X117.799 Y124.113 E3.53015
G1 X114.740 Y122.347 E3.76513
G1 X114.740 Y118.874 E3.99611
G1 X114.603 Y118.438 F7800.000
G1 F1800.000 E2.99611
G92 E0
G1 X118.105 Y124.860 F7800.000
G1 E1.00000 F1800.000
G1 X121.561 Y122.865 E1.26548 F1800.000
G1 X121.734 Y123.068 E1.28324
G1 X121.134 Y123.799 E1.34611
G1 X120.444 Y124.365 E1.40549
G1 X119.657 Y124.786 E1.46486
G1 X118.803 Y125.045 E1.52424
G1 X118.184 Y125.106 E1.56562
