; generated by Slic3r 1.1.7 on 2014-11-18 at 18:21:38

; perimeters extrusion width = 0.40mm
; infill extrusion width = 0.42mm
; solid infill extrusion width = 0.42mm
; top infill extrusion width = 0.42mm

G21 ; set units to millimeters
M107
G28 ; home all axes

G90 ; use absolute coordinates
G92 E0
M82 ; use absolute distances for extrusion
G1 F1800.000 E-1.00000
G92 E0
G1 Z0.400 F7800.000
G1 X77.604 Y73.966 F7800.000
G1 E1.00000 F1800.000
G1 X78.500 Y73.073 E1.15025 F1080.000
G1 X79.579 Y72.183 E1.31631
G1 X80.688 Y71.442 E1.47480
G1 X81.917 Y70.787 E1.64011
G1 X83.118 Y70.289 E1.79451
G1 X84.495 Y69.874 E1.96531
G1 X85.736 Y69.630 E2.11550
G1 X86.446 Y69.559 E2.20035
G1 X87.840 Y69.460 E2.36632
G1 X112.373 Y69.689 E5.28006
G1 X113.760 Y69.827 E5.44561 F1080.000
G1 X115.050 Y70.085 E5.60181
G1 X116.377 Y70.490 E5.76664
G1 X117.581 Y70.989 E5.92137
G1 X118.805 Y71.642 E6.08620
G1 X119.906 Y72.377 E6.24343
G1 X120.977 Y73.256 E6.40792
G1 X121.896 Y74.174 E6.56221
G1 X122.788 Y75.258 E6.72893
G1 X123.521 Y76.355 E6.88560
G1 X124.193 Y77.625 E7.05628
G1 X124.659 Y78.756 E7.20157
G1 X125.073 Y80.099 E7.36845
G1 X125.336 Y81.408 E7.52705
G1 X125.501 Y83.217 E7.74281
G1 X126.387 Y109.329 E10.84570
G1 X125.289 Y138.162 E14.27252
G1 X124.933 Y140.740 E14.58163
G1 X124.459 Y142.329 E14.77863
G1 X123.949 Y143.552 E14.93596
G1 X122.627 Y145.802 E15.24591
G1 X121.609 Y147.054 E15.43753
G1 X120.672 Y147.990 E15.59482
G1 X119.540 Y148.918 E15.76860
G1 X118.450 Y149.645 E15.92432
G1 X117.158 Y150.336 E16.09829
G1 X115.947 Y150.838 E16.25400
G1 X114.541 Y151.265 E16.42852
G1 X113.240 Y151.524 E16.58600
G1 X111.109 Y151.697 E16.84001
G1 X87.334 Y151.574 E19.66368
G1 X85.874 Y151.429 E19.83788
G1 X84.590 Y151.173 E19.99341
G1 X82.185 Y150.355 E20.29516
G1 X80.734 Y149.621 E20.48815
G1 X79.428 Y148.752 E20.67451
G1 X79.112 Y148.482 E20.72390
G1 X77.516 Y146.972 E20.98489
G1 X76.582 Y145.838 E21.15928
G1 X75.843 Y144.736 E21.31693
G1 X75.144 Y143.420 E21.49388
G1 X74.650 Y142.223 E21.64764
G1 X74.215 Y140.788 E21.82572
G1 X73.968 Y139.544 E21.97639
G1 X73.823 Y138.088 E22.15017
G1 X73.790 Y137.383 E22.23397
G1 X74.013 Y82.605 E28.73969
G1 X74.151 Y81.221 E28.90490
G1 X74.404 Y79.945 E29.05944
G1 X74.805 Y78.615 E29.22446
G1 X75.298 Y77.415 E29.37846
G1 X75.983 Y76.133 E29.55114
G1 X76.688 Y75.080 E29.70159
G1 X77.566 Y74.012 E29.86579
G1 F1800.000 E28.86579
G92 E0
G1 X114.472 Y141.886 F7800.000
G1 E1.00000 F1800.000
G1 X112.793 Y142.142 E1.20174 F378.000
G1 X111.135 Y143.384 E1.44780
G1 X109.477 Y142.141 E1.69391
G1 X107.796 Y141.887 E1.89586
G1 X107.796 Y132.857 E2.96833
G1 X109.596 Y132.584 E3.18461
G1 X111.135 Y132.510 E3.36761
G1 X112.675 Y132.584 E3.55066
G1 X114.472 Y132.855 E3.76655
G1 X114.472 Y141.826 E4.83203
G1 X114.512 Y142.284 F7800.000
G1 X109.675 Y143.181 F7800.000
G1 X109.458 Y143.609 E4.88909 F540.000
G1 X108.705 Y143.380 E4.98258
G1 X108.303 Y143.164 E5.03671
G1 X108.455 Y142.707 E5.09391
G1 X109.193 Y142.820 E5.18247
G1 X109.627 Y143.145 E5.24685
G1 X112.598 Y143.178 F7800.000
G1 X113.077 Y142.821 E5.31778 F540.000
G1 X113.811 Y142.709 E5.40598
G1 X113.963 Y143.167 E5.46321
G1 X113.564 Y143.380 E5.51693
G1 X112.815 Y143.607 E5.60993
G1 X112.625 Y143.232 E5.65977
G1 X115.901 Y139.438 F7800.000
G1 X115.901 Y135.592 E6.11663 F540.000
G1 X116.389 Y135.520 E6.17531
G1 X116.659 Y136.426 E6.28749
G1 X116.770 Y137.511 E6.41705
G1 X116.654 Y138.627 E6.55031
G1 X116.388 Y139.511 E6.65997
G1 X115.960 Y139.447 E6.71132
G1 X115.186 Y142.541 F7800.000
G1 X115.186 Y133.086 E7.83423 F540.000
G1 X115.571 Y132.953 E7.88256
G1 X116.413 Y133.989 E8.04110
G1 X117.004 Y135.085 E8.18896
G1 X117.360 Y136.276 E8.33659
G1 X117.487 Y137.511 E8.48414
G1 X117.358 Y138.756 E8.63274
G1 X117.005 Y139.936 E8.77901
G1 X116.407 Y141.046 E8.92874
G1 X115.224 Y142.494 E9.15082
G1 F1800.000 E8.15082
G92 E0
G1 X112.428 Y131.857 F7800.000
G1 E1.00000 F1800.000
G1 X111.135 Y131.795 E1.15364 F540.000
G1 X109.849 Y131.857 E1.30657
G1 X109.807 Y131.302 E1.37261
G1 X111.135 Y131.172 E1.53105
G1 X112.469 Y131.302 E1.69019
G1 X112.432 Y131.797 E1.74916
G1 F1800.000 E0.74916
G92 E0
G1 X112.184 Y131.159 F7800.000
G1 X112.479 Y128.173 F7800.000
G1 X119.953 Y134.080 F7800.000
G1 X115.703 Y132.936 F7800.000
G1 X115.072 Y141.504 F7800.000
G1 X112.072 Y137.388 F7800.000
G1 X110.664 Y134.935 F7800.000
G1 X107.196 Y132.500 F7800.000
G1 X106.367 Y135.596 F7800.000
G1 E1.00000 F1800.000
G1 X106.367 Y139.431 E1.45548 F540.000
G1 X105.881 Y139.504 E1.51393
G1 X105.608 Y138.615 E1.62434
G1 X105.499 Y137.501 E1.75738
G1 X105.606 Y136.425 E1.88575
G1 X105.880 Y135.524 E1.99759
G1 X106.308 Y135.587 E2.04900
G1 X107.082 Y132.482 F7800.000
G1 X107.082 Y141.943 E3.17266 F540.000
G1 X106.698 Y142.076 E3.22094
G1 X105.855 Y141.042 E3.37935
G1 X105.267 Y139.939 E3.52776
G1 X104.904 Y138.753 E3.67510
G1 X104.782 Y137.508 E3.82372
G1 X104.902 Y136.278 E3.97042
G1 X105.267 Y135.084 E4.11869
G1 X105.857 Y133.980 E4.26738
G1 X107.044 Y132.528 E4.49009
G1 X106.719 Y132.040 F7800.000
G1 X107.225 Y131.625 E4.56779 F378.000
G1 X108.232 Y131.083 E4.70358
G1 X108.425 Y130.992 E4.72897
G1 X109.759 Y130.589 E4.89440
G1 X111.135 Y130.455 E5.05867
G1 X112.243 Y130.562 E5.19088
G1 X112.508 Y130.589 E5.22250 F378.000
G1 X113.838 Y130.990 E5.38752
G1 X115.066 Y131.638 E5.55245
G1 X116.134 Y132.513 E5.71635
G1 X117.005 Y133.585 E5.88036
G1 X117.666 Y134.809 E6.04562
G1 X118.062 Y136.131 E6.20955
G1 X118.205 Y137.512 E6.37439
G1 X118.062 Y138.891 E6.53909
G1 X117.667 Y140.213 E6.70297
G1 X117.006 Y141.439 E6.86836
G1 X116.134 Y142.512 E7.03254
G1 X115.063 Y143.389 E7.19700
G1 X113.840 Y144.043 E7.36170
G1 X112.508 Y144.447 E7.52702
G1 X111.134 Y144.581 E7.69088
G1 X109.758 Y144.448 E7.85518
G1 X108.430 Y144.043 E8.02000
G1 X107.207 Y143.389 E8.18470
G1 X106.131 Y142.511 E8.34957
G1 X105.257 Y141.438 E8.51399
G1 X104.604 Y140.215 E8.67869
G1 X104.199 Y138.891 E8.84314
G1 X104.065 Y137.515 E9.00733
G1 X104.199 Y136.131 E9.17237
G1 X104.604 Y134.809 E9.33664
G1 X105.257 Y133.587 E9.50110
G1 X106.128 Y132.518 E9.66494
G1 X106.673 Y132.078 E9.74812
G1 X112.384 Y130.787 F7800.000
G1 F1800.000 E8.74812
G92 E0
G1 X90.200 Y141.583 F7800.000
G1 E1.00000 F1800.000
G1 X89.190 Y141.752 E1.12167 F378.000
G1 X87.984 Y141.822 E1.26515
G1 X86.792 Y141.752 E1.40699
G1 X86.228 Y141.663 E1.47482
G1 X86.159 Y141.602 E1.48572
G1 X85.793 Y141.402 E1.53521
G1 X85.793 Y133.635 E2.45771
G1 X86.635 Y132.583 E2.61775
G1 X87.958 Y132.021 E2.78841
G1 X89.486 Y132.601 E2.98256
G1 X90.200 Y133.681 E3.13641
G1 X90.200 Y141.523 E4.06774
G1 X90.245 Y141.981 F7800.000
G1 X84.365 Y141.854 F7800.000
G1 X83.280 Y140.527 E4.27133 F540.000
G1 X82.772 Y139.569 E4.40012
G1 X82.451 Y138.511 E4.53142
G1 X82.340 Y137.422 E4.66136
G1 X82.447 Y136.313 E4.79373
G1 X82.767 Y135.251 E4.92546
G1 X83.300 Y134.252 E5.05996
G1 X84.365 Y132.957 E5.25909
G1 X84.365 Y141.794 E6.30865
G1 X91.629 Y141.847 F7800.000
G1 X91.629 Y132.962 E7.36378 F540.000
G1 X92.703 Y134.272 E7.56489
G1 X93.222 Y135.245 E7.69598
G1 X93.542 Y136.315 E7.82860
G1 X93.649 Y137.399 E7.95799
G1 X93.545 Y138.496 E8.08876
G1 X93.218 Y139.575 E8.22274
G1 X92.683 Y140.567 E8.35651
G1 X91.667 Y141.800 E8.54632
G1 X90.915 Y142.188 F7800.000
G1 X90.915 Y133.466 E9.58210 F540.000
G1 X89.955 Y132.015 E9.78880
G1 X89.116 Y131.696 E9.89534
G1 X89.294 Y131.174 E9.96092
G1 X90.433 Y131.517 E10.10215
G1 X91.455 Y132.107 E10.24239
G1 X92.493 Y132.889 E10.39666
G1 X93.298 Y133.870 E10.54739
G1 X93.885 Y134.969 E10.69535
G1 X93.953 Y135.192 E10.72297
G1 X94.246 Y136.172 E10.84446
G1 X94.367 Y137.402 E10.99126
G1 X94.248 Y138.639 E11.13890
G1 X93.881 Y139.848 E11.28893
G1 X93.284 Y140.959 E11.43874
G1 X92.516 Y141.893 E11.58236
G1 X91.626 Y142.608 E11.71789
G1 X91.137 Y142.909 E11.78621
G1 X90.424 Y143.290 E11.88217
G1 X90.348 Y143.314 E11.89161
G1 X89.241 Y143.649 E12.02892
G1 X87.997 Y143.773 E12.17748
G1 X86.757 Y143.649 E12.32548
G1 X85.538 Y143.280 E12.47668
G1 X84.398 Y142.701 E12.62858
G1 X83.491 Y141.913 E12.77124
G1 X82.687 Y140.932 E12.92189
G1 X82.109 Y139.844 E13.06830
G1 X81.747 Y138.650 E13.21646
G1 X81.622 Y137.418 E13.36350
G1 X81.739 Y136.220 E13.50641
G1 X82.105 Y134.973 E13.66079
G1 X82.701 Y133.857 E13.81106
G1 X83.489 Y132.898 E13.95844
G1 X84.439 Y132.111 E14.10494
G1 X85.555 Y131.518 E14.25505
G1 X86.873 Y131.118 E14.41864
G1 X87.058 Y131.627 E14.48294
G1 X86.192 Y131.994 E14.59471
G1 X85.079 Y133.384 E14.80616
G1 X85.079 Y141.826 E15.80873
G1 X85.747 Y142.191 E15.89912
G1 X85.911 Y142.335 E15.92517
G1 X86.718 Y142.464 E16.02215
G1 X87.982 Y142.538 E16.17253
G1 X88.874 Y142.491 E16.27862
G1 X89.268 Y142.463 E16.32551
G1 X90.855 Y142.197 E16.51667
G1 X91.643 Y143.441 F7800.000
G1 X90.702 Y143.951 E16.64376 F378.000
G1 X89.379 Y144.353 E16.80796
G1 X87.997 Y144.490 E16.97296
G1 X86.616 Y144.353 E17.13776
G1 X85.276 Y143.947 E17.30398
G1 X84.000 Y143.301 E17.47392
G1 X82.982 Y142.419 E17.63385
G1 X82.095 Y141.340 E17.79972
G1 X81.446 Y140.119 E17.96399
G1 X81.043 Y138.788 E18.12913
G1 X80.906 Y137.411 E18.29354
G1 X81.042 Y136.026 E18.45884
G1 X81.445 Y134.694 E18.62405
G1 X82.100 Y133.463 E18.78970
G1 X82.900 Y132.490 E18.93931
G1 X82.982 Y132.392 E18.95440
G1 X83.984 Y131.561 E19.10905
G1 X84.025 Y131.508 E19.11705
G1 X85.281 Y130.855 E19.28522
G1 X86.611 Y130.452 E19.45016
G1 X88.000 Y130.316 E19.61592
G1 X88.115 Y130.325 E19.62972
G1 X89.377 Y130.452 E19.78033 F378.000
G1 X90.708 Y130.854 E19.94537
G1 X91.849 Y131.510 E20.10174
G1 X92.920 Y132.317 E20.26095
G1 X93.008 Y132.391 E20.27464
G1 X93.892 Y133.468 E20.44014
G1 X94.547 Y134.693 E20.60509
G1 X94.949 Y136.026 E20.77051
G1 X95.084 Y137.405 E20.93504
G1 X94.963 Y138.664 E21.08531
G1 X94.950 Y138.784 E21.09964
G1 X94.546 Y140.121 E21.26544
G1 X93.888 Y141.350 E21.43106
G1 X93.015 Y142.411 E21.59427
G1 X92.030 Y143.200 E21.74405
G1 X91.695 Y143.411 E21.79115
G1 F1800.000 E20.79115
G92 E0
G1 X88.468 Y130.514 F7800.000
G1 X83.820 Y134.701 F7800.000
G1 E1.00000 F1800.000
G1 X83.867 Y134.749 E1.00798 F1080.000
G1 X83.303 Y135.304 E1.10195
G1 X83.867 Y135.868 E1.19670
G1 X83.019 Y136.139 E1.30241
G1 X83.867 Y136.987 E1.44478
G1 X82.870 Y137.109 E1.56407
G1 X83.867 Y138.106 E1.73151
G1 X82.928 Y138.286 E1.84508
G1 X83.867 Y139.225 E2.00281
G1 X83.609 Y140.086 E2.10957
G1 X83.674 Y140.151 E2.12043
G1 F1800.000 E1.12043
G92 E0
G1 X92.174 Y140.100 F7800.000
G1 E1.00000 F1800.000
G1 X92.127 Y140.053 E1.00799 F1080.000
G1 X92.691 Y139.502 E1.10169
G1 X92.127 Y138.937 E1.19658
G1 X92.127 Y137.822 E1.32907
G1 X92.972 Y138.668 E1.47116
G1 X93.121 Y137.700 E1.58740
G1 X92.127 Y136.706 E1.75436
G1 X93.063 Y136.527 E1.86761
G1 X92.127 Y135.590 E2.02492
G1 X92.384 Y134.733 E2.13129
G1 X92.319 Y134.668 E2.14223
G1 X89.692 Y142.944 F7800.000
G1 X89.127 Y143.064 E2.18062 F360.000
G1 X87.996 Y143.154 E2.25606
G1 X86.873 Y143.065 E2.33100
G1 X86.332 Y142.953 E2.36775
G1 F1800.000 E1.36775
G92 E0
G1 X93.817 Y114.847 F7800.000
G1 E1.00000 F1800.000
G1 X93.033 Y115.296 E1.10731 F378.000
G1 X92.422 Y115.524 E1.18481
G1 X90.835 Y115.876 E1.37782
G1 X89.192 Y115.989 E1.57340
G1 X87.562 Y115.876 E1.76751
G1 X85.985 Y115.528 E1.95923
G1 X85.075 Y115.187 E2.07466
G1 X84.581 Y114.808 E2.14865
G1 X84.581 Y105.874 E3.20974
G1 X85.046 Y105.517 E3.27938
G1 X85.986 Y105.151 E3.39915
G1 X87.560 Y104.813 E3.59043
G1 X89.192 Y104.695 E3.78476
G1 X90.835 Y104.813 E3.98034
G1 X92.404 Y105.151 E4.17100
G1 X93.049 Y105.399 E4.25307
G1 X93.817 Y105.839 E4.35818
G1 X93.817 Y114.787 E5.42085
G1 X93.953 Y115.223 F7800.000
G1 F1800.000 E4.42085
G92 E0
G1 X83.152 Y111.230 F7800.000
G1 E1.00000 F1800.000
G1 X82.608 Y111.256 E1.06467 F540.000
G1 X82.470 Y109.816 E1.23648
G1 X82.608 Y108.374 E1.40848
G1 X83.152 Y108.400 E1.47316
G1 X83.152 Y111.170 E1.80206
G1 F1800.000 E0.80206
G92 E0
G1 X95.245 Y111.200 F7800.000
G1 E1.00000 F1800.000
G1 X95.245 Y108.430 E1.32889 F540.000
G1 X95.789 Y108.404 E1.39357
G1 X95.925 Y109.816 E1.56198
G1 X95.789 Y111.226 E1.73020
G1 X95.305 Y111.202 E1.78775
G1 X94.531 Y105.425 F7800.000
G1 X93.380 Y104.766 E1.94527 F540.000
G1 X92.607 Y104.464 E2.04386
G1 X90.937 Y104.105 E2.24678
G1 X89.191 Y103.979 E2.45463
G1 X87.459 Y104.105 E2.66092
G1 X85.782 Y104.465 E2.86464
G1 X84.671 Y104.905 E3.00658
G1 X83.866 Y105.521 E3.12692
G1 X83.866 Y114.995 E4.25202
G1 X83.003 Y113.948 E4.41317
G1 X82.316 Y112.661 E4.58642
G1 X81.892 Y111.268 E4.75933
G1 X81.752 Y109.816 E4.93258
G1 X81.892 Y108.363 E5.10590
G1 X82.318 Y106.964 E5.27955
G1 X83.004 Y105.676 E5.45296
G1 X83.918 Y104.561 E5.62408
G1 X84.820 Y103.960 E5.75289
G1 X87.742 Y103.067 E6.11579
G1 X89.193 Y102.921 E6.28901
G1 X90.649 Y103.067 E6.46276
G1 X93.550 Y103.953 E6.82297
G1 X94.499 Y104.588 E6.95869
G1 X95.387 Y105.670 E7.12488
G1 X96.075 Y106.964 E7.29902
G1 X96.503 Y108.362 E7.47256
G1 X96.643 Y109.816 E7.64605
G1 X96.503 Y111.267 E7.81924
G1 X96.076 Y112.663 E7.99254
G1 X95.387 Y113.949 E8.16580
G1 X94.531 Y114.994 E8.32622
G1 X94.531 Y105.485 E9.45552
G1 X92.877 Y103.000 F7800.000
G1 X92.877 Y102.645 E9.49769 F378.000
G1 X94.984 Y104.053 E9.79869
G1 X95.984 Y105.272 E9.98584
G1 X96.739 Y106.690 E10.17670
G1 X97.207 Y108.222 E10.36689
G1 X97.360 Y109.816 E10.55711
G1 X97.207 Y111.408 E10.74701
G1 X96.739 Y112.937 E10.93699
G1 X95.984 Y114.347 E11.12693
G1 X94.984 Y115.569 E11.31443
G1 X92.304 Y117.363 E11.69738
G1 X90.789 Y117.823 E11.88542
G1 X89.194 Y117.976 E12.07582
G1 X87.601 Y117.823 E12.26581
G1 X86.088 Y117.362 E12.45364
G1 X83.414 Y115.569 E12.83611
G1 X82.407 Y114.347 E13.02417
G1 X81.654 Y112.936 E13.21402
G1 X81.188 Y111.408 E13.40382
G1 X81.035 Y109.816 E13.59373
G1 X81.188 Y108.222 E13.78388
G1 X81.655 Y106.690 E13.97409
G1 X82.407 Y105.278 E14.16416
G1 X83.433 Y104.027 E14.35630
G1 X85.516 Y102.636 E14.65378
G1 X85.516 Y103.000 E14.69708
G1 X87.602 Y102.363 E14.95612
G1 X89.193 Y102.203 E15.14607
G1 X90.789 Y102.363 E15.33658
G1 X92.820 Y102.983 E15.58871
G1 X93.230 Y103.035 F7800.000
G1 F1800.000 E14.58871
G92 E0
G1 X92.962 Y116.103 F7800.000
G1 E1.00000 F1800.000
G1 X91.921 Y116.550 E1.20986 F360.000
G1 X91.007 Y116.787 E1.38481
G1 X90.600 Y116.866 E1.46167
G1 X89.195 Y116.981 E1.72284
G1 X87.791 Y116.865 E1.98378
G1 X87.393 Y116.789 E2.05892
G1 X86.473 Y116.550 E2.23497
G1 X85.439 Y116.105 E2.44350
G1 F1800.000 E1.44350
G92 E0
G1 X106.364 Y104.039 F7800.000
G1 E1.00000 F1800.000
G1 X107.014 Y103.702 E1.08696 F378.000
G1 X107.895 Y103.365 E1.19889
G1 X109.486 Y103.020 E1.39234
G1 X111.120 Y102.901 E1.58685
G1 X112.752 Y103.020 E1.78121
G1 X114.273 Y103.349 E1.96604
G1 X114.930 Y103.585 E2.04897
G1 X115.790 Y104.043 E2.16461
G1 X115.790 Y113.086 E3.23861
G1 X114.928 Y113.543 E3.35445
G1 X114.325 Y113.772 E3.43099
G1 X112.753 Y114.111 E3.62198
G1 X111.118 Y114.229 E3.81672
G1 X109.485 Y114.111 E4.01116
G1 X107.913 Y113.771 E4.20221
G1 X107.038 Y113.433 E4.31352
G1 X106.364 Y113.091 E4.40332
G1 X106.364 Y104.099 E5.47118
G1 X106.239 Y103.660 F7800.000
G1 F1800.000 E4.47118
G92 E0
G1 X117.218 Y108.320 F7800.000
G1 E1.00000 F1800.000
G1 X117.760 Y108.292 E1.06450 F540.000
G1 X117.840 Y109.076 E1.15805
G1 X117.760 Y109.859 E1.25151
G1 X117.218 Y109.831 E1.31600
G1 X117.218 Y108.380 E1.48839
G1 X116.504 Y113.667 F7800.000
G1 X116.504 Y103.970 E2.64009 F540.000
G1 X117.301 Y104.943 E2.78946
G1 X117.990 Y106.225 E2.96233
G1 X118.410 Y107.623 E3.13567
G1 X118.558 Y109.076 E3.30915
G1 X118.410 Y110.526 E3.48232
G1 X117.990 Y111.920 E3.65523
G1 X117.301 Y113.206 E3.82842
G1 X116.404 Y114.302 E3.99663
G1 X115.553 Y114.904 E4.12041
G1 X112.569 Y115.813 E4.49086
G1 X111.122 Y115.952 E4.66359
G1 X109.669 Y115.807 E4.83699
G1 X106.586 Y114.873 E5.21954
G1 X105.851 Y114.316 E5.32912
G1 X104.937 Y113.205 E5.49989
G1 X104.253 Y111.915 E5.67341
G1 X103.828 Y110.525 E5.84602
G1 X103.688 Y109.077 E6.01880
G1 X103.828 Y107.623 E6.19222
G1 X104.252 Y106.226 E6.36564
G1 X104.938 Y104.940 E6.53872
G1 X105.650 Y104.076 E6.67169
G1 X105.650 Y113.955 E7.84497
G1 X105.893 Y113.652 E7.89106
G1 X106.747 Y114.086 E8.00482
G1 X107.707 Y114.458 E8.12711
G1 X109.382 Y114.819 E8.33059
