; generated by Slic3r 1.1.7 on 2014-11-18 at 17:07:06

; perimeters extrusion width = 0.40mm
; infill extrusion width = 0.42mm
; solid infill extrusion width = 0.42mm
; top infill extrusion width = 0.42mm

G21 ; set units to millimeters
M107
G28 ; home all axes

G90 ; use absolute coordinates
G92 E0
M82 ; use absolute distances for extrusion
G1 F1800.000 E-1.00000
G92 E0
G1 Z0.400 F7800.000
G1 X76.361 Y71.675 F7800.000
G1 E1.00000 F1800.000
G1 X77.257 Y70.782 E1.15026 F1080.000
G1 X78.414 Y69.829 E1.32823
G1 X79.523 Y69.087 E1.48671
G1 X80.840 Y68.385 E1.66393
G1 X82.041 Y67.887 E1.81834
G1 X83.514 Y67.444 E2.00105
G1 X84.754 Y67.199 E2.15122
G1 X85.521 Y67.123 E2.24268
G1 X86.958 Y67.019 E2.41388
G1 X113.218 Y67.262 E5.53275
G1 X114.705 Y67.409 E5.71021 F1080.000
G1 X115.995 Y67.668 E5.86641
G1 X117.418 Y68.101 E6.04315
G1 X118.622 Y68.600 E6.19788
G1 X119.935 Y69.301 E6.37461
G1 X121.036 Y70.036 E6.53186
G1 X122.183 Y70.978 E6.70823
G1 X123.103 Y71.896 E6.86252
G1 X124.058 Y73.058 E7.04116
G1 X124.791 Y74.155 E7.19784
G1 X125.510 Y75.513 E7.38038
G1 X125.976 Y76.644 E7.52567
G1 X126.420 Y78.083 E7.70446
G1 X126.683 Y79.392 E7.86305
G1 X126.858 Y81.301 E8.09075
G1 X127.808 Y109.262 E11.41341
G1 X126.633 Y140.147 E15.08415
G1 X126.267 Y142.828 E15.40545
G1 X126.138 Y143.288 E15.46218
G1 X125.761 Y144.521 E15.61538
G1 X125.251 Y145.744 E15.77272
G1 X123.880 Y148.086 E16.09501
G1 X122.795 Y149.422 E16.29944
G1 X121.858 Y150.358 E16.45673
G1 X120.644 Y151.352 E16.64308
G1 X119.554 Y152.080 E16.79880
G1 X118.168 Y152.820 E16.98535
G1 X116.957 Y153.322 E17.14104
G1 X115.450 Y153.781 E17.32817
G1 X114.149 Y154.039 E17.48566
G1 X111.912 Y154.223 E17.75224
G1 X86.468 Y154.091 E20.77420
G1 X84.903 Y153.936 E20.96095
G1 X83.618 Y153.680 E21.11650
G1 X81.112 Y152.831 E21.43078
G1 X79.565 Y152.049 E21.63663
G1 X78.257 Y151.179 E21.82319
G1 X77.941 Y150.909 E21.87257
G1 X76.268 Y149.332 E22.14568
G1 X75.266 Y148.117 E22.33265
G1 X74.527 Y147.013 E22.49037
G1 X73.779 Y145.605 E22.67985
G1 X73.285 Y144.408 E22.83360
G1 X72.819 Y142.871 E23.02427
G1 X72.573 Y141.627 E23.17490
G1 X72.417 Y140.081 E23.35948
G1 X72.384 Y139.361 E23.44508
G1 X72.621 Y80.676 E30.41486
G1 X72.768 Y79.192 E30.59198
G1 X73.021 Y77.916 E30.74648
G1 X73.451 Y76.490 E30.92340
G1 X73.944 Y75.290 E31.07744
G1 X74.676 Y73.920 E31.26198
G1 X75.382 Y72.867 E31.41247
G1 X76.323 Y71.721 E31.58859
G1 F1800.000 E30.58859
G92 E0
G1 X115.488 Y144.163 F7800.000
G1 E1.00000 F1800.000
G1 X113.705 Y144.434 E1.21421 F378.000
G1 X111.939 Y145.757 E1.47630
G1 X110.173 Y144.434 E1.73844
G1 X108.387 Y144.164 E1.95288
G1 X108.387 Y134.531 E3.09694
G1 X110.292 Y134.242 E3.32571
G1 X111.939 Y134.163 E3.52157
G1 X113.587 Y134.242 E3.71747
G1 X115.488 Y134.528 E3.94584
G1 X115.488 Y144.103 E5.08290
G1 X115.528 Y144.560 F7800.000
G1 X110.874 Y145.849 F7800.000
G1 X110.657 Y146.277 E5.13996 F540.000
G1 X109.302 Y145.864 E5.30820
G1 X108.363 Y145.361 E5.43475
G1 X108.514 Y144.905 E5.49183
G1 X109.888 Y145.113 E5.65691
G1 X110.826 Y145.813 E5.79593
G1 X113.011 Y145.843 F7800.000
G1 X113.989 Y145.113 E5.94085 F540.000
G1 X115.365 Y144.904 E6.10615
G1 X115.517 Y145.361 E6.16339
G1 X114.574 Y145.864 E6.29025
G1 X113.227 Y146.272 E6.45740
G1 X113.038 Y145.897 E6.50724
G1 X116.916 Y142.293 F7800.000
G1 X116.916 Y136.697 E7.17190 F540.000
G1 X117.348 Y136.588 E7.22483
G1 X117.644 Y137.139 E7.29910
G1 X117.992 Y138.306 E7.44368
G1 X118.113 Y139.497 E7.58581
G1 X117.986 Y140.718 E7.73167
G1 X117.645 Y141.850 E7.87210
G1 X117.348 Y142.402 E7.94652
G1 X116.974 Y142.308 E7.99227
G1 X116.202 Y144.871 F7800.000
G1 X116.202 Y134.127 E9.26828 F540.000
G1 X116.806 Y134.620 E9.36094
G1 X117.665 Y135.675 E9.52242
G1 X118.306 Y136.864 E9.68288
G1 X118.692 Y138.156 E9.84304
G1 X118.831 Y139.497 E10.00317
G1 X118.691 Y140.847 E10.16436
G1 X118.307 Y142.128 E10.32315
G1 X117.659 Y143.331 E10.48550
G1 X116.813 Y144.371 E10.64470
G1 X116.248 Y144.833 E10.73131
G1 F1800.000 E9.73131
G92 E0
G1 X114.413 Y133.649 F7800.000
G1 E1.00000 F1800.000
G1 X113.659 Y133.530 E1.09063 F540.000
G1 X111.939 Y133.448 E1.29516
G1 X110.220 Y133.530 E1.49956
G1 X109.461 Y133.647 E1.59076
G1 X109.343 Y133.128 E1.65398
G1 X110.596 Y132.749 E1.80945
G1 X111.939 Y132.619 E1.96963
G1 X113.275 Y132.749 E2.12910
G1 X114.532 Y133.129 E2.28505
G1 X114.426 Y133.591 E2.34126
G1 F1800.000 E1.34126
G92 E0
G1 X113.075 Y132.614 F7800.000
G1 X113.369 Y129.628 F7800.000
G1 X102.857 Y135.337 F7800.000
G1 X103.516 Y144.894 F7800.000
G1 X105.011 Y140.305 F7800.000
G1 X106.959 Y136.701 F7800.000
G1 E1.00000 F1800.000
G1 X106.959 Y142.294 E1.66431 F540.000
G1 X106.526 Y142.402 E1.71726
G1 X106.234 Y141.856 E1.79085
G1 X105.882 Y140.706 E1.93363
G1 X105.763 Y139.486 E2.07925
G1 X105.879 Y138.305 E2.22019
G1 X106.234 Y137.138 E2.36502
G1 X106.526 Y136.592 E2.43856
G1 X106.901 Y136.686 E2.48440
G1 X107.673 Y134.131 F7800.000
G1 X107.673 Y144.873 E3.76020 F540.000
G1 X107.065 Y144.376 E3.85344
G1 X106.210 Y143.327 E4.01414
G1 X105.572 Y142.131 E4.17514
G1 X105.178 Y140.844 E4.33502
G1 X105.046 Y139.493 E4.49622
G1 X105.176 Y138.158 E4.65549
G1 X105.572 Y136.863 E4.81633
G1 X106.211 Y135.666 E4.97759
G1 X107.051 Y134.636 E5.13540
G1 X107.627 Y134.169 E5.22343
G1 X107.220 Y133.578 F7800.000
G1 X107.729 Y133.161 E5.30151 F378.000
G1 X108.815 Y132.577 E5.44804
G1 X109.022 Y132.479 E5.47526
G1 X110.457 Y132.046 E5.65326
G1 X111.939 Y131.901 E5.83008
G1 X113.134 Y132.016 E5.97269
G1 X113.417 Y132.046 E6.00644 F378.000
G1 X114.849 Y132.477 E6.18404
G1 X116.170 Y133.175 E6.36154
G1 X117.319 Y134.117 E6.53801
G1 X118.257 Y135.270 E6.71456
G1 X118.969 Y136.588 E6.89242
G1 X119.395 Y138.012 E7.06889
G1 X119.549 Y139.498 E7.24631
G1 X119.395 Y140.982 E7.42360
G1 X118.969 Y142.405 E7.60001
G1 X118.258 Y143.725 E7.77801
G1 X117.319 Y144.879 E7.95474
G1 X116.166 Y145.824 E8.13176
G1 X114.850 Y146.527 E8.30903
G1 X113.416 Y146.963 E8.48697
G1 X111.938 Y147.107 E8.66335
G1 X110.456 Y146.963 E8.84022
G1 X109.027 Y146.527 E9.01761
G1 X107.711 Y145.823 E9.19490
G1 X106.553 Y144.879 E9.37235
G1 X105.611 Y143.724 E9.54933
G1 X104.909 Y142.407 E9.72662
G1 X104.473 Y140.982 E9.90361
G1 X104.329 Y139.500 E10.08039
G1 X104.473 Y138.012 E10.25799
G1 X104.909 Y136.588 E10.43482
G1 X105.611 Y135.273 E10.61185
G1 X106.550 Y134.122 E10.78826
G1 X107.174 Y133.616 E10.88365
G1 X113.285 Y132.257 F7800.000
G1 F1800.000 E9.88365
G92 E0
G1 X106.412 Y138.478 F7800.000
G1 E1.00000 F1800.000
G1 X106.362 Y139.480 E1.06672 F360.000
G1 X106.412 Y140.489 E1.13389
G1 F1800.000 E0.13389
G92 E0
G1 X111.106 Y146.181 F7800.000
G1 E1.00000 F1800.000
G1 X111.762 Y146.438 E1.04687 F360.000
G1 X111.937 Y146.477 E1.05879
G1 X112.110 Y146.440 E1.07055
G1 X112.779 Y146.177 E1.11839
G1 F1800.000 E0.11839
G92 E0
G1 X112.758 Y146.424 F7800.000
G1 X111.922 Y149.517 F7800.000
G1 X120.341 Y144.919 F7800.000
G1 X121.034 Y135.361 F7800.000
G1 X113.369 Y129.628 F7800.000
G1 X113.075 Y132.614 F7800.000
G1 X112.259 Y133.577 F7800.000
G1 X111.425 Y136.590 F7800.000
G1 X113.088 Y140.929 F7800.000
G1 X116.088 Y140.151 F7800.000
G1 X117.463 Y140.468 F7800.000
G1 E1.00000 F1800.000
G1 X117.513 Y139.496 E1.06471 F360.000
G1 X117.463 Y138.484 E1.13214
G1 F1800.000 E0.13214
G92 E0
G1 X89.464 Y143.835 F7800.000
G1 E1.00000 F1800.000
G1 X88.407 Y144.012 E1.12735 F378.000
G1 X87.117 Y144.086 E1.28080
G1 X85.841 Y144.012 E1.43253
G1 X85.246 Y143.917 E1.50418
G1 X85.177 Y143.857 E1.51508
G1 X84.797 Y143.649 E1.56653
G1 X84.797 Y135.352 E2.55188
G1 X85.689 Y134.238 E2.72140
G1 X87.089 Y133.642 E2.90214
G1 X88.708 Y134.257 E3.10781
G1 X89.464 Y135.401 E3.27063
G1 X89.464 Y143.775 E4.26520
G1 X89.508 Y144.232 F7800.000
G1 X83.368 Y144.307 F7800.000
G1 X82.752 Y143.767 E4.36249 F540.000
G1 X81.963 Y142.803 E4.51047
G1 X81.406 Y141.753 E4.65160
G1 X81.055 Y140.594 E4.79539
G1 X80.933 Y139.402 E4.93769
G1 X81.051 Y138.187 E5.08273
G1 X81.401 Y137.023 E5.22703
G1 X81.985 Y135.929 E5.37440
G1 X82.748 Y135.001 E5.51698
G1 X83.368 Y134.487 E5.61274
G1 X83.368 Y144.247 E6.77190
G1 X90.893 Y144.248 F7800.000
G1 X90.893 Y134.537 E7.92525 F540.000
G1 X91.507 Y135.001 E8.01674
G1 X92.286 Y135.950 E8.16252
G1 X92.855 Y137.017 E8.30610
G1 X93.206 Y138.190 E8.45148
G1 X93.323 Y139.377 E8.59314
G1 X93.208 Y140.578 E8.73642
G1 X92.850 Y141.760 E8.88318
G1 X92.264 Y142.847 E9.02976
G1 X91.534 Y143.733 E9.16613
G1 X90.939 Y144.210 E9.25672
G1 X90.178 Y144.439 F7800.000
G1 X90.178 Y135.186 E10.35573 F540.000
G1 X89.177 Y133.671 E10.57140
G1 X87.396 Y132.995 E10.79760
G1 X87.511 Y132.508 E10.85707
G1 X88.475 Y132.604 E10.97208
G1 X89.770 Y132.995 E11.13276
G1 X90.883 Y133.636 E11.28533
G1 X91.978 Y134.461 E11.44816
G1 X92.880 Y135.548 E11.61593
G1 X93.517 Y136.740 E11.77647
G1 X93.909 Y138.044 E11.93815
G1 X94.040 Y139.380 E12.09753
G1 X93.911 Y140.722 E12.25771
G1 X93.514 Y142.033 E12.42033
G1 X92.867 Y143.237 E12.58272
G1 X92.728 Y143.407 E12.60882
G1 X92.032 Y144.252 E12.73882
G1 X91.071 Y145.025 E12.88519
G1 X90.554 Y145.344 E12.95745
G1 X89.764 Y145.766 E13.06384
G1 X88.480 Y146.156 E13.22312
G1 X87.130 Y146.290 E13.38424
G1 X85.785 Y146.156 E13.54478
G1 X84.465 Y145.757 E13.70856
G1 X83.227 Y145.128 E13.87349
G1 X82.243 Y144.273 E14.02834
G1 X81.371 Y143.211 E14.19155
G1 X80.744 Y142.028 E14.35052
G1 X80.351 Y140.733 E14.51128
G1 X80.216 Y139.396 E14.67086
G1 X80.341 Y138.108 E14.82454
G1 X80.740 Y136.744 E14.99328
G1 X81.385 Y135.534 E15.15611
G1 X82.241 Y134.495 E15.31606
G1 X83.272 Y133.640 E15.47510
G1 X84.482 Y132.997 E15.63785
G1 X85.782 Y132.603 E15.79919
G1 X86.680 Y132.515 E15.90637
G1 X86.801 Y132.989 E15.96450
G1 X85.245 Y133.649 E16.16520
G1 X84.082 Y135.102 E16.38613
G1 X84.082 Y144.072 E17.45156
G1 X84.765 Y144.445 E17.54390
G1 X84.929 Y144.590 E17.56995
G1 X85.768 Y144.723 E17.67075
G1 X87.115 Y144.802 E17.83102
G1 X88.059 Y144.753 E17.94327
G1 X88.485 Y144.723 E17.99397
G1 X90.119 Y144.449 E18.19082
G1 X91.025 Y145.897 F7800.000
G1 X90.042 Y146.427 E18.32350 F378.000
G1 X88.618 Y146.860 E18.50023
G1 X87.130 Y147.008 E18.67778
G1 X85.644 Y146.860 E18.85513
G1 X84.204 Y146.424 E19.03392
G1 X82.829 Y145.728 E19.21690
G1 X81.734 Y144.778 E19.38902
G1 X80.779 Y143.618 E19.56746
G1 X80.081 Y142.304 E19.74428
G1 X79.647 Y140.871 E19.92201
G1 X79.499 Y139.389 E20.09897
G1 X79.646 Y137.898 E20.27684
G1 X80.080 Y136.465 E20.45464
G1 X80.784 Y135.141 E20.63285
G1 X81.641 Y134.098 E20.79319
G1 X81.733 Y133.989 E20.81012
G1 X82.805 Y133.100 E20.97550
G1 X82.854 Y133.037 E20.98499
G1 X82.977 Y132.989 E21.00063
G1 X84.208 Y132.334 E21.16630
G1 X85.638 Y131.900 E21.34375
G1 X87.133 Y131.754 E21.52214
G1 X87.264 Y131.765 E21.53769
G1 X88.616 Y131.901 E21.69910 F378.000
G1 X90.048 Y132.333 E21.87672
G1 X91.277 Y133.039 E22.04504
G1 X92.423 Y133.903 E22.21557
G1 X92.523 Y133.987 E22.23109
G1 X93.475 Y135.146 E22.40914
G1 X94.179 Y136.464 E22.58667
G1 X94.613 Y137.899 E22.76468
G1 X94.757 Y139.383 E22.94177
G1 X94.628 Y140.733 E23.10278
G1 X94.613 Y140.868 E23.11892
G1 X94.178 Y142.305 E23.29730
G1 X93.470 Y143.628 E23.47549
G1 X92.530 Y144.771 E23.65126
G1 X91.476 Y145.617 E23.81181
G1 X91.077 Y145.866 E23.86768
G1 F1800.000 E22.86768
G92 E0
G1 X87.616 Y131.954 F7800.000
G1 X82.851 Y135.691 F7800.000
G1 E1.00000 F1800.000
G1 X82.871 Y135.711 E1.00336 F1080.000
G1 X82.370 Y136.265 E1.09199
G1 X82.871 Y136.765 E1.17606
G1 X82.003 Y136.952 E1.28143
G1 X82.871 Y137.820 E1.42711
G1 X82.871 Y138.874 E1.55231
G1 X81.712 Y137.716 E1.74681
G1 X81.514 Y138.571 E1.85110
G1 X82.871 Y139.928 E2.07898
G1 X82.871 Y140.982 E2.20417
G1 X81.450 Y139.561 E2.44284
G1 X81.638 Y140.804 E2.59216
G1 X82.871 Y142.036 E2.79910
G1 X82.708 Y142.928 E2.90678
G1 X82.851 Y143.070 E2.93064
G1 X83.859 Y134.595 F7800.000
G1 X84.064 Y134.010 E2.97186 F360.000
G1 X84.751 Y133.440 E3.03123
G1 X89.710 Y133.551 F7800.000
G1 X90.220 Y134.031 E3.07779 F360.000
G1 X90.393 Y134.605 E3.11769
G1 X91.410 Y135.699 F7800.000
G1 X91.554 Y135.843 E3.14181 F1080.000
G1 X91.390 Y136.732 E3.24919
G1 X92.617 Y137.959 E3.45524
G1 X91.390 Y137.785 E3.60240
G1 X92.805 Y139.200 E3.84001
G1 X92.745 Y140.192 E3.95811
G1 X91.390 Y138.838 E4.18562
G1 X91.390 Y139.891 E4.31065
G1 X92.546 Y141.046 E4.50476
G1 X92.257 Y141.810 E4.60177
G1 X91.390 Y140.943 E4.74739
G1 X91.390 Y141.996 E4.87243
G1 X91.889 Y142.494 E4.95610
G1 X91.390 Y143.049 E5.04464
G1 X91.410 Y143.069 E5.04800
G1 X90.119 Y144.981 F7800.000
G1 X89.519 Y145.186 E5.09018 F360.000
G1 X88.541 Y145.413 E5.15699
G1 X88.139 Y145.467 E5.18400
G1 X87.092 Y145.542 E5.25381
G1 X85.926 Y145.449 E5.33158
G1 X84.692 Y145.177 E5.41563
G1 X84.388 Y144.983 E5.43963
G1 X83.725 Y144.635 E5.48944
G1 F1800.000 E4.48944
G92 E0
G1 X93.342 Y115.180 F7800.000
G1 E1.00000 F1800.000
G1 X92.517 Y115.652 E1.11285 F378.000
G1 X91.865 Y115.895 E1.19552
G1 X90.169 Y116.271 E1.40181
G1 X88.412 Y116.392 E1.61100
G1 X86.668 Y116.271 E1.81864
G1 X84.982 Y115.899 E2.02369
G1 X84.011 Y115.536 E2.14681
G1 X83.497 Y115.141 E2.22381
G1 X83.497 Y105.589 E3.35831
G1 X83.982 Y105.216 E3.43097
G1 X84.982 Y104.828 E3.55845
G1 X86.667 Y104.466 E3.76304
G1 X88.412 Y104.340 E3.97090
G1 X90.169 Y104.466 E4.18011
G1 X91.848 Y104.827 E4.38403
G1 X92.534 Y105.091 E4.47129
G1 X93.342 Y105.554 E4.58193
G1 X93.342 Y115.120 E5.71802
G1 X93.478 Y115.556 F7800.000
G1 X91.125 Y116.794 F7800.000
G1 X91.263 Y117.325 E5.78318 F540.000
G1 X89.991 Y117.712 E5.94119
G1 X88.415 Y117.863 E6.12920
G1 X86.841 Y117.711 E6.31703
G1 X85.589 Y117.331 E6.47234
G1 X85.726 Y116.801 E6.53735
G1 X86.568 Y116.980 E6.63960
G1 X88.410 Y117.108 E6.85890
G1 X90.271 Y116.980 E7.08041
G1 X91.067 Y116.807 E7.17711
G1 F1800.000 E6.17711
G92 E0
G1 X82.068 Y112.379 F7800.000
G1 E1.00000 F1800.000
G1 X81.581 Y112.452 E1.05849 F540.000
G1 X81.210 Y111.235 E1.20952
G1 X81.072 Y109.803 E1.38048
G1 X81.210 Y108.369 E1.55154
G1 X81.581 Y107.151 E1.70277
G1 X82.068 Y107.223 E1.76127
G1 X82.068 Y112.319 E2.36650
G1 F1800.000 E1.36650
G92 E0
G1 X80.911 Y106.577 F7800.000
G1 X78.661 Y104.421 F7800.000
G1 X86.900 Y99.352 F7800.000
G1 X95.933 Y101.579 F7800.000
G1 X99.541 Y110.511 F7800.000
G1 X96.492 Y108.732 F7800.000
G1 X94.770 Y112.364 F7800.000
G1 E1.00000 F1800.000
G1 X94.770 Y107.237 E1.60884 F540.000
G1 X95.257 Y107.164 E1.66731
G1 X95.625 Y108.368 E1.81675
G1 X95.763 Y109.802 E1.98793
G1 X95.625 Y111.234 E2.15877
G1 X95.257 Y112.437 E2.30810
G1 X94.830 Y112.373 E2.35942
G1 X94.056 Y105.140 F7800.000
G1 X92.865 Y104.458 E2.52247 F540.000
G1 X92.051 Y104.141 E2.62627
G1 X90.271 Y103.757 E2.84244
G1 X88.411 Y103.624 E3.06391
G1 X86.565 Y103.757 E3.28374
G1 X84.778 Y104.141 E3.50077
G1 X83.607 Y104.604 E3.65041
G1 X82.782 Y105.236 E3.77378
G1 X82.782 Y115.578 E5.00205
G1 X81.710 Y114.277 E5.20232
G1 X80.966 Y112.884 E5.38992
G1 X80.506 Y111.375 E5.57720
G1 X80.355 Y109.803 E5.76483
G1 X80.506 Y108.229 E5.95253
G1 X80.967 Y106.715 E6.14058
G1 X81.711 Y105.319 E6.32836
G1 X82.701 Y104.111 E6.51390
G1 X83.692 Y103.450 E6.65537
G1 X86.842 Y102.488 E7.04652
G1 X88.413 Y102.330 E7.23411
G1 X89.990 Y102.488 E7.42227
G1 X93.119 Y103.443 E7.81085
G1 X94.157 Y104.137 E7.95915
G1 X95.121 Y105.313 E8.13968
G1 X95.866 Y106.715 E8.32826
G1 X96.329 Y108.228 E8.51620
G1 X96.481 Y109.803 E8.70408
G1 X96.329 Y111.375 E8.89164
G1 X95.867 Y112.885 E9.07931
G1 X95.121 Y114.278 E9.26694
G1 X94.056 Y115.579 E9.46654
G1 X94.056 Y105.200 E10.69914
G1 X92.334 Y102.457 F7800.000
G1 X92.334 Y102.061 E10.74612 F378.000
G1 X94.642 Y103.603 E11.07572
G1 X95.718 Y104.914 E11.27723
G1 X96.530 Y106.440 E11.48252
G1 X97.033 Y108.088 E11.68711
G1 X97.198 Y109.803 E11.89172
G1 X97.033 Y111.515 E12.09599
G1 X96.530 Y113.160 E12.30035
G1 X95.718 Y114.677 E12.50464
G1 X94.641 Y115.992 E12.70651
G1 X91.761 Y117.920 E13.11810
G1 X90.130 Y118.416 E13.32055
G1 X88.414 Y118.580 E13.52536
G1 X86.701 Y118.415 E13.72972
G1 X85.072 Y117.920 E13.93193
G1 X82.197 Y115.992 E14.34302
G1 X81.113 Y114.676 E14.54547
G1 X80.304 Y113.159 E14.74969
G1 X79.802 Y111.515 E14.95385
G1 X79.638 Y109.803 E15.15814
G1 X79.802 Y108.089 E15.36267
G1 X80.304 Y106.441 E15.56727
