; generated by Slic3r 1.1.7 on 2014-11-16 at 18:06:52

; perimeters extrusion width = 0.40mm
; infill extrusion width = 0.42mm
; solid infill extrusion width = 0.42mm
; top infill extrusion width = 0.42mm

G21 ; set units to millimeters
M107
G28 ; home all axes

G90 ; use absolute coordinates
G92 E0
M82 ; use absolute distances for extrusion
G1 F1800.000 E-1.00000
G92 E0
G1 Z0.400 F7800.000
G1 X78.392 Y75.418 F7800.000
G1 E1.00000 F1800.000
G1 X79.288 Y74.525 E1.15026 F1080.000
G1 X80.318 Y73.676 E1.30876
G1 X81.427 Y72.934 E1.46724
G1 X82.599 Y72.309 E1.62500
G1 X83.800 Y71.812 E1.77940
G1 X85.117 Y71.415 E1.94268
G1 X86.357 Y71.171 E2.09283
G1 X87.033 Y71.103 E2.17354
G1 X88.399 Y71.007 E2.33617
G1 X111.837 Y71.228 E5.11988
G1 X113.161 Y71.360 E5.27791 F1080.000
G1 X114.451 Y71.618 E5.43409
G1 X115.717 Y72.004 E5.59138
G1 X116.921 Y72.503 E5.74613
G1 X118.090 Y73.126 E5.90341
G1 X119.190 Y73.861 E6.06061
G1 X120.212 Y74.700 E6.21757
G1 X121.131 Y75.618 E6.37189
G1 X121.982 Y76.653 E6.53103
G1 X122.715 Y77.750 E6.68772
G1 X123.358 Y78.964 E6.85085
G1 X123.824 Y80.095 E6.99615
G1 X124.219 Y81.377 E7.15548
G1 X124.482 Y82.686 E7.31409
G1 X124.641 Y84.432 E7.52229
G1 X125.487 Y109.371 E10.48588
G1 X124.438 Y136.903 E13.75811
G1 X124.088 Y139.416 E14.05947
G1 X123.633 Y140.940 E14.24832
G1 X123.123 Y142.163 E14.40564
G1 X121.832 Y144.354 E14.70777
G1 X120.858 Y145.554 E14.89126
G1 X119.921 Y146.490 E15.04856
G1 X118.841 Y147.375 E15.21439
G1 X117.751 Y148.102 E15.37008
G1 X116.518 Y148.761 E15.53609
G1 X115.307 Y149.263 E15.69179
G1 X113.965 Y149.671 E15.85832
G1 X112.665 Y149.930 E16.01581
G1 X110.600 Y150.097 E16.26184
G1 X87.883 Y149.978 E18.95985
G1 X86.490 Y149.840 E19.12611
G1 X85.206 Y149.584 E19.28161
G1 X82.865 Y148.786 E19.57531
G1 X81.476 Y148.083 E19.76027
G1 X80.170 Y147.213 E19.94652
G1 X79.854 Y146.944 E19.99590
G1 X78.307 Y145.476 E20.24918
G1 X77.416 Y144.395 E20.41561
G1 X76.677 Y143.292 E20.57324
G1 X76.009 Y142.035 E20.74223
G1 X75.515 Y140.839 E20.89599
G1 X75.100 Y139.468 E21.06610
G1 X74.853 Y138.223 E21.21679
G1 X74.713 Y136.824 E21.38375
G1 X74.681 Y136.129 E21.46638
G1 X74.896 Y83.828 E27.67797
G1 X75.027 Y82.507 E27.83570
G1 X75.281 Y81.231 E27.99019
G1 X75.663 Y79.961 E28.14768
G1 X76.156 Y78.762 E28.30170
G1 X76.811 Y77.536 E28.46677
G1 X77.517 Y76.483 E28.61726
G1 X78.354 Y75.464 E28.77390
G1 F1800.000 E27.77390
G92 E0
G1 X113.829 Y140.443 F7800.000
G1 E1.00000 F1800.000
G1 X112.215 Y140.689 E1.19383 F378.000
G1 X110.626 Y141.880 E1.42973
G1 X109.036 Y140.689 E1.66568
G1 X107.421 Y140.444 E1.85971
G1 X107.421 Y131.796 E2.88682
G1 X109.155 Y131.533 E3.09519
G1 X110.626 Y131.462 E3.27003
G1 X112.097 Y131.533 E3.44493
G1 X113.829 Y131.794 E3.65291
G1 X113.829 Y140.383 E4.67303
G1 X113.869 Y140.841 F7800.000
G1 X115.257 Y137.374 F7800.000
G1 X115.257 Y135.085 E4.94498 F540.000
G1 X115.800 Y135.058 E5.00958
G1 X115.918 Y136.253 E5.15216
G1 X115.799 Y137.403 E5.28947
G1 X115.317 Y137.378 E5.34676
G1 X114.543 Y140.909 F7800.000
G1 X114.543 Y131.605 E6.45181 F540.000
G1 X115.619 Y132.920 E6.65374
G1 X116.178 Y133.957 E6.79360
G1 X116.515 Y135.084 E6.93328
G1 X116.636 Y136.253 E7.07287
G1 X116.514 Y137.431 E7.21349
G1 X116.179 Y138.546 E7.35183
G1 X115.613 Y139.597 E7.49355
G1 X114.581 Y140.863 E7.68753
G1 F1800.000 E6.68753
G92 E0
G1 X105.993 Y137.403 F7800.000
G1 E1.00000 F1800.000
G1 X105.449 Y137.430 E1.06460 F540.000
G1 X105.332 Y136.242 E1.20631
G1 X105.450 Y135.056 E1.34791
G1 X105.993 Y135.083 E1.41245
G1 X105.993 Y137.343 E1.68087
G1 X106.707 Y140.906 F7800.000
G1 X105.630 Y139.593 E1.88246 F540.000
G1 X105.074 Y138.550 E2.02289
G1 X104.730 Y137.428 E2.16229
G1 X104.615 Y136.249 E2.30293
G1 X104.729 Y135.086 E2.44166
G1 X105.074 Y133.956 E2.58198
G1 X105.632 Y132.911 E2.72270
G1 X106.707 Y131.596 E2.92439
G1 X106.707 Y140.846 E4.02288
G1 X106.317 Y141.382 F7800.000
G1 X105.864 Y141.011 E4.09240 F378.000
G1 X105.032 Y139.990 E4.24887
G1 X104.411 Y138.825 E4.40558
G1 X104.025 Y137.565 E4.56208
G1 X103.898 Y136.256 E4.71830
G1 X103.915 Y136.042 E4.74384
G1 X104.026 Y134.940 E4.87537
G1 X104.411 Y133.681 E5.03169
G1 X105.032 Y132.519 E5.18817
G1 X105.861 Y131.502 E5.34405
G1 X106.906 Y130.651 E5.50408
G1 X108.047 Y130.049 E5.65727
G1 X109.316 Y129.666 E5.81473
G1 X110.626 Y129.538 E5.97105
G1 X111.679 Y129.640 E6.09667
G1 X111.932 Y129.666 E6.12694 F378.000
G1 X113.198 Y130.047 E6.28399
G1 X114.367 Y130.664 E6.44094
G1 X115.382 Y131.497 E6.59689
G1 X116.211 Y132.516 E6.75294
G1 X116.319 Y132.708 E6.77908
G1 X116.841 Y133.681 E6.91022
G1 X117.217 Y134.940 E7.06620
G1 X117.353 Y136.254 E7.22307
G1 X117.218 Y137.566 E7.37979
G1 X116.841 Y138.824 E7.53574
G1 X116.212 Y139.991 E7.69314
G1 X115.382 Y141.011 E7.84936
G1 X114.363 Y141.846 E8.00586
G1 X113.199 Y142.468 E8.16258
G1 X111.932 Y142.853 E8.31991
G1 X110.625 Y142.981 E8.47583
G1 X109.315 Y142.853 E8.63216
G1 X108.052 Y142.468 E8.78901
G1 X106.888 Y141.846 E8.94575
G1 X106.364 Y141.420 E9.02598
G1 F1800.000 E8.02598
G92 E0
G1 X111.871 Y129.807 F7800.000
G1 X107.064 Y141.120 F7800.000
G1 E1.00000 F1800.000
G1 X108.423 Y141.572 E1.26537 F360.000
G1 X108.645 Y141.622 E1.30757
G1 X109.478 Y142.044 E1.48064
G1 X110.076 Y142.275 E1.59929
G1 X111.178 Y142.274 F7800.000
G1 X111.767 Y142.046 E1.71633 F360.000
G1 X112.605 Y141.622 E1.89029
G1 X112.827 Y141.572 E1.93243
G1 X114.186 Y141.121 E2.19768
G1 X113.663 Y131.075 F7800.000
G1 X112.883 Y130.818 E2.34990 F360.000
G1 X112.158 Y130.654 E2.48759
G1 X111.747 Y130.583 E2.56482
G1 X110.626 Y130.502 E2.77319
G1 X109.498 Y130.584 E2.98273
G1 X109.094 Y130.653 E3.05859
G1 X108.347 Y130.821 E3.20046
G1 X107.565 Y131.078 E3.35302
G1 F1800.000 E2.35302
G92 E0
G1 X90.667 Y140.156 F7800.000
G1 E1.00000 F1800.000
G1 X89.687 Y140.320 E1.11806 F378.000
G1 X88.534 Y140.387 E1.25523
G1 X87.394 Y140.320 E1.39080
G1 X86.850 Y140.234 E1.45621
G1 X86.781 Y140.173 E1.46712
G1 X86.425 Y139.978 E1.51537
G1 X86.425 Y132.546 E2.39802
G1 X87.235 Y131.534 E2.55205
G1 X88.508 Y130.993 E2.71632
G1 X89.979 Y131.551 E2.90317
G1 X90.667 Y132.591 E3.05133
G1 X90.667 Y140.096 E3.94258
G1 X90.711 Y140.553 F7800.000
G1 X84.996 Y140.163 F7800.000
G1 X84.114 Y139.084 E4.10809 F540.000
G1 X83.637 Y138.184 E4.22907
G1 X83.335 Y137.190 E4.35245
G1 X83.231 Y136.168 E4.47454
G1 X83.332 Y135.125 E4.59889
G1 X83.632 Y134.128 E4.72266
G1 X84.133 Y133.189 E4.84901
G1 X84.996 Y132.139 E5.01040
G1 X84.996 Y140.103 E5.95624
G1 X92.095 Y140.158 F7800.000
G1 X92.095 Y132.145 E6.90785 F540.000
G1 X92.967 Y133.208 E7.07106
G1 X93.455 Y134.123 E7.19424
G1 X93.756 Y135.127 E7.31876
G1 X93.856 Y136.146 E7.44039
G1 X93.758 Y137.176 E7.56323
G1 X93.451 Y138.190 E7.68911
G1 X92.948 Y139.122 E7.81476
G1 X92.133 Y140.111 E7.96703
G1 X91.381 Y140.760 F7800.000
G1 X91.381 Y132.377 E8.96273 F540.000
G1 X90.029 Y130.333 E9.25378
G1 X90.850 Y130.579 E9.35554
G1 X91.818 Y131.138 E9.48833
G1 X92.801 Y131.879 E9.63452
G1 X93.562 Y132.807 E9.77703
G1 X93.671 Y133.009 E9.80430
G1 X94.118 Y133.847 E9.91702
G1 X94.460 Y134.985 E10.05815
G1 X94.574 Y136.148 E10.19699
G1 X94.461 Y137.319 E10.33667
G1 X94.114 Y138.464 E10.47873
G1 X93.549 Y139.516 E10.62057
G1 X92.823 Y140.397 E10.75620
G1 X91.978 Y141.076 E10.88494
G1 X91.866 Y141.138 E10.90014
G1 X91.872 Y141.154 E10.90209
G1 X91.506 Y141.366 E10.95232
G1 X90.777 Y141.741 E11.04967
G1 X89.724 Y142.060 E11.18036
G1 X88.546 Y142.177 E11.32097
G1 X87.372 Y142.060 E11.46101
G1 X86.218 Y141.711 E11.60426
G1 X85.140 Y141.163 E11.74789
G1 X84.282 Y140.418 E11.88282
G1 X83.521 Y139.489 E12.02550
G1 X82.974 Y138.459 E12.16396
G1 X82.631 Y137.329 E12.30414
G1 X82.514 Y136.164 E12.44322
G1 X82.629 Y134.983 E12.58418
G1 X82.971 Y133.851 E12.72467
G1 X83.534 Y132.793 E12.86698
G1 X84.280 Y131.887 E13.00640
G1 X85.178 Y131.142 E13.14494
G1 X86.235 Y130.581 E13.28704
G1 X86.675 Y130.448 E13.34158
G1 X86.910 Y130.797 E13.39154
G1 X85.710 Y132.296 E13.61954
G1 X85.710 Y140.402 E14.58226
G1 X86.369 Y140.762 E14.67140
G1 X86.534 Y140.907 E14.69746
G1 X87.320 Y141.031 E14.79202
G1 X88.532 Y141.103 E14.93614
G1 X89.391 Y141.058 E15.03833
G1 X89.764 Y141.031 E15.08280
G1 X91.322 Y140.770 E15.27036
G1 X92.035 Y141.885 F7800.000
G1 X91.120 Y142.381 E15.39389 F378.000
G1 X89.862 Y142.764 E15.55015
G1 X88.546 Y142.895 E15.70720
G1 X87.232 Y142.764 E15.86404
G1 X85.956 Y142.378 E16.02230
G1 X84.742 Y141.763 E16.18398
G1 X83.773 Y140.923 E16.33618
G1 X82.929 Y139.897 E16.49409
G1 X82.311 Y138.734 E16.65040
G1 X81.927 Y137.468 E16.80756
G1 X81.797 Y136.157 E16.96401
G1 X81.926 Y134.839 E17.12134
G1 X82.310 Y133.572 E17.27858
G1 X82.934 Y132.399 E17.43627
G1 X83.697 Y131.470 E17.57907
G1 X83.773 Y131.381 E17.59300
G1 X84.767 Y130.539 E17.74776
G1 X85.961 Y129.917 E17.90764
G1 X87.227 Y129.534 E18.06466
G1 X88.549 Y129.405 E18.22242
G1 X88.655 Y129.413 E18.23512
G1 X89.860 Y129.534 E18.37888 F378.000
G1 X91.126 Y129.916 E18.53594
G1 X92.212 Y130.541 E18.68474
G1 X93.234 Y131.311 E18.83677
G1 X93.315 Y131.379 E18.84931
G1 X94.157 Y132.404 E19.00685
G1 X94.780 Y133.570 E19.16383
G1 X95.163 Y134.839 E19.32127
G1 X95.291 Y136.151 E19.47784
G1 X95.176 Y137.354 E19.62130
G1 X95.164 Y137.464 E19.63449
G1 X94.779 Y138.736 E19.79231
G1 X94.152 Y139.906 E19.94995
G1 X93.322 Y140.916 E20.10520
G1 X92.382 Y141.668 E20.24816
G1 X92.086 Y141.855 E20.28970
G1 F1800.000 E19.28970
G92 E0
G1 X89.008 Y129.602 F7800.000
G1 X89.507 Y130.693 F7800.000
G1 E1.00000 F1800.000
G1 X88.999 Y130.286 E1.12071 F360.000
G1 X88.554 Y130.188 E1.20504
G1 X88.333 Y130.214 E1.24639
G1 X87.151 Y130.516 E1.47233
G1 F1800.000 E0.47233
G92 E0
G1 X92.795 Y134.351 F7800.000
G1 E1.00000 F1800.000
G1 X92.931 Y135.288 E1.17557 F360.000
G1 X92.974 Y136.147 E1.33494
G1 X92.933 Y137.012 E1.49534
G1 X92.794 Y137.949 E1.67076
G1 F1800.000 E0.67076
G92 E0
G1 X84.298 Y137.957 F7800.000
G1 E1.00000 F1800.000
G1 X84.160 Y137.026 E1.17444 F360.000
G1 X84.116 Y136.166 E1.33411
G1 X84.158 Y135.289 E1.49669
G1 X84.297 Y134.343 E1.67383
G1 F1800.000 E0.67383
G92 E0
G1 X94.118 Y114.636 F7800.000
G1 E1.00000 F1800.000
G1 X93.360 Y115.070 E1.10380 F378.000
G1 X92.774 Y115.289 E1.17802
G1 X91.257 Y115.625 E1.36262
G1 X89.686 Y115.733 E1.54957
G1 X88.128 Y115.625 E1.73509
G1 X86.621 Y115.292 E1.91838
G1 X85.749 Y114.966 E2.02893
G1 X85.268 Y114.597 E2.10101
G1 X85.268 Y106.054 E3.11557
G1 X85.720 Y105.707 E3.18330
G1 X86.622 Y105.356 E3.29818
G1 X88.127 Y105.033 E3.48104
G1 X89.687 Y104.920 E3.66678
G1 X91.257 Y105.033 E3.85373
G1 X92.757 Y105.356 E4.03598
G1 X93.376 Y105.595 E4.11477
G1 X94.118 Y106.020 E4.21636
G1 X94.118 Y114.576 E5.23252
G1 X94.254 Y115.012 F7800.000
G1 F1800.000 E4.23252
G92 E0
G1 X84.553 Y105.275 F7800.000
G1 E1.00000 F1800.000
G1 X84.553 Y114.625 E2.11046 F540.000
G1 X83.823 Y113.739 E2.24682
G1 X83.172 Y112.519 E2.41096
G1 X82.770 Y111.200 E2.57476
G1 X82.638 Y109.824 E2.73891
G1 X82.770 Y108.448 E2.90311
G1 X83.173 Y107.123 E3.06764
G1 X83.824 Y105.902 E3.23194
G1 X84.689 Y104.847 E3.39392
G1 X85.535 Y104.283 E3.51470
G1 X88.313 Y103.434 E3.85971
G1 X89.688 Y103.296 E4.02381
G1 X91.067 Y103.434 E4.18843
G1 X93.823 Y104.275 E4.53067
G1 X94.717 Y104.874 E4.65841
G1 X95.555 Y105.896 E4.81550
G1 X96.208 Y107.123 E4.98049
G1 X96.613 Y108.447 E5.14491
G1 X96.745 Y109.824 E5.30928
G1 X96.613 Y111.199 E5.47337
G1 X96.208 Y112.521 E5.63755
G1 X95.556 Y113.740 E5.80170
G1 X94.832 Y114.623 E5.93730
G1 X94.832 Y105.207 E7.05556
G1 X94.605 Y105.476 E7.09730
G1 X93.707 Y104.962 E7.22024
G1 X92.960 Y104.669 E7.31556
G1 X91.359 Y104.325 E7.51007
G1 X89.685 Y104.204 E7.70929
G1 X88.025 Y104.325 E7.90699
G1 X86.417 Y104.670 E8.10228
G1 X85.345 Y105.095 E8.23933
G1 X84.791 Y105.520 E8.32223
G1 X84.595 Y105.318 E8.35565
G1 X86.160 Y103.345 F7800.000
G1 X88.172 Y102.730 E8.60557 F378.000
G1 X89.687 Y102.578 E8.78641
G1 X91.207 Y102.730 E8.96778
G1 X93.221 Y103.345 E9.21790
G1 X93.221 Y103.014 E9.25722
G1 X95.202 Y104.339 E9.54020
G1 X96.152 Y105.498 E9.71826
G1 X96.871 Y106.849 E9.89997
G1 X97.317 Y108.307 E10.08104
G1 X97.463 Y109.824 E10.26214
G1 X97.317 Y111.340 E10.44293
G1 X96.871 Y112.796 E10.62380
G1 X96.152 Y114.138 E10.80462
G1 X95.201 Y115.300 E10.98303
G1 X93.828 Y116.225 E11.17957
G1 X92.649 Y117.009 E11.34783
G1 X91.207 Y117.447 E11.52674
G1 X89.688 Y117.593 E11.70800
G1 X88.172 Y117.447 E11.88888
G1 X86.733 Y117.009 E12.06759
G1 X84.185 Y115.301 E12.43193
G1 X83.227 Y114.138 E12.61086
G1 X82.510 Y112.795 E12.79162
G1 X82.066 Y111.340 E12.97231
G1 X81.920 Y109.824 E13.15312
G1 X82.066 Y108.307 E13.33414
G1 X82.510 Y106.849 E13.51523
G1 X83.227 Y105.504 E13.69619
G1 X84.204 Y104.312 E13.87920
G1 X86.160 Y103.006 E14.15856
G1 X86.160 Y103.285 E14.19168
G1 X86.239 Y103.737 F7800.000
G1 F1800.000 E13.19168
G92 E0
G1 X95.530 Y107.293 F7800.000
G1 E1.00000 F1800.000
G1 X95.729 Y108.622 E1.24894 F360.000
G1 X95.787 Y109.824 E1.47188
G1 X95.729 Y111.023 E1.69436
G1 X95.530 Y112.351 E1.94311
G1 X94.475 Y115.095 F7800.000
G1 X93.638 Y115.616 E2.00874 F360.000
G1 X93.029 Y115.927 E2.05418
G1 X93.032 Y115.932 F7800.000
G1 X92.290 Y116.250 E2.20362 F360.000
G1 X91.344 Y116.494 E2.38463
G1 X91.030 Y116.552 E2.44392
G1 X89.689 Y116.662 E2.69313
G1 X88.350 Y116.551 E2.94214
G1 X88.042 Y116.495 E3.00001
G1 X87.092 Y116.250 E3.18185
G1 X86.354 Y115.933 E3.33064
G1 X86.356 Y115.929 F7800.000
G1 X85.497 Y115.488 E3.39486 F360.000
G1 X84.910 Y115.072 E3.44269
G1 X83.855 Y112.366 F7800.000
G1 X83.655 Y111.024 E3.69392 F360.000
G1 X83.598 Y109.824 E3.91656
G1 X83.655 Y108.624 E4.13929
G1 X83.855 Y107.281 E4.39083
G1 F1800.000 E3.39083
G92 E0
G1 X106.055 Y104.301 F7800.000
G1 E1.00000 F1800.000
G1 X106.686 Y103.974 E1.08438 F378.000
G1 X107.527 Y103.652 E1.19143
G1 X109.050 Y103.321 E1.37645
G1 X110.611 Y103.208 E1.56237
G1 X112.171 Y103.321 E1.74815
G1 X113.623 Y103.635 E1.92455
G1 X114.254 Y103.862 E2.00421
G1 X115.086 Y104.305 E2.11608
G1 X115.086 Y112.956 E3.14359
G1 X114.252 Y113.399 E3.25567
G1 X113.675 Y113.617 E3.32893
G1 X112.173 Y113.941 E3.51149
G1 X110.609 Y114.055 E3.69766
G1 X109.049 Y113.941 E3.88350
G1 X107.545 Y113.617 E4.06614
G1 X106.710 Y113.294 E4.17254
G1 X106.055 Y112.961 E4.25977
G1 X106.055 Y104.361 E5.28115
G1 X105.929 Y103.921 F7800.000
G1 X106.069 Y113.770 F7800.000
G1 X106.418 Y113.947 E5.32763 F540.000
G1 X107.340 Y114.304 E5.44503
G1 X108.946 Y114.650 E5.64009
G1 X110.605 Y114.771 E5.83763
G1 X112.275 Y114.650 E6.03650
G1 X113.879 Y114.304 E6.23135
G1 X114.542 Y114.053 E6.31558
G1 X115.217 Y113.696 E6.40627
G1 X115.498 Y114.152 E6.46995
G1 X114.819 Y114.633 E6.56880
G1 X111.984 Y115.497 E6.92072
G1 X110.613 Y115.629 E7.08435
G1 X109.237 Y115.491 E7.24864
G1 X106.308 Y114.604 E7.61201
G1 X105.792 Y114.213 E7.68891
G1 X106.038 Y113.821 E7.74385
G1 X115.800 Y113.845 F7800.000
G1 X115.800 Y104.389 E8.86692 F540.000
G1 X116.467 Y105.203 E8.99190
G1 X117.119 Y106.417 E9.15565
G1 X117.517 Y107.741 E9.31986
G1 X117.657 Y109.118 E9.48422
G1 X117.517 Y110.492 E9.64828
G1 X117.119 Y111.813 E9.81208
G1 X116.467 Y113.030 E9.97614
G1 X115.838 Y113.799 E10.09405
G1 X105.341 Y113.743 F7800.000
G1 X104.754 Y113.030 E10.20375 F540.000
G1 X104.106 Y111.807 E10.36813
G1 X103.703 Y110.491 E10.53165
G1 X103.571 Y109.119 E10.69532
G1 X103.703 Y107.742 E10.85962
G1 X104.105 Y106.418 E11.02389
G1 X104.755 Y105.200 E11.18787
G1 X105.341 Y104.489 E11.29724
G1 X105.341 Y113.683 E12.38917
G1 X107.088 Y115.588 F7800.000
G1 X107.088 Y116.084 E12.44808 F378.000
G1 X105.120 Y114.599 E12.74089
G1 X104.158 Y113.429 E12.92084
G1 X103.442 Y112.081 E13.10202
G1 X102.999 Y110.631 E13.28213
G1 X102.854 Y109.119 E13.46258
G1 X102.999 Y107.603 E13.64343
G1 X103.442 Y106.143 E13.82457
G1 X104.158 Y104.802 E14.00510
G1 X105.109 Y103.648 E14.18269
G1 X107.660 Y101.941 E14.54729
G1 X109.098 Y101.507 E14.72565
G1 X110.613 Y101.357 E14.90650
G1 X112.124 Y101.507 E15.08680
G1 X113.535 Y101.931 E15.26180
G1 X114.464 Y102.489 E15.39051
G1 X116.110 Y103.641 E15.62918
G1 X117.063 Y104.803 E15.80766
G1 X117.783 Y106.143 E15.98821
G1 X118.221 Y107.603 E16.16924
G1 X118.375 Y109.118 E16.35018
G1 X118.221 Y110.632 E16.53086
