; generated by Slic3r 1.1.7 on 2014-11-18 at 18:29:22

; perimeters extrusion width = 0.40mm
; infill extrusion width = 0.42mm
; solid infill extrusion width = 0.42mm
; top infill extrusion width = 0.42mm

G21 ; set units to millimeters
M107
G28 ; home all axes

G90 ; use absolute coordinates
G92 E0
M82 ; use absolute distances for extrusion
G1 F1800.000 E-1.00000
G92 E0
G1 Z0.400 F7800.000
G1 X73.915 Y69.622 F7800.000
G1 E1.00000 F1800.000
G1 X74.840 Y68.698 E1.15526 F1080.000
G1 X75.760 Y67.952 E1.29586
G1 X77.196 Y66.923 E1.50572
G1 X78.528 Y66.191 E1.68626
G1 X81.166 Y65.099 E2.02537
G1 X82.145 Y64.809 E2.14659
G1 X83.400 Y64.564 E2.29851
G1 X85.734 Y64.351 E2.57678
G1 X116.883 Y63.408 E6.27793
G1 X118.053 Y63.475 E6.41708
G1 X119.941 Y63.752 E6.64374 F1080.000
G1 X121.205 Y64.067 E6.79846
G1 X122.999 Y64.707 E7.02468
G1 X124.174 Y65.263 E7.17903
G1 X125.800 Y66.233 E7.40391
G1 X126.870 Y67.026 E7.56208
G1 X128.276 Y68.304 E7.78775
G1 X129.154 Y69.275 E7.94319
G1 X130.276 Y70.792 E8.16728
G1 X130.936 Y71.889 E8.31943
G1 X131.770 Y73.645 E8.55019
G1 X132.202 Y74.858 E8.70314
G1 X132.846 Y77.806 E9.06152
G1 X136.491 Y124.639 E14.64052
G1 X136.353 Y126.613 E14.87553
G1 X135.054 Y132.458 E15.58662
G1 X132.414 Y142.898 E16.86554
G1 X130.951 Y148.510 E17.55433
G1 X129.993 Y150.611 E17.82855
G1 X129.245 Y151.520 E17.96835
G1 X129.040 Y151.726 E18.00287
G1 X127.802 Y152.687 E18.18904
G1 X127.680 Y152.761 E18.20600
G1 X125.527 Y153.596 E18.48023
G1 X124.148 Y153.727 E18.64476
G1 X69.913 Y153.225 E25.08625
G1 X67.642 Y152.807 E25.36047
G1 X65.647 Y151.645 E25.63470
G1 X64.164 Y149.875 E25.90892
G1 X63.368 Y147.708 E26.18315
G1 X63.261 Y146.511 E26.32577
G1 X63.294 Y137.181 E27.43391
G1 X66.424 Y103.674 E31.43076
G1 X66.685 Y101.319 E31.71205
G1 X70.026 Y76.881 E34.64145
G1 X70.579 Y75.066 E34.86683
G1 X71.082 Y73.853 E35.02282
G1 X71.975 Y72.185 E35.24748
G1 X72.709 Y71.089 E35.40418
G1 X73.877 Y69.668 E35.62261
G1 F1800.000 E34.62261
G92 E0
G1 X125.194 Y131.859 F7800.000
G1 E1.00000 F1800.000
G1 X125.284 Y132.859 E1.11928 F540.000
G1 X123.056 Y141.677 E2.19941
G1 X122.795 Y142.251 E2.27437
G1 X121.912 Y142.566 E2.38574
G1 X116.990 Y141.319 E2.98870
G1 X116.597 Y141.289 E3.03556
G1 X113.801 Y140.577 E3.37816
G1 X113.731 Y140.456 E3.39472
G1 X110.859 Y139.722 E3.74682
G1 X111.302 Y138.020 E3.95573
G1 X111.264 Y137.839 E3.97766
G1 X112.498 Y133.090 E4.56043
G1 X113.280 Y129.916 E4.94868
G1 X113.994 Y129.113 E5.07626
G1 X116.875 Y129.848 E5.42935
G1 X119.268 Y130.370 E5.72025
G1 X119.512 Y130.336 E5.74955
G1 X120.050 Y130.427 E5.81439
G1 X122.543 Y131.046 E6.11944
G1 X125.137 Y131.841 E6.44162
G1 X124.526 Y132.401 F7800.000
G1 X124.562 Y132.801 E6.48939 F378.000
G1 X122.620 Y140.522 E7.43493
G1 X122.380 Y141.437 E7.54719
G1 X122.270 Y141.680 E7.57893
G1 X121.877 Y141.820 E7.62844
G1 X117.144 Y140.622 E8.20827
G1 X116.710 Y140.581 E8.26006
G1 X114.267 Y139.958 E8.55951
G1 X114.197 Y139.838 E8.57603
G1 X111.731 Y139.208 E8.87835
G1 X112.036 Y138.037 E9.02211
G1 X111.997 Y137.854 E9.04424
G1 X113.190 Y133.266 E9.60723
G1 X113.931 Y130.259 E9.97514
G1 X114.239 Y129.913 E10.03010
G1 X116.710 Y130.544 E10.33304
G1 X119.241 Y131.095 E10.64062
G1 X119.502 Y131.058 E10.67197
G1 X119.903 Y131.126 E10.72023
G1 X122.378 Y131.742 E11.02312
G1 X124.468 Y132.383 E11.28284
G1 X124.925 Y132.417 F7800.000
G1 X123.611 Y142.719 F7800.000
G1 X123.071 Y144.837 E11.54243 F540.000
G1 X119.952 Y144.043 E11.92470
G1 X119.820 Y144.130 E11.94349
G1 X116.304 Y143.232 E12.37435
G1 X112.648 Y142.288 E12.82287
G1 X112.523 Y142.113 E12.84841
G1 X109.628 Y141.377 E13.20314
G1 X109.923 Y140.220 E13.34490
G1 X113.265 Y141.074 E13.75461
G1 X113.336 Y141.195 E13.77121
G1 X116.483 Y141.997 E14.15696
G1 X116.857 Y142.023 E14.20153
G1 X121.946 Y143.312 E14.82496
G1 X123.555 Y142.739 E15.02780
G1 X125.863 Y131.317 F7800.000
G1 X122.709 Y130.350 E15.41956 F540.000
G1 X122.527 Y130.319 E15.44146
G1 X120.198 Y129.728 E15.72684
G1 X119.522 Y129.613 E15.80824
G1 X119.295 Y129.645 E15.83551
G1 X117.039 Y129.153 E16.10973
G1 X113.749 Y128.314 E16.51296
G1 X113.112 Y129.031 E16.62688
G1 X112.715 Y128.820 E16.68019
G1 X113.140 Y127.149 E16.88496
G1 X113.277 Y126.741 E16.93607
G1 X114.188 Y123.165 E17.37428
G1 X117.383 Y123.976 E17.76576
G1 X117.541 Y123.831 E17.79125
G1 X121.221 Y124.771 E18.24244
G1 X121.314 Y124.735 E18.25429
G1 X124.927 Y125.657 E18.69711
G1 X125.134 Y125.742 E18.72375
G1 X127.602 Y126.370 E19.02622
G1 X126.567 Y130.432 E19.52407
G1 X126.685 Y130.707 E19.55960
G1 X126.389 Y131.867 E19.70174
G1 X125.908 Y131.828 E19.75895
G1 X125.868 Y131.376 E19.81281
G1 X128.471 Y125.854 F7800.000
G1 X127.319 Y130.374 E20.36671 F540.000
G1 X127.437 Y130.649 E20.40226
G1 X126.134 Y135.750 E21.02752
G1 X126.120 Y135.886 E21.04382
G1 X124.840 Y140.916 E21.66026
G1 X124.696 Y141.357 E21.71537
G1 X123.587 Y145.705 E22.24823
G1 X120.080 Y144.813 E22.67806
G1 X119.947 Y144.899 E22.69689
G1 X112.218 Y142.916 E23.64460
G1 X112.093 Y142.741 E23.67007
G1 X108.760 Y141.893 E24.07851
G1 X109.914 Y137.357 E24.63440
G1 X109.853 Y137.225 E24.65170
G1 X111.155 Y132.139 E25.27523
G1 X111.170 Y131.999 E25.29191
G1 X112.456 Y126.942 E25.91160
G1 X112.595 Y126.524 E25.96391
G1 X113.672 Y122.298 E26.48189
G1 X117.184 Y123.189 E26.91222
G1 X117.342 Y123.043 E26.93780
G1 X121.174 Y124.022 E27.40747
G1 X121.267 Y123.985 E27.41931
G1 X125.120 Y124.969 E27.89165
G1 X125.375 Y125.066 E27.92403
G1 X128.413 Y125.839 E28.29635
G1 X129.339 Y125.338 F7800.000
G1 X128.071 Y130.315 E28.90630 F378.000
G1 X128.167 Y130.538 E28.93512
G1 X128.147 Y130.754 E28.96089
G1 X126.839 Y135.874 E29.58852
G1 X126.825 Y136.010 E29.60477
G1 X125.530 Y141.101 E30.22856
G1 X125.377 Y141.574 E30.28767
G1 X124.103 Y146.573 E30.90032
G1 X120.207 Y145.582 E31.37772
G1 X120.118 Y145.640 E31.39039
G1 X119.916 Y145.629 E31.41434
G1 X111.787 Y143.543 E32.41106
G1 X111.663 Y143.368 E32.43647
G1 X107.892 Y142.409 E32.89862
G1 X109.159 Y137.427 E33.50914
G1 X109.120 Y137.343 E33.52010
G1 X109.138 Y137.136 E33.54476
G1 X110.450 Y132.013 E34.17287
G1 X110.465 Y131.874 E34.18949
G1 X111.766 Y126.758 E34.81638
G1 X111.913 Y126.307 E34.87271
G1 X113.156 Y121.430 E35.47046
G1 X116.985 Y122.401 E35.93964
G1 X117.144 Y122.255 E35.96532
G1 X121.126 Y123.273 E36.45348
G1 X121.172 Y123.255 E36.45928
G1 X121.304 Y123.258 E36.47497
G1 X125.271 Y124.269 E36.96121
G1 X125.471 Y124.324 E36.98583
G1 X125.615 Y124.391 E37.00469
G1 X129.281 Y125.324 E37.45398
G1 X129.060 Y125.625 F7800.000
G1 F1800.000 E36.45398
G92 E0
G1 X110.556 Y137.892 F7800.000
G1 E1.00000 F1800.000
G1 X110.044 Y139.882 E1.13671 F360.000
G1 X110.498 Y137.767 F7800.000
G1 X111.753 Y132.900 E2.06792 F360.000
G1 X112.670 Y129.200 E2.77424
G1 X126.120 Y132.203 F7800.000
G1 X126.045 Y132.989 E2.92058 F360.000
G1 X124.100 Y140.710 E4.39581
G1 X123.881 Y141.429 E4.53501
G1 X126.945 Y126.717 F7800.000
G1 X126.989 Y126.761 E4.54242 F1080.000
G1 X126.780 Y127.582 E4.64304
G1 X125.563 Y126.365 E4.84741
G1 X124.137 Y125.969 E5.02319
G1 X126.571 Y128.403 E5.43194
G1 X126.361 Y129.224 E5.53256
G1 X122.754 Y125.616 E6.13853
G1 X121.370 Y125.263 E6.30810
G1 X126.152 Y130.045 E7.11128
G1 X125.878 Y130.801 E7.20680
G1 X120.068 Y124.990 E8.18274
G1 X118.684 Y124.637 E8.35238
G1 X124.393 Y130.345 E9.31122
G1 X122.907 Y129.890 E9.49576
G1 X117.532 Y124.515 E10.39855
G1 X116.168 Y124.181 E10.56529
G1 X121.542 Y129.555 E11.46788
G1 X120.176 Y129.219 E11.63499
G1 X114.788 Y123.831 E12.53994
G1 X114.374 Y124.448 E12.62813
G1 X118.997 Y129.071 E13.40455
G1 X117.680 Y128.784 E13.56470
G1 X114.165 Y125.269 E14.15496
G1 X113.956 Y126.090 E14.25559
G1 X116.323 Y128.457 E14.65306
G1 X114.940 Y128.104 E14.82259
G1 X113.745 Y126.910 E15.02318
G1 X113.512 Y127.707 E15.12181
G1 X113.556 Y127.751 E15.12923
G1 X110.121 Y140.887 F7800.000
G1 X112.797 Y141.569 E15.31288 F360.000
G1 X112.872 Y141.595 E15.31821
G1 X113.039 Y141.754 E15.33352
G1 X116.362 Y142.602 E15.56166
G1 X116.753 Y142.671 E15.58807
G1 X119.702 Y143.419 E15.79045
G1 X119.948 Y143.422 E15.80684
G1 X122.115 Y143.974 E15.95558
G1 F1800.000 E14.95558
G92 E0
G1 X121.669 Y111.690 F7800.000
G1 E1.00000 F1800.000
G1 X118.831 Y112.121 E1.34094 F540.000
G1 X116.127 Y114.145 E1.74210
G1 X113.424 Y112.122 E2.14308
G1 X110.583 Y111.690 E2.48443
G1 X110.583 Y97.227 E4.20209
G1 X113.754 Y96.747 E4.58297
G1 X116.130 Y96.638 E4.86543
G1 X118.499 Y96.747 E5.14716
G1 X119.887 Y96.968 E5.31411
G1 X121.669 Y97.219 E5.52780
G1 X121.669 Y111.630 E7.23937
G1 X120.955 Y111.076 F7800.000
G1 X118.546 Y111.442 E7.52871 F378.000
G1 X116.127 Y113.249 E7.88733
G1 X113.708 Y111.442 E8.24588
G1 X111.297 Y111.076 E8.53553
G1 X111.297 Y97.843 E10.10717
G1 X113.826 Y97.459 E10.41101
G1 X116.128 Y97.353 E10.68464
G1 X118.427 Y97.459 E10.95802
G1 X120.955 Y97.840 E11.26161
G1 X120.955 Y111.016 E12.82650
G1 X120.995 Y111.474 F7800.000
G1 F1800.000 E11.82650
G92 E0
G1 X113.691 Y113.211 F7800.000
G1 E1.00000 F1800.000
G1 X113.474 Y113.640 E1.05706 F540.000
G1 X112.521 Y113.350 E1.17536
G1 X112.093 Y113.122 E1.23292
G1 X112.245 Y112.665 E1.29019
G1 X113.141 Y112.801 E1.39781
G1 X113.643 Y113.175 E1.47218
G1 X109.869 Y111.821 F7800.000
G1 X108.302 Y109.906 E1.76604 F540.000
G1 X107.427 Y108.262 E1.98725
G1 X106.890 Y106.509 E2.20502
G1 X106.707 Y104.662 E2.42537
G1 X106.888 Y102.851 E2.64152
G1 X107.429 Y101.078 E2.86175
G1 X108.297 Y99.446 E3.08129
G1 X109.869 Y97.524 E3.37617
G1 X109.869 Y111.761 E5.06711
G1 X118.565 Y113.209 F7800.000
G1 X119.115 Y112.799 E5.14857 F540.000
G1 X120.016 Y112.663 E5.25675
G1 X120.168 Y113.120 E5.31394
G1 X119.737 Y113.349 E5.37183
G1 X118.782 Y113.638 E5.49042
G1 X118.592 Y113.263 E5.54030
G1 X122.383 Y111.817 F7800.000
G1 X122.383 Y97.543 E7.23559 F540.000
G1 X123.958 Y99.462 E7.53050
G1 X124.831 Y101.079 E7.74869
G1 X125.362 Y102.849 E7.96818
G1 X125.551 Y104.664 E8.18493
G1 X125.358 Y106.519 E8.40639
G1 X124.834 Y108.256 E8.62193
G1 X123.945 Y109.907 E8.84462
G1 X122.421 Y111.771 E9.13047
G1 F1800.000 E8.13047
G92 E0
G1 X121.555 Y102.670 F7800.000
G1 X118.555 Y105.391 F7800.000
G1 X115.361 Y99.788 F7800.000
G1 X115.226 Y96.791 F7800.000
G1 X117.602 Y95.993 F7800.000
G1 E1.00000 F1800.000
G1 X116.131 Y95.923 E1.17486 F540.000
G1 X114.747 Y95.985 E1.33942
G1 X114.707 Y95.429 E1.40567
G1 X116.127 Y95.292 E1.57513
G1 X117.642 Y95.437 E1.75579
G1 X117.606 Y95.934 E1.81493
G1 X117.723 Y94.727 F7800.000
G1 X118.096 Y94.767 E1.85950 F540.000
G1 X120.002 Y95.340 E2.09594
G1 X121.772 Y96.272 E2.33344
G1 X123.295 Y97.512 E2.56673
G1 X124.550 Y99.057 E2.80307
G1 X125.495 Y100.805 E3.03902
G1 X126.062 Y102.698 E3.27381
G1 X126.270 Y104.670 E3.50927
G1 X126.063 Y106.650 E3.74570
G1 X125.496 Y108.534 E3.97937
G1 X124.547 Y110.296 E4.21708
G1 X123.304 Y111.822 E4.45079
G1 X121.762 Y113.078 E4.68700
G1 X120.009 Y114.012 E4.92290
G1 X118.097 Y114.593 E5.16029
G1 X116.324 Y114.767 E5.37180
G1 X116.309 Y114.805 E5.37666
G1 X116.125 Y114.787 E5.39868
G1 X115.946 Y114.805 E5.41998
G1 X115.932 Y114.768 E5.42469
G1 X114.157 Y114.594 E5.63652
G1 X112.248 Y114.013 E5.87353
G1 X110.498 Y113.080 E6.10904
G1 X108.951 Y111.825 E6.34557
G1 X107.699 Y110.297 E6.58019
G1 X106.765 Y108.538 E6.81670
G1 X106.186 Y106.648 E7.05147
G1 X105.990 Y104.671 E7.28751
G1 X106.185 Y102.704 E7.52228
G1 X106.765 Y100.804 E7.75819
G1 X107.698 Y99.052 E7.99393
G1 X108.940 Y97.531 E8.22714
G1 X110.523 Y96.247 E8.46915
G1 X111.972 Y95.466 E8.66474
G1 X112.223 Y95.349 E8.69761
G1 X113.901 Y94.841 E8.90581
G1 X114.147 Y94.770 E8.93620
G1 X114.513 Y94.730 E8.97991
G1 X116.127 Y94.575 E9.17252 F540.000
G1 X117.663 Y94.721 E9.35574
G1 X117.790 Y94.016 F7800.000
G1 X117.825 Y94.020 E9.35984 F378.000
G1 X118.239 Y94.065 E9.40935 F378.000
G1 X120.278 Y94.678 E9.66216
G1 X122.164 Y95.670 E9.91526
G1 X123.808 Y97.009 E10.16710
G1 X125.145 Y98.656 E10.41902
G1 X126.158 Y100.530 E10.67199
G1 X126.766 Y102.559 E10.92353
G1 X126.988 Y104.672 E11.17596
G1 X126.766 Y106.790 E11.42879
G1 X126.158 Y108.811 E11.67952
G1 X125.144 Y110.693 E11.93336
G1 X123.809 Y112.332 E12.18445
G1 X122.160 Y113.675 E12.43705
G1 X120.281 Y114.676 E12.68987
G1 X118.240 Y115.297 E12.94324
G1 X116.126 Y115.505 E13.19550
G1 X114.014 Y115.297 E13.44756
G1 X111.974 Y114.677 E13.70083
G1 X110.099 Y113.676 E13.95323
G1 X108.444 Y112.333 E14.20636
G1 X107.100 Y110.692 E14.45830
G1 X106.102 Y108.813 E14.71092
G1 X105.482 Y106.789 E14.96231
G1 X105.272 Y104.672 E15.21498
G1 X105.482 Y102.560 E15.46712
G1 X106.102 Y100.529 E15.71923
G1 X107.100 Y98.655 E15.97144
G1 X108.440 Y97.014 E16.22303
G1 X110.123 Y95.651 E16.48029
G1 X111.666 Y94.820 E16.68841
G1 X111.966 Y94.681 E16.72766
G1 X114.012 Y94.066 E16.98144
G1 X116.127 Y93.858 E17.23381
G1 X117.731 Y94.011 E17.42514
G1 X117.988 Y94.385 F7800.000
G1 X122.901 Y98.990 F7800.000
G1 X123.045 Y99.134 E17.44935 F1080.000
G1 X122.881 Y100.004 E17.55450
G1 X124.464 Y101.587 E17.82036
G1 X124.881 Y103.038 E17.99974
G1 X122.881 Y101.038 E18.33570
G1 X122.881 Y102.072 E18.45852
G1 X125.002 Y104.193 E18.81470
G1 X124.993 Y105.219 E18.93651
G1 X122.881 Y103.106 E19.29126
G1 X122.881 Y104.141 E19.41409
G1 X124.896 Y106.155 E19.75247
G1 X124.696 Y106.990 E19.85440
G1 X122.881 Y105.175 E20.15928
G1 X122.881 Y106.209 E20.28211
G1 X124.457 Y107.785 E20.54673
G1 X124.138 Y108.500 E20.63974
G1 X122.881 Y107.243 E20.85080
G1 X122.881 Y108.277 E20.97362
G1 X123.776 Y109.172 E21.12386
G1 X123.380 Y109.811 E21.21310
G1 X122.881 Y109.312 E21.29698
G1 X122.881 Y110.346 E21.41980
G1 X122.901 Y110.366 E21.42316
G1 X120.439 Y96.352 F7800.000
G1 X119.685 Y96.103 E21.57027 F360.000
G1 X118.620 Y95.859 E21.77273
G1 X117.977 Y95.749 E21.89356
G1 X114.371 Y95.730 F7800.000
G1 X113.634 Y95.859 E22.03214 F360.000
G1 X112.518 Y96.113 E22.24429
G1 X111.777 Y96.353 E22.38859
G1 X109.351 Y98.975 F7800.000
G1 X109.371 Y98.995 E22.39195 F1080.000
G1 X108.871 Y99.531 E22.47900
G1 X109.371 Y100.031 E22.56300
G1 X108.475 Y100.171 E22.67069
G1 X109.371 Y101.067 E22.82116
G1 X109.371 Y102.103 E22.94419
G1 X108.115 Y100.847 E23.15511
G1 X107.800 Y101.567 E23.24851
G1 X109.371 Y103.139 E23.51243
G1 X109.371 Y104.175 E23.63547
G1 X107.558 Y102.361 E23.94004
G1 X107.354 Y103.194 E24.04179
G1 X109.371 Y105.211 E24.38058
G1 X109.371 Y106.247 E24.50362
G1 X107.260 Y104.135 E24.85823
G1 X107.257 Y105.169 E24.98097
G1 X109.371 Y107.283 E25.33601
G1 X109.371 Y108.319 E25.45904
G1 X107.371 Y106.319 E25.79491
G1 X107.802 Y107.786 E25.97646
G1 X109.371 Y109.354 E26.23997
G1 X109.209 Y110.229 E26.34556
G1 X109.351 Y110.370 E26.36937
G1 F1800.000 E25.36937
G92 E0
G1 X117.391 Y86.997 F7800.000
G1 E1.00000 F1800.000
G1 X116.267 Y87.054 E1.13368 F378.000
G1 X114.843 Y86.845 E1.30462
G1 X113.486 Y86.354 E1.47598
G1 X112.254 Y85.620 E1.64632
G1 X111.188 Y84.659 E1.81678
G1 X110.341 Y83.504 E1.98683
G1 X109.721 Y82.213 E2.15690
G1 X109.374 Y80.815 E2.32791
G1 X109.303 Y79.376 E2.49904
G1 X109.510 Y77.964 E2.66852
G1 X109.997 Y76.604 E2.84016
G1 X110.730 Y75.378 E3.00975
G1 X111.696 Y74.313 E3.18051
G1 X112.849 Y73.455 E3.35122
G1 X114.148 Y72.840 E3.52191
G1 X115.545 Y72.486 E3.69310
G1 X116.974 Y72.419 E3.86301
G1 X117.785 Y72.540 E3.96036
G1 X118.396 Y72.626 E4.03366 F378.000
G1 X119.740 Y73.107 E4.20321
G1 X120.973 Y73.848 E4.37406
G1 X122.047 Y74.812 E4.54538
G1 X122.902 Y75.966 E4.71595
G1 X123.517 Y77.262 E4.88627
G1 X123.864 Y78.656 E5.05690
G1 X123.937 Y80.092 E5.22774
G1 X123.724 Y81.512 E5.39823
G1 X123.244 Y82.863 E5.56846
G1 X122.508 Y84.094 E5.73886
G1 X121.540 Y85.159 E5.90975
G1 X120.391 Y86.015 E6.07994
G1 X119.092 Y86.628 E6.25059
G1 X117.702 Y86.979 E6.42078
G1 X117.451 Y86.994 E6.45071
G1 F1800.000 E5.45071
G92 E0
G1 X117.823 Y72.142 F7800.000
G1 X117.484 Y88.907 F7800.000
G1 E1.00000 F1800.000
G1 X116.170 Y88.971 E1.15625 F378.000
G1 X114.378 Y88.707 E1.37130
G1 X112.669 Y88.098 E1.58677
G1 X111.121 Y87.167 E1.80137
G1 X109.776 Y85.954 E2.01638
G1 X108.696 Y84.498 E2.23176
G1 X107.925 Y82.863 E2.44644
G1 X107.483 Y81.106 E2.66159
G1 X107.392 Y79.300 E2.87638
G1 X107.659 Y77.509 E3.09145
G1 X108.266 Y75.802 E3.30661
