; generated by Slic3r 1.1.7 on 2014-10-30 at 20:33:01

; perimeters extrusion width = 0.50mm
; infill extrusion width = 0.52mm
; solid infill extrusion width = 0.52mm
; top infill extrusion width = 0.52mm

G21 ; set units to millimeters
M107
M104 S200 ; set temperature
G28 ; home all axes
G1 Z5 F5000 ; lift nozzle

M109 S200 ; wait for temperature to be reached
G90 ; use absolute coordinates
G92 E0
M82 ; use absolute distances for extrusion
G1 F1800.000 E-1.00000
G92 E0
G1 Z0.350 F7800.000
G1 X49.730 Y64.556 F7800.000
G1 E1.00000 F1800.000
G1 X67.377 Y55.000 E1.65293 F1080.000
G1 X90.982 Y42.351 E2.52424
G1 X91.461 Y42.134 E2.54135
G1 X92.397 Y41.806 E2.57361
G1 X98.445 Y40.205 E2.77716
G1 X99.285 Y40.076 E2.80480
G1 X100.470 Y40.002 E2.84345
G1 X124.984 Y40.632 E3.64127
G1 X146.759 Y42.940 E4.35369 F1080.000
G1 X147.496 Y43.087 E4.37814
G1 X148.447 Y43.399 E4.41072
G1 X149.640 Y44.033 E4.45466
G1 X151.308 Y45.615 E4.52946
G1 X152.001 Y46.783 E4.57364
G1 X152.747 Y48.466 E4.63352
G1 X152.882 Y48.863 E4.64717
G1 X153.186 Y50.547 E4.70286
G1 X153.220 Y51.912 E4.74729
G1 X153.370 Y67.706 E5.26115
G1 X153.332 Y68.414 E5.28422
G1 X151.784 Y83.432 E5.77543
G1 X151.477 Y86.007 E5.85981
G1 X150.341 Y94.727 E6.14590
G1 X148.472 Y107.065 E6.55192
G1 X144.873 Y127.103 E7.21430
G1 X144.583 Y128.550 E7.26229
G1 X144.338 Y129.560 E7.29610
G1 X142.592 Y135.473 E7.49671
G1 X137.448 Y152.007 E8.06008
G1 X136.371 Y154.039 E8.13488
G1 X134.668 Y155.583 E8.20968
G1 X132.648 Y156.432 E8.28097
G1 X129.073 Y157.247 E8.40028
G1 X127.002 Y157.596 E8.46860
G1 X125.835 Y157.688 E8.50669
G1 X77.957 Y157.232 E10.06447
G1 X76.054 Y157.074 E10.12660
G1 X73.846 Y156.433 E10.20140
G1 X71.989 Y155.079 E10.27620
G1 X70.746 Y153.270 E10.34760
G1 X55.683 Y120.956 E11.50754
G1 X55.178 Y119.393 E11.56100
G1 X53.835 Y112.346 E11.79438
G1 X52.649 Y105.841 E12.00952
G1 X46.527 Y71.495 E13.14458
G1 X46.441 Y70.612 E13.17345
G1 X46.470 Y69.697 E13.20324
G1 X46.780 Y68.240 E13.25170
G1 X47.442 Y66.816 E13.30280
G1 X48.417 Y65.580 E13.35403
G1 X49.671 Y64.602 E13.40575
G1 F1800.000 E12.40575
G92 E0
G1 X124.930 Y65.022 F7800.000
G1 E1.00000 F1800.000
G1 X124.068 Y65.256 E1.02907 F540.000
G1 X123.514 Y65.320 E1.04721
G1 X122.951 Y65.256 E1.06567
G1 X122.414 Y65.109 E1.08377
G1 X121.873 Y64.821 E1.10371
G1 X121.437 Y64.451 E1.12231
G1 X121.081 Y64.021 E1.14047
G1 X120.810 Y63.513 E1.15922
G1 X120.650 Y62.981 E1.17727
G1 X120.598 Y62.488 E1.19341
G1 X120.598 Y62.313 E1.19912
G1 X120.646 Y61.827 E1.21498
G1 X120.807 Y61.292 E1.23316
G1 X121.073 Y60.780 E1.25194
G1 X121.448 Y60.324 E1.27115
G1 X121.892 Y59.965 E1.28972
G1 X122.391 Y59.699 E1.30811
G1 X122.931 Y59.533 E1.32651
G1 X123.514 Y59.471 E1.34559
G1 X123.908 Y59.514 E1.35846
G1 X124.087 Y59.533 E1.36435 F540.000
G1 X124.627 Y59.698 E1.38272
G1 X125.128 Y59.965 E1.40118
G1 X125.572 Y60.324 E1.41976
G1 X125.947 Y60.780 E1.43897
G1 X126.213 Y61.292 E1.45774
G1 X126.370 Y61.814 E1.47548
G1 X126.440 Y62.417 E1.49524
G1 X126.371 Y62.979 E1.51366
G1 X126.210 Y63.513 E1.53178
G1 X125.939 Y64.021 E1.55052
G1 X125.582 Y64.451 E1.56869
G1 X125.131 Y64.835 E1.58798
G1 X125.054 Y64.874 E1.59079
G1 X124.978 Y64.964 E1.59462
G1 X124.558 Y64.442 F7800.000
G1 X123.943 Y64.609 E1.61535 F540.000
G1 X123.513 Y64.659 E1.62943
G1 X123.075 Y64.609 E1.64378
G1 X122.658 Y64.495 E1.65785
G1 X122.244 Y64.275 E1.67309
G1 X121.907 Y63.987 E1.68752
G1 X121.629 Y63.653 E1.70165
G1 X121.421 Y63.261 E1.71610
G1 X121.296 Y62.848 E1.73014
G1 X121.255 Y62.456 E1.74295
G1 X121.294 Y61.956 E1.75928
G1 X121.419 Y61.541 E1.77339
G1 X121.625 Y61.144 E1.78794
G1 X121.913 Y60.792 E1.80272
G1 X122.256 Y60.515 E1.81707
G1 X122.644 Y60.309 E1.83137
G1 X123.063 Y60.180 E1.84565
G1 X123.382 Y60.146 E1.85607
G1 X123.513 Y60.132 E1.86037 F540.000
G1 X123.955 Y60.180 E1.87482
G1 X124.375 Y60.308 E1.88911
G1 X124.764 Y60.515 E1.90346
G1 X125.107 Y60.793 E1.91780
G1 X125.395 Y61.144 E1.93259
G1 X125.601 Y61.541 E1.94713
G1 X125.724 Y61.948 E1.96098
G1 X125.777 Y62.409 E1.97606
G1 X125.724 Y62.847 E1.99042
G1 X125.599 Y63.261 E2.00450
G1 X125.391 Y63.653 E2.01896
G1 X125.113 Y63.987 E2.03309
G1 X124.766 Y64.283 E2.04793
G1 X124.637 Y64.348 E2.05262
G1 X124.606 Y64.384 E2.05417
G1 X124.186 Y63.862 F7800.000
G1 X123.818 Y63.962 E2.06657 F378.000
G1 X123.512 Y63.997 E2.07659
G1 X123.200 Y63.962 E2.08683
G1 X122.902 Y63.880 E2.09687
G1 X122.616 Y63.728 E2.10741
G1 X122.376 Y63.524 E2.11767
G1 X122.178 Y63.285 E2.12776
G1 X122.031 Y63.009 E2.13794
G1 X121.942 Y62.714 E2.14796
G1 X121.912 Y62.425 E2.15743
G1 X121.941 Y62.085 E2.16853
G1 X122.030 Y61.789 E2.17858
G1 X122.176 Y61.507 E2.18890
G1 X122.378 Y61.261 E2.19926
G1 X122.620 Y61.066 E2.20937
G1 X122.897 Y60.918 E2.21959
G1 X123.196 Y60.827 E2.22974
G1 X123.512 Y60.793 E2.24011
G1 X123.766 Y60.820 E2.24841
G1 X124.122 Y60.918 E2.26044 F378.000
G1 X124.400 Y61.066 E2.27066
G1 X124.642 Y61.261 E2.28078
G1 X124.844 Y61.507 E2.29114
G1 X124.990 Y61.789 E2.30145
G1 X125.078 Y62.082 E2.31141
G1 X125.115 Y62.400 E2.32182
G1 X125.078 Y62.714 E2.33211
G1 X124.989 Y63.009 E2.34215
G1 X124.842 Y63.285 E2.35232
G1 X124.644 Y63.524 E2.36242
G1 X124.400 Y63.731 E2.37282
G1 X124.240 Y63.811 E2.37866
G1 F1800.000 E1.37866
G92 E0
G1 X123.805 Y60.453 F7800.000
G1 X80.854 Y125.423 F7800.000
G1 E1.00000 F1800.000
G1 X81.309 Y125.785 E1.01893 F540.000
G1 X81.687 Y126.246 E1.03832
G1 X81.954 Y126.762 E1.05723
G1 X82.114 Y127.301 E1.07554
G1 X82.170 Y127.865 E1.09395
G1 X82.115 Y128.430 E1.11243
G1 X81.952 Y128.979 E1.13107
G1 X81.683 Y129.484 E1.14967
G1 X81.316 Y129.936 E1.16861
G1 X80.873 Y130.293 E1.18713
G1 X80.350 Y130.575 E1.20647
G1 X79.817 Y130.725 E1.22449
G1 X79.247 Y130.790 E1.24314
G1 X78.684 Y130.725 E1.26159
G1 X78.139 Y130.571 E1.28001
G1 X77.627 Y130.294 E1.29895
G1 X77.184 Y129.936 E1.31748
G1 X76.817 Y129.483 E1.33643
G1 X76.554 Y128.991 E1.35459
G1 X76.383 Y128.443 E1.37328
G1 X76.326 Y127.864 E1.39219
G1 X76.383 Y127.288 E1.41102
G1 X76.552 Y126.750 E1.42937
G1 X76.813 Y126.246 E1.44784
G1 X77.191 Y125.785 E1.46724
G1 X77.641 Y125.426 E1.48596
G1 X78.131 Y125.170 E1.50394
G1 X78.665 Y125.000 E1.52217
G1 X79.249 Y124.943 E1.54126
G1 X79.644 Y124.982 E1.55418
G1 X79.826 Y125.000 E1.56013 F540.000
G1 X80.371 Y125.171 E1.57873
G1 X80.787 Y125.388 E1.59400
G1 X80.495 Y125.977 F7800.000
G1 X80.845 Y126.256 E1.60854 F540.000
G1 X81.135 Y126.610 E1.62343
G1 X81.342 Y127.009 E1.63806
G1 X81.467 Y127.428 E1.65230
G1 X81.510 Y127.865 E1.66657
G1 X81.467 Y128.303 E1.68090
G1 X81.341 Y128.729 E1.69534
G1 X81.133 Y129.119 E1.70971
G1 X80.849 Y129.468 E1.72436
G1 X80.507 Y129.744 E1.73867
G1 X80.213 Y129.904 E1.74955
G1 X80.104 Y129.961 E1.75356
G1 X79.688 Y130.078 E1.76761
G1 X79.247 Y130.129 E1.78205
G1 X78.811 Y130.078 E1.79635
G1 X78.389 Y129.959 E1.81062
G1 X77.993 Y129.744 E1.82526
G1 X77.651 Y129.468 E1.83958
G1 X77.367 Y129.118 E1.85423
G1 X77.163 Y128.736 E1.86833
G1 X77.030 Y128.311 E1.88282
G1 X76.986 Y127.865 E1.89741
G1 X77.030 Y127.420 E1.91193
G1 X77.161 Y127.002 E1.92621
G1 X77.364 Y126.610 E1.94057
G1 X77.655 Y126.256 E1.95547
G1 X78.002 Y125.979 E1.96989
G1 X78.384 Y125.779 E1.98393
G1 X78.799 Y125.647 E1.99811
G1 X79.138 Y125.614 E2.00919
G1 X79.248 Y125.603 E2.01279 F540.000
G1 X79.694 Y125.647 E2.02736
G1 X80.117 Y125.780 E2.04179
G1 X80.429 Y125.943 E2.05323
G1 X80.137 Y126.532 F7800.000
G1 X80.381 Y126.726 E2.06339 F378.000
G1 X80.584 Y126.973 E2.07378
G1 X80.730 Y127.256 E2.08413
G1 X80.819 Y127.555 E2.09430
G1 X80.850 Y127.865 E2.10442
G1 X80.819 Y128.176 E2.11461
G1 X80.730 Y128.478 E2.12485
G1 X80.583 Y128.753 E2.13499
G1 X80.383 Y129.000 E2.14533
G1 X80.141 Y129.195 E2.15544
G1 X79.859 Y129.348 E2.16588
G1 X79.560 Y129.431 E2.17596
G1 X79.248 Y129.467 E2.18619
G1 X78.938 Y129.432 E2.19634
G1 X78.639 Y129.347 E2.20646
G1 X78.359 Y129.195 E2.21681
G1 X78.117 Y129.000 E2.22692
G1 X77.917 Y128.753 E2.23726
G1 X77.772 Y128.481 E2.24731
G1 X77.677 Y128.179 E2.25759
G1 X77.646 Y127.865 E2.26787
G1 X77.677 Y127.553 E2.27808
G1 X77.771 Y127.253 E2.28829
G1 X77.916 Y126.973 E2.29854
G1 X78.119 Y126.726 E2.30894
G1 X78.362 Y126.532 E2.31905
G1 X78.637 Y126.389 E2.32916
G1 X78.934 Y126.294 E2.33929
G1 X79.248 Y126.263 E2.34956
G1 X79.515 Y126.290 E2.35829
G1 X79.863 Y126.389 E2.37006 F378.000
G1 X80.070 Y126.497 E2.37767
G1 X79.427 Y125.939 F7800.000
G1 X117.560 Y130.296 F7800.000
G1 X117.739 Y129.759 E2.39609 F540.000
G1 X117.983 Y129.270 E2.41385
G1 X118.366 Y128.797 E2.43366
G1 X118.847 Y128.416 E2.45361
G1 X119.307 Y128.175 E2.47051
G1 X119.847 Y128.010 E2.48890
G1 X120.442 Y127.944 E2.50835
G1 X120.862 Y127.994 E2.52213
G1 X121.002 Y128.010 E2.52673 F540.000
G1 X121.560 Y128.181 E2.54569
G1 X122.037 Y128.433 E2.56327
G1 X122.492 Y128.794 E2.58213
G1 X122.883 Y129.270 E2.60218
G1 X123.125 Y129.764 E2.62009
G1 X123.292 Y130.263 E2.63720
G1 X123.361 Y130.867 E2.65696
G1 X123.293 Y131.474 E2.67686
G1 X123.125 Y131.986 E2.69437
G1 X122.875 Y132.486 E2.71258
G1 X122.495 Y132.940 E2.73183
G1 X122.061 Y133.298 E2.75013
G1 X121.551 Y133.576 E2.76904
G1 X120.982 Y133.745 E2.78834
G1 X120.440 Y133.791 E2.80603
G1 X119.880 Y133.746 E2.82432
G1 X119.301 Y133.574 E2.84396
G1 X118.796 Y133.293 E2.86276
G1 X118.363 Y132.936 E2.88103
G1 X117.991 Y132.486 E2.90002
G1 X117.739 Y131.991 E2.91809
G1 X117.559 Y131.443 E2.93688
G1 X117.517 Y130.868 E2.95564
G1 X117.554 Y130.370 E2.97186
G1 X118.209 Y130.426 F7800.000
G1 X118.347 Y130.011 E2.98609 F540.000
G1 X118.538 Y129.628 E3.00000
G1 X118.831 Y129.267 E3.01513
G1 X119.199 Y128.975 E3.03039
G1 X119.561 Y128.785 E3.04371
G1 X119.981 Y128.657 E3.05801
G1 X120.318 Y128.619 E3.06902
G1 X120.439 Y128.605 E3.07301 F540.000
G1 X120.872 Y128.657 E3.08718
G1 X121.302 Y128.788 E3.10183
G1 X121.677 Y128.986 E3.11560
G1 X122.028 Y129.265 E3.13020
G1 X122.326 Y129.628 E3.14549
G1 X122.516 Y130.014 E3.15948
G1 X122.647 Y130.406 E3.17292
G1 X122.700 Y130.868 E3.18803
G1 X122.647 Y131.334 E3.20330
G1 X122.516 Y131.735 E3.21703
G1 X122.322 Y132.123 E3.23116
G1 X122.030 Y132.471 E3.24593
G1 X121.691 Y132.751 E3.26023
G1 X121.297 Y132.966 E3.27484
G1 X120.860 Y133.096 E3.28968
G1 X120.438 Y133.131 E3.30343
G1 X120.001 Y133.096 E3.31772
G1 X119.557 Y132.965 E3.33277
G1 X119.168 Y132.748 E3.34726
G1 X118.829 Y132.469 E3.36154
G1 X118.543 Y132.123 E3.37614
G1 X118.347 Y131.739 E3.39019
G1 X118.208 Y131.315 E3.40470
G1 X118.176 Y130.868 E3.41927
G1 X118.203 Y130.500 E3.43126
G1 X118.858 Y130.556 F7800.000
G1 X118.956 Y130.263 E3.44131 F378.000
G1 X119.094 Y129.986 E3.45137
G1 X119.296 Y129.737 E3.46182
G1 X119.551 Y129.535 E3.47238
G1 X119.815 Y129.394 E3.48212
G1 X120.115 Y129.303 E3.49232
G1 X120.437 Y129.267 E3.50288
G1 X120.707 Y129.299 E3.51172
G1 X121.045 Y129.396 E3.52316 F378.000
G1 X121.316 Y129.539 E3.53313
G1 X121.565 Y129.736 E3.54346
G1 X121.770 Y129.986 E3.55400
G1 X121.907 Y130.264 E3.56406
G1 X122.002 Y130.549 E3.57383
G1 X122.038 Y130.869 E3.58430
G1 X122.002 Y131.194 E3.59495
G1 X121.907 Y131.484 E3.60490
G1 X121.769 Y131.760 E3.61494
G1 X121.565 Y132.003 E3.62522
G1 X121.321 Y132.204 E3.63553
G1 X121.043 Y132.356 E3.64583
G1 X120.737 Y132.447 E3.65622
G1 X120.437 Y132.472 E3.66602
G1 X120.122 Y132.447 E3.67631
G1 X119.813 Y132.356 E3.68677
G1 X119.540 Y132.203 E3.69695
G1 X119.296 Y132.002 E3.70726
G1 X119.096 Y131.760 E3.71746
G1 X118.956 Y131.486 E3.72748
G1 X118.858 Y131.187 E3.73771
G1 X118.835 Y130.869 E3.74809
G1 X118.853 Y130.631 E3.75586
G1 F1800.000 E2.75586
G92 E0
G1 X120.869 Y128.987 F7800.000
G1 X108.675 Y67.063 F7800.000
G1 E1.00000 F1800.000
G1 X107.523 Y66.566 E1.04081 F540.000
G1 X107.405 Y66.495 E1.04529
G1 X99.342 Y61.341 E1.35664
G1 X98.737 Y52.618 E1.64110
G1 X98.693 Y51.764 E1.66893
G1 X98.693 Y49.872 E1.73048
G1 X98.669 Y49.406 E1.74567
G1 X100.299 Y49.087 E1.79971
G1 X100.342 Y49.227 E1.80448
G1 X102.847 Y49.207 E1.88599
G1 X113.619 Y51.230 E2.24258
G1 X114.078 Y51.246 E2.25751
G1 X115.207 Y51.059 E2.29474
G1 X122.674 Y49.533 E2.54270
G1 X124.848 Y50.200 E2.61672
G1 X124.858 Y50.232 E2.61780
G1 X124.907 Y50.218 E2.61944
G1 X125.128 Y50.286 E2.62698
G1 X125.144 Y50.151 E2.63140
G1 X126.548 Y49.754 E2.67889
G1 X128.805 Y50.397 E2.75525
G1 X130.007 Y50.646 E2.79519
G1 X130.677 Y50.805 E2.81758
G1 X136.515 Y51.804 E3.01030
G1 X136.812 Y51.840 E3.02002
G1 X137.444 Y51.834 E3.04057
G1 X144.887 Y51.260 E3.28347
G1 X145.048 Y67.627 E3.81599
G1 X143.693 Y80.555 E4.23893
G1 X143.567 Y82.021 E4.28679
G1 X143.224 Y84.944 E4.38255
G1 X142.106 Y93.530 E4.66425
G1 X140.262 Y105.712 E5.06512
G1 X139.495 Y109.951 E5.20528
G1 X138.107 Y117.130 E5.44317
G1 X137.723 Y119.357 E5.51668
G1 X137.350 Y121.715 E5.59436
G1 X136.810 Y124.935 E5.70060
G1 X136.466 Y126.717 E5.75963
G1 X136.343 Y127.253 E5.77754
G1 X134.645 Y133.005 E5.97266
G1 X130.258 Y147.019 E6.45041
G1 X129.811 Y148.516 E6.50125
G1 X127.602 Y149.056 E6.57523
G1 X126.539 Y149.225 E6.61027
G1 X122.389 Y144.403 E6.81726
G1 X121.389 Y143.866 E6.85419
G1 X105.474 Y144.297 E7.37220
G1 X89.554 Y144.788 E7.89040
G1 X88.923 Y145.031 E7.91239
G1 X78.028 Y148.936 E8.28896
G1 X77.535 Y147.639 E8.33410
G1 X73.686 Y138.040 E8.67058
G1 X72.623 Y135.540 E8.75898
G1 X72.257 Y134.727 E8.78798
G1 X70.708 Y131.577 E8.90219
G1 X69.967 Y130.185 E8.95348
G1 X66.963 Y123.618 E9.18846
G1 X66.669 Y123.082 E9.20832
G1 X66.032 Y121.795 E9.25504
G1 X65.817 Y121.264 E9.27370
G1 X65.636 Y120.607 E9.29585
G1 X65.989 Y120.274 E9.31164
G1 X66.155 Y120.363 E9.31777
G1 X73.727 Y111.902 E9.68719
G1 X77.099 Y108.105 E9.85242
G1 X86.481 Y96.104 E10.34802
G1 X86.962 Y95.526 E10.37246
G1 X87.314 Y95.049 E10.39176
G1 X94.834 Y85.782 E10.78006
G1 X95.190 Y85.333 E10.79870
G1 X95.517 Y84.869 E10.81717
G1 X107.733 Y69.700 E11.45084
G1 X107.807 Y69.627 E11.45423
G1 X108.106 Y69.520 E11.46454
G1 X108.500 Y68.587 E11.49748
G1 X108.666 Y67.138 E11.54496
G1 X107.966 Y67.473 F7800.000
G1 X107.212 Y67.147 E11.57168 F540.000
G1 X106.555 Y66.742 E11.59679
G1 X98.713 Y61.718 E11.89981
G1 X98.081 Y52.653 E12.19545
G1 X98.036 Y51.786 E12.22370
G1 X98.036 Y49.889 E12.28541
G1 X98.015 Y49.475 E12.29892
G1 X98.046 Y48.858 E12.31900
G1 X99.482 Y48.577 E12.36661
G1 X99.601 Y47.867 E12.39005
G1 X99.735 Y47.760 E12.39562
G1 X100.257 Y47.679 E12.41279
G1 X100.580 Y47.754 E12.42361
G1 X100.827 Y48.565 E12.45116
G1 X102.913 Y48.551 E12.51902
G1 X113.684 Y50.575 E12.87559
G1 X114.046 Y50.587 E12.88738
G1 X115.084 Y50.414 E12.92161
G1 X122.706 Y48.855 E13.17474
G1 X124.564 Y49.426 E13.23797
G1 X124.643 Y48.724 E13.26095
G1 X125.068 Y48.684 E13.27486
G1 X125.297 Y49.425 E13.30010
G1 X126.549 Y49.071 E13.34242
G1 X128.962 Y49.759 E13.42406
G1 X130.812 Y50.161 E13.48565
G1 X136.847 Y51.183 E13.68482
G1 X137.408 Y51.178 E13.70306
G1 X145.309 Y50.568 E13.96088
G1 X145.537 Y51.062 E13.97857
G1 X145.547 Y51.436 E13.99076
G1 X145.704 Y67.668 E14.51890
G1 X144.347 Y80.615 E14.94244
G1 X144.263 Y81.674 E14.97701
G1 X144.106 Y83.130 E15.02464
G1 X143.876 Y85.026 E15.08678
G1 X142.757 Y93.622 E15.36881
G1 X140.911 Y105.815 E15.77004
G1 X140.141 Y110.074 E15.91083
G1 X138.753 Y117.249 E16.14860
G1 X138.371 Y119.465 E16.22177
G1 X137.998 Y121.822 E16.29941
G1 X137.458 Y125.049 E16.40586
G1 X137.108 Y126.854 E16.46569
G1 X136.979 Y127.420 E16.48457
G1 X135.273 Y133.199 E16.68062
G1 X130.885 Y147.213 E17.15840
G1 X130.336 Y149.063 E17.22118
G1 X127.747 Y149.698 E17.30791
G1 X126.280 Y149.932 E17.35623
G1 X121.967 Y144.920 E17.57138
G1 X121.241 Y144.528 E17.59821
G1 X105.469 Y144.955 E18.11157
G1 X89.685 Y145.442 E18.62534
G1 X89.147 Y145.648 E18.64408
G1 X78.210 Y149.569 E19.02209
G1 X77.530 Y149.509 E19.04431
G1 X76.924 Y147.882 E19.10080
G1 X73.403 Y139.095 E19.40880
G1 X72.731 Y137.453 E19.46653
G1 X72.021 Y135.804 E19.52495
G1 X71.662 Y135.007 E19.55337
G1 X70.123 Y131.874 E19.66693
G1 X69.378 Y130.478 E19.71842
G1 X66.375 Y123.913 E19.95331
G1 X66.087 Y123.387 E19.97280
G1 X65.437 Y122.075 E20.02046
G1 X65.300 Y121.773 E20.03125
G1 X65.187 Y121.453 E20.04228
G1 X65.022 Y120.848 E20.06269
G1 X64.959 Y120.367 E20.07845
G1 X65.651 Y119.690 E20.10997
