; generated by Slic3r 1.1.7 on 2014-10-22 at 19:06:07

; perimeters extrusion width = 0.40mm
; infill extrusion width = 0.42mm
; solid infill extrusion width = 0.42mm
; top infill extrusion width = 0.42mm

G21 ; set units to millimeters
M107
M190 S50 ; wait for bed temperature to be reached
M104 S250 ; set temperature
G28 ; home all axes

M109 S250 ; wait for temperature to be reached
G90 ; use absolute coordinates
G92 E0
M82 ; use absolute distances for extrusion
G1 F1800.000 E-1.00000
G92 E0
G1 Z0.400 F7800.000
G1 X71.785 Y80.350 F7800.000
G1 E1.00000 F1800.000
G1 X73.091 Y79.336 E1.19639 F1080.000
G1 X73.352 Y79.185 E1.23221
G1 X82.092 Y74.387 E2.41631
G1 X93.792 Y68.150 E3.99103
G1 X94.298 Y67.920 E4.05704
G1 X94.912 Y67.684 E4.13514
G1 X97.782 Y66.748 E4.49362
G1 X98.217 Y66.648 E4.54666
G1 X98.936 Y66.527 E4.63328
G1 X99.940 Y66.436 E4.75300
G1 X100.782 Y66.430 E4.85306
G1 X112.691 Y66.752 E6.26787 F1080.000
G1 X113.652 Y66.841 E6.38254
G1 X123.739 Y68.101 E7.58983
G1 X124.495 Y68.252 E7.68137
G1 X125.498 Y68.584 E7.80690
G1 X126.644 Y69.194 E7.96103
G1 X128.348 Y70.800 E8.23907
G1 X129.053 Y71.985 E8.40289
G1 X129.475 Y72.970 E8.53018
G1 X129.621 Y73.399 E8.58393
G1 X129.927 Y75.098 E8.78899
G1 X129.939 Y75.368 E8.82112
G1 X130.039 Y83.414 E9.77681
G1 X130.002 Y84.474 E9.90276
G1 X129.247 Y91.915 E10.79096
G1 X128.972 Y94.181 E11.06206
G1 X128.510 Y97.693 E11.48277
G1 X127.676 Y103.188 E12.14290
G1 X126.238 Y112.336 E13.24263
G1 X126.031 Y113.592 E13.39383
G1 X125.860 Y114.501 E13.50375
G1 X125.513 Y115.999 E13.68627
G1 X124.984 Y117.877 E13.91806
G1 X122.125 Y127.022 E15.05599
G1 X121.683 Y128.061 E15.19004
G1 X121.451 Y128.487 E15.24777
G1 X121.187 Y128.914 E15.30731
G1 X119.987 Y130.305 E15.52546
G1 X119.145 Y130.949 E15.65140
G1 X117.946 Y131.593 E15.81309
G1 X117.258 Y131.838 E15.89978
G1 X116.898 Y131.939 E15.94422
G1 X115.321 Y132.155 E16.13318
G1 X112.928 Y132.195 E16.41740
G1 X88.568 Y132.197 E19.31062
G1 X86.952 Y131.999 E19.50395
G1 X86.636 Y131.915 E19.54280
G1 X85.954 Y131.687 E19.62821
G1 X84.462 Y130.879 E19.82968
G1 X83.669 Y130.234 E19.95103
G1 X82.532 Y128.849 E20.16386
G1 X82.253 Y128.379 E20.22878
G1 X81.973 Y127.832 E20.30177
G1 X74.656 Y111.835 E22.39104
G1 X74.201 Y110.470 E22.56193
G1 X73.462 Y106.985 E22.98497
G1 X72.705 Y102.931 E23.47473
G1 X69.840 Y86.428 E25.46401
G1 X69.749 Y85.517 E25.57283
G1 X69.783 Y84.530 E25.69007
G1 X70.098 Y83.072 E25.86721
G1 X70.765 Y81.637 E26.05516
G1 X71.744 Y80.394 E26.24307
G1 F1800.000 E25.24307
G92 E0
G1 X113.030 Y83.390 F7800.000
G1 E1.00000 F1800.000
G1 X112.223 Y83.609 E1.09929 F540.000
G1 X111.759 Y83.663 E1.15482
G1 X111.286 Y83.609 E1.21126
G1 X110.837 Y83.486 E1.26659
G1 X110.373 Y83.239 E1.32902
G1 X110.007 Y82.928 E1.38605
G1 X109.709 Y82.569 E1.44153
G1 X109.480 Y82.138 E1.49945
G1 X109.345 Y81.693 E1.55464
G1 X109.303 Y81.291 E1.60267
G1 X109.341 Y80.719 E1.67080
G1 X109.477 Y80.270 E1.72648
G1 X109.700 Y79.839 E1.78418
G1 X110.018 Y79.451 E1.84375
G1 X110.394 Y79.148 E1.90104
G1 X110.811 Y78.925 E1.95725
G1 X111.265 Y78.786 E2.01357
G1 X111.758 Y78.734 E2.07255
G1 X112.046 Y78.765 E2.10686
G1 X112.244 Y78.786 E2.13059 F540.000
G1 X112.697 Y78.924 E2.18678
G1 X113.116 Y79.148 E2.24322
G1 X113.492 Y79.451 E2.30052
G1 X113.810 Y79.839 E2.36010
G1 X114.033 Y80.270 E2.41778
G1 X114.164 Y80.705 E2.47169
G1 X114.224 Y81.222 E2.53358
G1 X114.165 Y81.691 E2.58972
G1 X114.030 Y82.138 E2.64517
G1 X113.801 Y82.569 E2.70310
G1 X113.503 Y82.928 E2.75858
G1 X113.200 Y83.186 E2.80583
G1 X113.068 Y83.344 E2.83023
G1 X112.625 Y82.760 F7800.000
G1 X112.087 Y82.906 E2.89641 F540.000
G1 X111.758 Y82.944 E2.93585
G1 X111.422 Y82.906 E2.97599
G1 X111.102 Y82.818 E3.01533
G1 X110.777 Y82.645 E3.05910
G1 X110.517 Y82.424 E3.09959
G1 X110.305 Y82.169 E3.13906
G1 X110.143 Y81.865 E3.17998
G1 X110.048 Y81.548 E3.21923
G1 X110.017 Y81.142 E3.26756
G1 X110.045 Y80.859 E3.30143
G1 X110.141 Y80.540 E3.34098
G1 X110.300 Y80.234 E3.38189
G1 X110.524 Y79.961 E3.42389
G1 X110.789 Y79.746 E3.46442
G1 X111.087 Y79.588 E3.50440
G1 X111.408 Y79.489 E3.54439
G1 X111.611 Y79.467 E3.56858
G1 X111.758 Y79.452 E3.58608 F540.000
G1 X112.100 Y79.489 E3.62705
G1 X112.422 Y79.587 E3.66701
G1 X112.721 Y79.746 E3.70713
G1 X112.986 Y79.961 E3.74766
G1 X113.210 Y80.234 E3.78967
G1 X113.369 Y80.540 E3.83056
G1 X113.462 Y80.850 E3.86904
G1 X113.504 Y81.212 E3.91240
G1 X113.463 Y81.547 E3.95240
G1 X113.367 Y81.864 E3.99182
G1 X113.205 Y82.169 E4.03274
G1 X112.993 Y82.424 E4.07222
G1 X112.664 Y82.714 E4.12424
G1 X112.221 Y82.129 F7800.000
G1 X111.952 Y82.202 E4.15731 F378.000
G1 X111.757 Y82.225 E4.18067
G1 X111.557 Y82.202 E4.20450
G1 X111.367 Y82.151 E4.22786
G1 X111.181 Y82.051 E4.25298
G1 X111.027 Y81.921 E4.27691
G1 X110.901 Y81.769 E4.30038
G1 X110.806 Y81.591 E4.32430
G1 X110.750 Y81.403 E4.34761
G1 X110.731 Y81.222 E4.36918
G1 X110.749 Y80.998 E4.39587
G1 X110.806 Y80.809 E4.41929
G1 X110.899 Y80.629 E4.44341
G1 X111.030 Y80.470 E4.46784
G1 X111.185 Y80.344 E4.49159
G1 X111.362 Y80.250 E4.51535
G1 X111.552 Y80.192 E4.53903
G1 X111.757 Y80.170 E4.56341
G1 X111.892 Y80.185 E4.57957
G1 X112.148 Y80.250 E4.61094 F378.000
G1 X112.325 Y80.344 E4.63474
G1 X112.480 Y80.470 E4.65849
G1 X112.611 Y80.629 E4.68293
G1 X112.704 Y80.809 E4.70705
G1 X112.760 Y80.995 E4.73009
G1 X112.784 Y81.203 E4.75493
G1 X112.760 Y81.402 E4.77879
G1 X112.704 Y81.591 E4.80216
G1 X112.609 Y81.769 E4.82608
G1 X112.483 Y81.921 E4.84955
G1 X112.325 Y82.055 E4.87410
G1 X112.261 Y82.086 E4.88257
G1 F1800.000 E3.88257
G92 E0
G1 X111.916 Y79.922 F7800.000
G1 X90.971 Y111.870 F7800.000
G1 E1.00000 F1800.000
G1 X91.358 Y112.179 E1.05884 F540.000
G1 X91.680 Y112.572 E1.11914
G1 X91.905 Y113.007 E1.17729
G1 X92.039 Y113.458 E1.23324
G1 X92.086 Y113.932 E1.28974
G1 X92.039 Y114.407 E1.34650
G1 X91.902 Y114.870 E1.40376
G1 X91.676 Y115.295 E1.46103
G1 X91.365 Y115.677 E1.51945
G1 X90.991 Y115.979 E1.57656
G1 X90.547 Y116.218 E1.63647
G1 X90.103 Y116.343 E1.69129
G1 X89.623 Y116.398 E1.74864
G1 X89.149 Y116.343 E1.80529
G1 X88.691 Y116.213 E1.86190
G1 X88.258 Y115.979 E1.92027
G1 X87.885 Y115.677 E1.97734
G1 X87.575 Y115.295 E2.03575
G1 X87.354 Y114.882 E2.09140
G1 X87.210 Y114.421 E2.14869
G1 X87.162 Y113.932 E2.20711
G1 X87.210 Y113.444 E2.26538
G1 X87.351 Y112.994 E2.32132
G1 X87.570 Y112.572 E2.37786
G1 X87.892 Y112.180 E2.43810
G1 X88.274 Y111.875 E2.49613
G1 X88.681 Y111.662 E2.55072
G1 X89.129 Y111.519 E2.60647
G1 X89.625 Y111.470 E2.66569
G1 X89.911 Y111.499 E2.69987
G1 X90.113 Y111.518 E2.72393 F540.000
G1 X90.570 Y111.663 E2.78090
G1 X90.917 Y111.843 E2.82734
G1 X90.581 Y112.473 F7800.000
G1 X90.854 Y112.691 E2.86877 F540.000
G1 X91.080 Y112.967 E2.91123
G1 X91.240 Y113.275 E2.95241
G1 X91.335 Y113.596 E2.99221
G1 X91.369 Y113.932 E3.03228
G1 X91.335 Y114.269 E3.07256
G1 X91.238 Y114.597 E3.11316
G1 X91.078 Y114.898 E3.15368
G1 X90.858 Y115.169 E3.19502
G1 X90.594 Y115.382 E3.23543
G1 X90.402 Y115.486 E3.26125
G1 X90.280 Y115.551 E3.27770
G1 X89.963 Y115.640 E3.31678
G1 X89.623 Y115.679 E3.35743
G1 X89.287 Y115.640 E3.39761
G1 X88.962 Y115.548 E3.43774
G1 X88.656 Y115.382 E3.47906
G1 X88.392 Y115.169 E3.51944
G1 X88.172 Y114.899 E3.56078
G1 X88.016 Y114.605 E3.60031
G1 X87.913 Y114.278 E3.64097
G1 X87.879 Y113.932 E3.68225
G1 X87.914 Y113.587 E3.72340
G1 X88.014 Y113.267 E3.76322
G1 X88.170 Y112.967 E3.80343
G1 X88.396 Y112.691 E3.84584
G1 X88.666 Y112.476 E3.88678
G1 X88.957 Y112.324 E3.92575
G1 X89.275 Y112.222 E3.96541
G1 X89.501 Y112.200 E3.99245
G1 X89.625 Y112.188 E4.00715 F540.000
G1 X89.970 Y112.222 E4.04833
G1 X90.294 Y112.324 E4.08877
G1 X90.528 Y112.446 E4.12000
G1 X90.191 Y113.076 F7800.000
G1 X90.349 Y113.202 E4.14403 F378.000
G1 X90.481 Y113.362 E4.16863
G1 X90.575 Y113.543 E4.19285
G1 X90.631 Y113.734 E4.21651
G1 X90.651 Y113.932 E4.24015
G1 X90.631 Y114.132 E4.26394
G1 X90.574 Y114.325 E4.28789
G1 X90.480 Y114.502 E4.31167
G1 X90.351 Y114.660 E4.33593
G1 X90.196 Y114.786 E4.35964
G1 X90.013 Y114.884 E4.38426
G1 X89.824 Y114.937 E4.40760
G1 X89.624 Y114.960 E4.43154
G1 X89.425 Y114.937 E4.45526
G1 X89.234 Y114.883 E4.47890
G1 X89.054 Y114.786 E4.50317
G1 X88.899 Y114.660 E4.52687
G1 X88.770 Y114.502 E4.55113
G1 X88.677 Y114.328 E4.57455
G1 X88.617 Y114.135 E4.59856
G1 X88.597 Y113.932 E4.62272
G1 X88.617 Y113.731 E4.64675
G1 X88.677 Y113.541 E4.67046
G1 X88.769 Y113.362 E4.69432
G1 X88.901 Y113.202 E4.71891
G1 X89.058 Y113.077 E4.74276
G1 X89.232 Y112.986 E4.76612
G1 X89.421 Y112.926 E4.78968
G1 X89.624 Y112.906 E4.81394
G1 X89.771 Y112.920 E4.83152
G1 X90.018 Y112.986 E4.86186 F378.000
G1 X90.138 Y113.048 E4.87789
G1 X89.705 Y112.673 F7800.000
G1 X107.795 Y114.951 F7800.000
G1 X107.947 Y114.497 E4.93467 F540.000
G1 X108.149 Y114.092 E4.98840
G1 X108.478 Y113.686 E5.05050
G1 X108.890 Y113.359 E5.11290
G1 X109.269 Y113.163 E5.16355
G1 X109.721 Y113.025 E5.21973
G1 X110.224 Y112.969 E5.27985
G1 X110.544 Y113.007 E5.31812
G1 X110.699 Y113.025 E5.33664 F540.000
G1 X111.170 Y113.170 E5.39515
G1 X111.566 Y113.379 E5.44831
G1 X111.948 Y113.682 E5.50630
G1 X112.285 Y114.092 E5.56926
G1 X112.486 Y114.503 E5.62365
G1 X112.624 Y114.915 E5.67517
G1 X112.683 Y115.432 E5.73704
G1 X112.625 Y115.950 E5.79889
G1 X112.487 Y116.373 E5.85174
G1 X112.276 Y116.794 E5.90765
G1 X111.952 Y117.180 E5.96753
G1 X111.591 Y117.478 E6.02308
G1 X111.160 Y117.713 E6.08140
G1 X110.677 Y117.857 E6.14130
G1 X110.222 Y117.895 E6.19548
G1 X109.757 Y117.858 E6.25094
G1 X109.262 Y117.711 E6.31221
G1 X108.834 Y117.473 E6.37035
G1 X108.475 Y117.176 E6.42571
G1 X108.158 Y116.794 E6.48475
G1 X107.947 Y116.379 E6.53996
G1 X107.795 Y115.915 E6.59797
G1 X107.760 Y115.433 E6.65538
G1 X107.791 Y115.010 E6.70571
G1 X108.501 Y115.092 F7800.000
G1 X108.608 Y114.771 E6.74588 F540.000
G1 X108.753 Y114.481 E6.78433
G1 X108.984 Y114.197 E6.82785
G1 X109.272 Y113.968 E6.87162
G1 X109.545 Y113.826 E6.90807
G1 X109.866 Y113.728 E6.94803
G1 X110.086 Y113.703 E6.97432
G1 X110.222 Y113.688 E6.99050 F540.000
G1 X110.557 Y113.728 E7.03061
G1 X110.890 Y113.830 E7.07200
G1 X111.174 Y113.980 E7.11006
G1 X111.445 Y114.195 E7.15114
G1 X111.680 Y114.481 E7.19521
G1 X111.824 Y114.775 E7.23404
G1 X111.923 Y115.070 E7.27101
G1 X111.964 Y115.433 E7.31441
G1 X111.924 Y115.797 E7.35793
G1 X111.824 Y116.100 E7.39580
G1 X111.675 Y116.399 E7.43548
G1 X111.447 Y116.671 E7.47760
G1 X111.189 Y116.883 E7.51728
G1 X110.884 Y117.050 E7.55853
G1 X110.544 Y117.151 E7.60074
G1 X110.220 Y117.178 E7.63925
G1 X109.888 Y117.152 E7.67887
G1 X109.540 Y117.049 E7.72192
G1 X109.238 Y116.881 E7.76297
G1 X108.981 Y116.669 E7.80254
G1 X108.758 Y116.399 E7.84412
G1 X108.608 Y116.104 E7.88339
G1 X108.501 Y115.776 E7.92440
G1 X108.476 Y115.434 E7.96520
G1 X108.497 Y115.152 E7.99876
G1 X109.207 Y115.233 F7800.000
G1 X109.270 Y115.045 E8.02233 F378.000
G1 X109.357 Y114.871 E8.04550
G1 X109.489 Y114.707 E8.07043
G1 X109.655 Y114.576 E8.09557
G1 X109.820 Y114.488 E8.11782
G1 X110.012 Y114.430 E8.14156
G1 X110.219 Y114.407 E8.16638
G1 X110.376 Y114.425 E8.18510
G1 X110.611 Y114.490 E8.21402 F378.000
G1 X110.782 Y114.580 E8.23697
G1 X110.941 Y114.707 E8.26115
G1 X111.076 Y114.871 E8.28633
G1 X111.162 Y115.046 E8.30960
G1 X111.222 Y115.225 E8.33202
G1 X111.246 Y115.434 E8.35695
G1 X111.222 Y115.645 E8.38215
G1 X111.162 Y115.828 E8.40504
G1 X111.074 Y116.005 E8.42848
G1 X110.942 Y116.162 E8.45284
G1 X110.787 Y116.289 E8.47666
G1 X110.608 Y116.387 E8.50083
G1 X110.411 Y116.446 E8.52536
G1 X110.219 Y116.462 E8.54820
G1 X110.019 Y116.446 E8.57197
G1 X109.819 Y116.386 E8.59679
G1 X109.643 Y116.288 E8.62077
G1 X109.488 Y116.161 E8.64455
G1 X109.359 Y116.004 E8.66867
G1 X109.270 Y115.829 E8.69199
G1 X109.207 Y115.637 E8.71601
G1 X109.202 Y115.293 E8.75688
G1 X110.478 Y114.205 F7800.000
G1 X105.280 Y85.417 F7800.000
G1 X105.253 Y84.220 E8.89907 F540.000
G1 X105.406 Y82.884 E9.05881
G1 X104.121 Y82.329 E9.22505
G1 X103.344 Y81.851 E9.33338
G1 X100.621 Y80.107 E9.71743
G1 X100.376 Y76.638 E10.13040
G1 X100.321 Y75.571 E10.25733
G1 X101.517 Y75.586 E10.39938
G1 X106.586 Y76.534 E11.01180
G1 X107.105 Y76.552 E11.07356
G1 X107.587 Y76.482 E11.13135
G1 X108.413 Y76.335 E11.23104
G1 X111.878 Y75.627 E11.65098
G1 X114.428 Y76.155 E11.96030
G1 X115.203 Y76.339 E12.05486
G1 X118.160 Y76.845 E12.41116
G1 X118.351 Y76.865 E12.43395
G1 X119.071 Y76.857 E12.51957
G1 X121.423 Y76.676 E12.79970
G1 X121.494 Y83.694 E13.63328
G1 X121.035 Y88.072 E14.15599
G1 X120.939 Y89.283 E14.30029
G1 X120.762 Y90.931 E14.49717
G1 X120.158 Y95.722 E15.07066
G1 X119.817 Y98.097 E15.35560
G1 X119.117 Y102.585 E15.89511
G1 X118.197 Y107.611 E16.50197
G1 X118.007 Y109.513 E16.72893
G1 X117.803 Y110.987 E16.90574
G1 X117.632 Y112.036 E17.03188
G1 X117.453 Y112.975 E17.14545
G1 X117.204 Y114.013 E17.27224
G1 X116.822 Y115.355 E17.43799
G1 X115.109 Y120.718 E18.10658
G1 X114.311 Y123.324 E18.43020
G1 X113.611 Y123.472 E18.51519
G1 X112.046 Y121.653 E18.80028
G1 X111.365 Y121.270 E18.89301
G1 X110.864 Y121.016 E18.95975
G1 X108.860 Y121.076 E19.19779
G1 X108.804 Y121.058 E19.20482
G1 X102.761 Y121.206 E19.92275
G1 X94.651 Y121.475 E20.88641
G1 X93.850 Y121.783 E20.98834
G1 X89.442 Y123.363 E21.54455
G1 X89.073 Y122.335 E21.67431
G1 X88.507 Y120.903 E21.85717
G1 X87.845 Y119.315 E22.06143
G1 X86.907 Y117.194 E22.33694
G1 X86.458 Y116.233 E22.46290
G1 X85.734 Y114.773 E22.65640
G1 X84.103 Y111.699 E23.06974
G1 X83.760 Y111.004 E23.16177
G1 X83.528 Y110.442 E23.23398
G1 X83.491 Y110.288 E23.25281
G1 X83.586 Y110.119 E23.27585
G1 X83.904 Y109.789 E23.33023
G1 X84.667 Y109.887 E23.42166
G1 X88.809 Y105.211 E24.16351
G1 X89.475 Y104.488 E24.28033
G1 X93.622 Y99.204 E25.07806
G1 X94.213 Y98.495 E25.18773
G1 X94.648 Y97.906 E25.27463
G1 X97.961 Y93.824 E25.89903
G1 X98.395 Y93.274 E25.98224
G1 X98.803 Y92.695 E26.06634
G1 X104.319 Y85.847 E27.11072
G1 X104.456 Y85.711 E27.13353
G1 X105.224 Y85.437 E27.23043
G1 X104.636 Y83.329 F7800.000
G1 X103.783 Y82.961 E27.34075 F540.000
G1 X102.964 Y82.456 E27.45506
G1 X100.114 Y80.630 E27.85706
G1 X99.940 Y80.549 E27.87985
G1 X99.663 Y76.676 E28.34101
G1 X99.608 Y75.611 E28.46770
G1 X99.595 Y74.867 E28.55599
G1 X99.747 Y74.834 E28.57451
G1 X99.826 Y74.304 E28.63818
G1 X100.371 Y74.242 E28.70337
G1 X100.496 Y74.859 E28.77811
G1 X101.588 Y74.872 E28.90777
G1 X106.656 Y75.822 E29.52010
G1 X107.071 Y75.836 E29.56943
G1 X108.279 Y75.634 E29.71496
G1 X112.586 Y74.753 E30.23705
G1 X112.645 Y75.057 E30.27377
G1 X114.580 Y75.457 E30.50837
G1 X115.349 Y75.639 E30.60225
G1 X118.248 Y76.136 E30.95158
G1 X118.389 Y76.151 E30.96841
G1 X119.033 Y76.144 E31.04484
G1 X122.124 Y75.906 E31.41313
G1 X122.208 Y83.740 E32.34360
G1 X121.747 Y88.137 E32.86872
G1 X121.651 Y89.347 E33.01291
G1 X121.471 Y91.012 E33.21175
G1 X120.866 Y95.816 E33.78685
G1 X120.523 Y98.206 E34.07354
G1 X119.821 Y102.706 E34.61449
G1 X118.906 Y107.702 E35.21770
G1 X118.772 Y109.162 E35.39180
G1 X118.509 Y111.093 E35.62323
G1 X118.335 Y112.162 E35.75190
G1 X118.152 Y113.122 E35.86800
G1 X117.894 Y114.195 E35.99909
G1 X117.506 Y115.560 E36.16759
G1 X115.713 Y121.179 E36.86805
G1 X115.097 Y123.164 E37.11493
G1 X114.891 Y123.917 E37.20760
G1 X113.742 Y124.192 E37.34791
G1 X113.343 Y124.255 E37.39586
G1 X111.587 Y122.214 E37.71573
G1 X110.703 Y121.735 E37.83507
G1 X108.759 Y121.794 E38.06603
G1 X108.702 Y121.776 E38.07313
G1 X102.756 Y121.920 E38.77962
G1 X94.794 Y122.185 E39.72569
G1 X94.094 Y122.454 E39.81473
G1 X89.279 Y124.180 E40.42230
G1 X88.950 Y124.159 E40.46141
G1 X88.634 Y123.207 E40.58056
G1 X88.142 Y121.916 E40.74469
G1 X87.525 Y120.397 E40.93936
G1 X86.836 Y118.783 E41.14774
G1 X86.256 Y117.489 E41.31616
G1 X85.489 Y115.878 E41.52815
G1 X84.717 Y114.361 E41.73025
G1 X83.466 Y112.023 E42.04520
G1 X83.113 Y111.307 E42.13995
G1 X82.840 Y110.635 E42.22615
G1 X82.771 Y110.298 E42.26698
G1 X82.780 Y110.155 E42.28399
G1 X82.854 Y109.957 E42.30912
G1 X83.035 Y109.665 E42.34992
G1 X83.467 Y109.209 E42.42450
G1 X83.573 Y109.130 E42.44021
G1 X83.679 Y109.066 E42.45500
G1 X83.853 Y109.062 E42.47558
G1 X84.386 Y109.131 E42.53944
