; generated by Slic3r 1.1.7 on 2014-11-11 at 07:16:38

; perimeters extrusion width = 0.40mm
; infill extrusion width = 0.42mm
; solid infill extrusion width = 0.42mm
; top infill extrusion width = 0.42mm

G21 ; set units to millimeters
M107
M190 S50 ; wait for bed temperature to be reached
M104 S240 ; set temperature
G28 ; home all axes

M109 S240 ; wait for temperature to be reached
G90 ; use absolute coordinates
G92 E0
M82 ; use absolute distances for extrusion
G1 F1800.000 E-1.00000
G92 E0
G1 Z0.400 F7800.000
G1 X71.912 Y77.046 F7800.000
G1 E1.00000 F1800.000
G1 X80.422 Y70.024 E2.31035 F1080.000
G1 X84.156 Y66.967 E2.88347
G1 X86.168 Y65.833 E3.15769
G1 X88.444 Y65.448 E3.43192
G1 X90.717 Y65.857 E3.70614
G1 X93.469 Y67.750 E4.10287 F1080.000
G1 X114.003 Y91.300 E7.81370
G1 X117.799 Y95.892 E8.52124
G1 X130.067 Y111.035 E10.83584
G1 X133.710 Y115.616 E11.53102
G1 X134.815 Y117.643 E11.80525
G1 X135.168 Y119.925 E12.07947
G1 X134.727 Y122.192 E12.35370
G1 X133.504 Y124.221 E12.63509
G1 X106.680 Y154.819 E17.46781
G1 X104.882 Y156.268 E17.74203
G1 X102.699 Y157.022 E18.01626
G1 X100.991 Y157.077 E18.21927
G1 X93.330 Y156.340 E19.13337
G1 X90.640 Y155.482 E19.46863
G1 X66.296 Y141.528 E22.80114
G1 X64.520 Y140.052 E23.07537
G1 X63.349 Y138.063 E23.34959
G1 X62.932 Y136.093 E23.58869
G1 X62.298 Y125.195 E24.88518
G1 X62.381 Y123.687 E25.06458
G1 X69.575 Y81.099 E30.19420
G1 X70.345 Y78.922 E30.46843
G1 X71.874 Y77.092 E30.75164
G1 F1800.000 E29.75164
G92 E0
G1 X106.097 Y123.071 F7800.000
G1 E1.00000 F1800.000
G1 X105.010 Y123.656 E1.14661 F540.000
G1 X103.804 Y123.765 E1.29051
G1 X102.642 Y123.427 E1.43413
G1 X101.695 Y122.645 E1.58004
G1 X101.123 Y121.576 E1.72407
G1 X100.999 Y120.366 E1.86853
G1 X101.354 Y119.197 E2.01361
G1 X102.128 Y118.243 E2.15958
G1 X103.202 Y117.683 E2.30332
G1 X104.410 Y117.555 E2.44762
G1 X104.807 Y117.678 E2.49705
G1 X105.564 Y117.912 E2.59109 F540.000
G1 X106.514 Y118.668 E2.73529
G1 X107.087 Y119.750 E2.88075
G1 X107.217 Y120.956 E3.02483
G1 X106.860 Y122.129 E3.17032
G1 X106.135 Y123.024 E3.30722
G1 X105.632 Y122.510 F7800.000
G1 X104.800 Y122.958 E3.41943 F540.000
G1 X103.874 Y123.041 E3.52995
G1 X102.983 Y122.783 E3.64008
G1 X102.258 Y122.184 E3.75173
G1 X101.819 Y121.363 E3.86233
G1 X101.724 Y120.436 E3.97302
G1 X101.996 Y119.538 E4.08442
G1 X102.589 Y118.808 E4.19620
G1 X103.411 Y118.379 E4.30628
G1 X103.662 Y118.353 E4.33620
G1 X104.339 Y118.281 E4.41708 F540.000
G1 X105.225 Y118.554 E4.52713
G1 X105.953 Y119.134 E4.63765
G1 X106.392 Y119.963 E4.74908
G1 X106.491 Y120.888 E4.85956
G1 X106.218 Y121.787 E4.97120
G1 X105.670 Y122.463 E5.07453
G1 X105.167 Y121.949 F7800.000
G1 X104.591 Y122.260 E5.15235 F378.000
G1 X103.944 Y122.318 E5.22948
G1 X103.324 Y122.138 E5.30612
G1 X102.821 Y121.723 E5.38352
G1 X102.515 Y121.150 E5.46069
G1 X102.449 Y120.506 E5.53762
G1 X102.639 Y119.880 E5.61533
G1 X103.051 Y119.373 E5.69291
G1 X103.621 Y119.075 E5.76934
G1 X104.269 Y119.007 E5.84663
G1 X104.386 Y119.043 E5.86119
G1 X104.885 Y119.197 E5.92327 F378.000
G1 X105.391 Y119.600 E6.00011
G1 X105.697 Y120.176 E6.07751
G1 X105.765 Y120.819 E6.15438
G1 X105.575 Y121.446 E6.23217
G1 X105.205 Y121.902 E6.30194
G1 F1800.000 E5.30194
G92 E0
G1 X104.404 Y118.643 F7800.000
G1 X107.373 Y122.347 F7800.000
G1 E1.00000 F1800.000
G1 X106.223 Y136.155 E2.64553 F540.000
G1 X101.217 Y135.671 E3.24280
G1 X99.990 Y148.396 E4.76110
G1 X95.976 Y148.014 E5.24000
G1 X97.202 Y135.287 E6.75852
G1 X92.261 Y134.809 E7.34814
G1 X93.673 Y120.210 E9.09011
G1 X93.749 Y119.418 E9.18455
G1 X104.537 Y101.383 E11.68044
G1 X108.568 Y98.136 E12.29522
G1 X109.992 Y99.856 E12.56031
G1 X105.673 Y103.329 E13.21851
G1 X106.986 Y104.996 E13.47053
G1 X118.917 Y119.701 E15.71950
G1 X120.185 Y121.309 E15.96275
G1 X121.976 Y119.839 E16.23797
G1 X124.529 Y117.795 E16.62639
G1 X125.891 Y119.508 E16.88640
G1 X122.127 Y122.546 E17.46094
G1 X107.433 Y122.348 E19.20625
G1 X108.029 Y123.071 F7800.000
G1 X106.874 Y136.935 E20.85860 F540.000
G1 X101.859 Y136.451 E21.45700
G1 X100.631 Y149.176 E22.97535
G1 X95.196 Y148.656 E23.62381
G1 X96.423 Y135.929 E25.14230
G1 X91.481 Y135.451 E25.73194
G1 X93.054 Y119.190 E27.67225
G1 X103.990 Y100.907 E30.20238
G1 X108.669 Y97.136 E30.91615
G1 X111.006 Y99.962 E31.35166
G1 X106.673 Y103.441 E32.01167
G1 X107.550 Y104.558 E32.18031
G1 X119.473 Y119.252 E34.42763
G1 X120.295 Y120.295 E34.58543
G1 X121.538 Y119.275 E34.77638
G1 X124.640 Y116.788 E35.24865
G1 X126.895 Y119.623 E35.67889
G1 X122.374 Y123.264 E36.36833
G1 X108.089 Y123.071 E38.06501
G1 X108.685 Y123.794 F7800.000
G1 X107.526 Y137.716 E39.72417 F378.000
G1 X102.501 Y137.230 E40.32371
G1 X101.272 Y149.956 E41.84212
G1 X94.416 Y149.298 E42.66014
G1 X95.644 Y136.571 E44.17859
G1 X90.702 Y136.093 E44.76825
G1 X92.358 Y118.961 E46.81246
G1 X103.443 Y100.430 E49.37694
G1 X108.769 Y96.135 E50.18959
G1 X112.013 Y100.058 E50.79430
G1 X107.673 Y103.553 E51.45613
G1 X108.114 Y104.119 E51.54136
G1 X113.742 Y111.063 E52.60285
G1 X120.405 Y119.281 E53.85939
G1 X124.753 Y115.782 E54.52218
G1 X127.895 Y119.734 E55.12182
G1 X122.621 Y123.981 E55.92617
G1 X108.745 Y123.795 E57.57421
G1 X108.286 Y123.770 F7800.000
G1 X106.783 Y123.426 F7800.000
G1 X106.616 Y123.259 E57.60234 F1080.000
G1 X106.023 Y123.676 E57.68849
G1 X106.706 Y124.359 E57.80320
G1 X106.628 Y125.292 E57.91439
G1 X105.366 Y124.030 E58.12635
G1 X104.525 Y124.200 E58.22825
G1 X106.550 Y126.225 E58.56842
G1 X106.472 Y127.158 E58.67961
G1 X103.513 Y124.199 E59.17667
G1 X100.592 Y121.278 F7800.000
G1 X95.977 Y116.663 E59.95174 F1080.000
G1 X95.599 Y117.295 E60.03926
G1 X106.395 Y128.091 E61.85250
G1 X106.317 Y129.024 E61.96369
G1 X95.221 Y117.928 E63.82741
G1 X94.843 Y118.560 E63.91493
G1 X106.239 Y129.957 E65.82913
G1 X106.162 Y130.890 E65.94033
G1 X94.464 Y119.193 E67.90502
G1 X94.199 Y119.938 E67.99899
G1 X106.084 Y131.823 E69.99518
G1 X106.006 Y132.756 E70.10637
G1 X94.110 Y120.860 E72.10448
G1 X94.021 Y121.781 E72.21444
G1 X105.929 Y133.689 E74.21447
G1 X105.851 Y134.622 E74.32567
G1 X93.932 Y122.703 E76.32761
G1 X93.843 Y123.624 E76.43758
G1 X105.773 Y135.555 E78.44144
G1 X104.717 Y135.509 E78.56703
G1 X93.753 Y124.546 E80.40843
G1 X93.664 Y125.468 E80.51839
G1 X103.598 Y135.401 E82.18684
G1 X102.479 Y135.293 E82.32034
G1 X93.575 Y126.389 E83.81584
G1 X93.486 Y127.311 E83.92581
G1 X101.360 Y135.185 E85.24837
G1 X100.728 Y135.563 E85.33591
G1 X93.397 Y128.232 E86.56715
G1 X93.308 Y129.154 E86.67711
G1 X100.639 Y136.485 E87.90839
G1 X100.550 Y137.407 E88.01838
G1 X93.219 Y130.076 E89.24970
G1 X93.130 Y130.997 E89.35966
G1 X96.889 Y134.757 E89.99114
G1 X97.678 Y135.545 F7800.000
G1 X100.461 Y138.328 E90.45862 F1080.000
G1 X100.372 Y139.250 E90.56861
G1 X97.589 Y136.467 E91.03609
G1 X97.500 Y137.389 E91.14608
G1 X100.283 Y140.172 E91.61355
G1 X100.194 Y141.094 E91.72354
G1 X97.411 Y138.311 E92.19099
G1 X97.322 Y139.233 E92.30099
G1 X100.105 Y142.016 E92.76844
G1 X100.017 Y142.938 E92.87843
G1 X97.233 Y140.155 E93.34587
G1 X97.145 Y141.076 E93.45586
G1 X99.928 Y143.859 E93.92329
G1 X99.839 Y144.781 E94.03328
G1 X97.056 Y141.998 E94.50070
G1 X96.967 Y142.920 E94.61070
G1 X99.750 Y145.703 E95.07811
G1 X99.661 Y146.625 E95.18810
G1 X96.878 Y143.842 E95.65551
G1 X96.789 Y144.764 E95.76550
G1 X99.572 Y147.547 E96.23290
G1 X98.798 Y147.783 E96.32907
G1 X96.701 Y145.686 E96.68129
G1 X96.612 Y146.608 E96.79128
G1 X97.681 Y147.676 E96.97079
G1 X96.563 Y147.570 E97.10406
G1 X96.523 Y147.530 E97.11087
G1 X95.770 Y134.649 F7800.000
G1 X93.040 Y131.919 E97.56938 F1080.000
G1 X92.951 Y132.840 E97.67934
G1 X94.651 Y134.540 E97.96489
G1 X93.532 Y134.432 E98.09840
G1 X92.862 Y133.762 E98.21098
G1 X100.528 Y120.203 F7800.000
G1 X96.356 Y116.031 E98.91174 F1080.000
G1 X96.734 Y115.398 E98.99926
G1 X100.763 Y119.428 E99.67605
G1 X101.085 Y118.738 E99.76638
G1 X97.112 Y114.766 E100.43361
G1 X97.491 Y114.133 E100.52113
G1 X101.538 Y118.180 E101.20088
G1 X102.076 Y117.708 E101.28594
G1 X97.869 Y113.501 E101.99263
G1 X98.247 Y112.869 E102.08015
G1 X102.741 Y117.362 E102.83491
G1 X103.537 Y117.147 E102.93281
G1 X98.625 Y112.236 E103.75771
G1 X99.004 Y111.604 E103.84523
G1 X104.450 Y117.050 E104.76006
G1 X108.251 Y121.861 F7800.000
G1 X107.646 Y121.256 E104.86169 F1080.000
G1 X107.641 Y120.241 E104.98233
G1 X109.275 Y121.875 E105.25689
G1 X110.300 Y121.889 E105.37858
G1 X99.382 Y110.971 E107.21233
G1 X99.760 Y110.339 E107.29985
G1 X111.324 Y121.903 E109.24213
G1 X112.349 Y121.917 E109.36382
G1 X100.138 Y109.706 E111.41465
G1 X100.517 Y109.074 E111.50217
G1 X113.373 Y121.930 E113.66153
G1 X114.398 Y121.944 E113.78322
G1 X100.895 Y108.442 E116.05112
G1 X101.273 Y107.809 E116.13864
G1 X115.422 Y121.958 E118.51508
G1 X116.447 Y121.972 E118.63677
G1 X101.652 Y107.177 E121.12175
G1 X102.030 Y106.544 E121.20927
G1 X117.471 Y121.986 E123.80279
G1 X118.496 Y121.999 F7800.000
G1 X102.408 Y105.912 E126.50485 F1080.000
G1 X102.786 Y105.279 E126.59237
G1 X119.520 Y122.013 E129.40296
G1 X118.525 Y120.007 F7800.000
G1 X103.165 Y104.647 E131.98283 F1080.000
G1 X103.543 Y104.015 E132.07035
G1 X114.178 Y114.649 E133.85655
G1 X109.831 Y109.292 F7800.000
G1 X103.921 Y103.382 E134.84908 F1080.000
G1 X105.636 Y104.086 F7800.000
G1 X104.300 Y102.750 E135.07349 F1080.000
G1 X105.439 Y102.879 E135.20969
G1 X104.678 Y102.117 E135.33754
G1 X105.122 Y101.551 E135.42304
G1 X105.999 Y102.428 E135.57034
G1 X106.559 Y101.977 E135.65572
G1 X105.682 Y101.100 E135.80308
G1 X106.242 Y100.649 E135.88845
G1 X107.120 Y101.527 E136.03588
G1 X107.680 Y101.076 E136.12125
G1 X106.802 Y100.198 E136.26873
G1 X107.361 Y99.747 E136.35410
G1 X108.240 Y100.626 E136.50164
G1 X108.800 Y100.175 E136.58701
G1 X107.921 Y99.297 E136.73461
G1 X108.646 Y99.011 E136.82714
G1 X108.481 Y98.846 E136.85483
G1 F1800.000 E135.85483
G92 E0
G1 X124.433 Y118.509 F7800.000
G1 E1.00000 F1800.000
G1 X124.572 Y118.648 E1.02335 F1080.000
G1 X123.817 Y119.003 E1.12242
G1 X124.669 Y119.855 E1.26556
G1 X124.055 Y120.351 E1.35928
G1 X123.201 Y119.496 E1.50274
G1 X122.584 Y119.990 E1.59650
G1 X123.441 Y120.846 E1.74030
G1 X122.827 Y121.342 E1.83402
G1 X121.972 Y120.487 E1.97758
G1 X121.362 Y120.987 E2.07122
G1 X122.212 Y121.837 E2.21400
G1 X121.303 Y122.037 E2.32463
G1 X120.753 Y121.487 E2.41698
G1 X120.178 Y122.022 E2.51023
G1 X120.158 Y122.002 E2.51364
G1 F1800.000 E1.51364
G92 E0
G1 X79.566 Y103.217 F7800.000
G1 E1.00000 F1800.000
G1 X81.104 Y103.217 E1.18262 F540.000
G1 X81.270 Y102.913 E1.22371
G1 X81.651 Y102.438 E1.29609
G1 X82.116 Y102.056 E1.36750
G1 X82.664 Y101.772 E1.44080
G1 X83.217 Y101.599 E1.50970
G1 X83.830 Y101.532 E1.58284
G1 X84.465 Y101.599 E1.65875
G1 X84.998 Y101.773 E1.72530
G1 X85.546 Y102.042 E1.79778
G1 X86.026 Y102.455 E1.87300
G1 X86.395 Y102.903 E1.94188
G1 X86.693 Y103.448 E2.01568
G1 X86.858 Y104.025 E2.08699
G1 X86.922 Y104.619 E2.15794
G1 X86.859 Y105.217 E2.22935
G1 X86.694 Y105.798 E2.30106
G1 X86.395 Y106.345 E2.37510
G1 X86.022 Y106.797 E2.44467
G1 X85.546 Y107.202 E2.51894
G1 X85.004 Y107.473 E2.59086
G1 X84.461 Y107.650 E2.65869
G1 X83.771 Y107.717 E2.74103
G1 X83.222 Y107.651 E2.80677
G1 X82.657 Y107.474 E2.87699
G1 X82.129 Y107.200 E2.94764
G1 X81.644 Y106.801 E3.02225
G1 X81.270 Y106.335 E3.09323
G1 X79.595 Y103.269 E3.50812
G1 X80.770 Y103.931 F7800.000
G1 X81.581 Y103.931 E3.60444 F540.000
G1 X81.644 Y103.717 E3.63089
G1 X81.866 Y103.311 E3.68590
G1 X82.159 Y102.946 E3.74143
G1 X82.516 Y102.652 E3.79641
G1 X82.935 Y102.436 E3.85232
G1 X83.364 Y102.301 E3.90578
G1 X83.831 Y102.251 E3.96155
G1 X84.315 Y102.301 E4.01938
G1 X84.728 Y102.436 E4.07097
G1 X85.149 Y102.643 E4.12671
G1 X85.514 Y102.957 E4.18380
G1 X85.800 Y103.304 E4.23731
G1 X86.028 Y103.721 E4.29370
G1 X86.155 Y104.163 E4.34826
G1 X86.203 Y104.620 E4.40288
G1 X86.155 Y105.081 E4.45796
G1 X86.029 Y105.526 E4.51285
G1 X85.800 Y105.944 E4.56939
G1 X85.512 Y106.294 E4.62332
G1 X85.149 Y106.602 E4.67977
G1 X84.732 Y106.810 E4.73522
G1 X84.313 Y106.948 E4.78759
G1 X83.795 Y106.998 E4.84932
G1 X83.367 Y106.948 E4.90057
G1 X82.931 Y106.811 E4.95484
G1 X82.524 Y106.600 E5.00917
G1 X82.154 Y106.296 E5.06604
G1 X81.866 Y105.937 E5.12072
G1 X80.799 Y103.983 E5.38515
G1 X81.974 Y104.645 F7800.000
G1 X82.178 Y104.645 E5.40933 F378.000
G1 X82.218 Y104.297 E5.45093
G1 X82.308 Y103.993 E5.48861
G1 X82.463 Y103.708 E5.52709
G1 X82.667 Y103.454 E5.56577
G1 X82.917 Y103.247 E5.60432
G1 X83.205 Y103.099 E5.64284
G1 X83.511 Y103.004 E5.68086
G1 X83.832 Y102.969 E5.71926
G1 X84.165 Y103.004 E5.75901
G1 X84.458 Y103.100 E5.79563
G1 X84.753 Y103.244 E5.83464
G1 X85.002 Y103.458 E5.87360
G1 X85.206 Y103.706 E5.91174
G1 X85.363 Y103.994 E5.95072
G1 X85.451 Y104.300 E5.98853
G1 X85.485 Y104.621 E6.02682
G1 X85.451 Y104.945 E6.06557
G1 X85.363 Y105.253 E6.10364
G1 X85.206 Y105.542 E6.14268
G1 X85.001 Y105.791 E6.18097
G1 X84.753 Y106.001 E6.21960
G1 X84.459 Y106.148 E6.25857
G1 X84.164 Y106.245 E6.29548
G1 X83.819 Y106.278 E6.33661
G1 X83.512 Y106.245 E6.37336
G1 X83.204 Y106.148 E6.41168
G1 X82.920 Y106.001 E6.44971
G1 X82.665 Y105.792 E6.48884
G1 X82.463 Y105.540 E6.52720
G1 X82.003 Y104.698 E6.64118
G1 X81.940 Y104.444 F7800.000
G1 F1800.000 E5.64118
G92 E0
G1 X100.385 Y97.108 F7800.000
G1 E1.00000 F1800.000
G1 X104.088 Y94.067 E1.56910 F540.000
G1 X105.342 Y95.590 E1.80344
G1 X101.612 Y98.650 E2.37643
G1 X85.372 Y114.051 E5.03453
G1 X81.609 Y126.190 E6.54386
G1 X77.938 Y125.239 E6.99421
G1 X75.328 Y135.292 E8.22775
G1 X71.863 Y134.393 E8.65294
G1 X74.471 Y124.337 E9.88684
G1 X71.107 Y123.463 E10.29961
G1 X74.462 Y105.267 E12.49706
G1 X77.895 Y83.184 E15.15123
G1 X88.157 Y74.731 E16.73024
G1 X89.408 Y76.250 E16.96399
G1 X87.402 Y77.883 E17.27122
G1 X85.709 Y79.318 E17.53470
G1 X87.102 Y81.039 E17.79769
G1 X98.972 Y95.423 E20.01265
G1 X100.347 Y97.062 E20.26665
G1 X100.479 Y96.105 F7800.000
G1 X104.187 Y93.064 E20.83626 F540.000
G1 X106.348 Y95.689 E21.24008
G1 X102.091 Y99.180 E21.89397
G1 X85.999 Y114.441 E24.52787
G1 X82.090 Y127.052 E26.09594
G1 X78.450 Y126.109 E26.54242
G1 X75.840 Y136.162 E27.77590
G1 X70.992 Y134.905 E28.37068
G1 X73.601 Y124.849 E29.60454
G1 X70.285 Y123.987 E30.01147
G1 X73.758 Y105.148 E32.28666
G1 X77.231 Y82.806 E34.97191
G1 X85.378 Y76.084 E36.22634
G1 X88.257 Y73.730 E36.66804
G1 X90.414 Y76.349 E37.07098
G1 X87.859 Y78.432 E37.46241
G1 X86.705 Y79.409 E37.64205
G1 X87.662 Y80.596 E37.82310
G1 X100.440 Y96.059 E40.20545
G1 X100.572 Y95.102 F7800.000
G1 X104.285 Y92.059 E40.77556 F378.000
G1 X107.354 Y95.787 E41.34904
G1 X102.570 Y99.710 E42.08383
G1 X86.626 Y114.831 E44.69354
G1 X82.570 Y127.914 E46.32034
G1 X78.962 Y126.980 E46.76295
G1 X76.352 Y137.032 E47.99639
G1 X70.122 Y135.416 E48.76075
G1 X72.731 Y125.360 E49.99458
G1 X69.462 Y124.511 E50.39566
G1 X73.053 Y105.028 E52.74860
G1 X76.567 Y82.428 E55.46493
G1 X84.927 Y75.529 E56.75223
G1 X88.355 Y72.726 E57.27817
G1 X91.418 Y76.446 E57.85042
G1 X87.701 Y79.501 E58.42182
G1 X88.223 Y80.153 E58.52095
G1 X100.534 Y95.056 E60.81669
G1 X100.826 Y95.411 F7800.000
G1 X101.126 Y97.774 F7800.000
G1 X103.951 Y95.453 E61.49424 F360.000
G1 X104.039 Y94.569 E61.65877
G1 X102.186 Y98.361 F7800.000
G1 X85.066 Y78.558 F7800.000
G1 X88.022 Y76.114 E62.36947 F360.000
G1 X88.106 Y75.239 E62.53234
G1 X84.349 Y78.512 F7800.000
G1 X84.523 Y78.685 E62.56148 F1080.000
G1 X83.790 Y78.973 E62.65501
G1 X89.292 Y84.475 E63.57911
G1 X94.111 Y90.315 F7800.000
G1 X83.230 Y79.434 E65.40669 F1080.000
G1 X82.671 Y79.895 E65.49280
G1 X98.964 Y96.188 E68.22947
G1 X100.640 Y98.885 F7800.000
G1 X82.111 Y80.356 E71.34164 F1080.000
G1 X81.551 Y80.817 E71.42775
G1 X100.116 Y99.382 E74.54593
G1 X99.593 Y99.879 E74.63167
G1 X80.992 Y81.278 E77.75585
G1 X80.432 Y81.739 E77.84197
G1 X99.069 Y100.376 E80.97216
G1 X98.545 Y100.872 E81.05791
G1 X79.872 Y82.200 E84.19410
G1 X79.313 Y82.661 E84.28021
G1 X98.021 Y101.369 E87.42241
G1 X97.497 Y101.866 E87.50816
G1 X78.753 Y83.122 E90.65637
G1 X78.317 Y83.707 E90.74299
G1 X96.973 Y102.363 E93.87641
G1 X96.449 Y102.860 E93.96216
G1 X78.180 Y84.590 E97.03066
G1 X78.043 Y85.474 E97.13683
G1 X95.925 Y103.357 E100.14040
