; generated by Slic3r 1.1.7 on 2014-11-16 at 11:28:48
; perimeters extrusion width = 0.40mm
; infill extrusion width = 0.42mm
; solid infill extrusion width = 0.42mm
; top infill extrusion width = 0.42mm
G21 ; set units to millimeters
M107
;M190 S50 ; wait for bed temperature to be reached
;M104 S240 ; set temperature
G28 ; home all axes
;M109 S240 ; wait for temperature to be reached
G90 ; use absolute coordinates
G92 E0
M82 ; use absolute distances for extrusion
G1 F1800.000 E-1.00000
G92 E0
G1 Z0.400 F7800.000
G1 X54.228 Y51.071 F7800.000
G1 E1.00000 F1800.000
G1 X55.932 Y49.514 E1.27422 F1080.000
G1 X58.362 Y48.565 E1.58403
G1 X85.560 Y43.711 E4.86525
G1 X86.740 Y43.607 E5.00590
G1 X95.458 Y43.607 E6.04130
G1 X97.733 Y44.004 E6.31553 F1080.000
G1 X99.738 Y45.148 E6.58975
G1 X101.362 Y47.124 E6.89355
G1 X148.371 Y133.949 E18.61968
G1 X149.105 Y136.138 E18.89390
G1 X148.938 Y138.935 E19.22667
G1 X148.530 Y140.123 E19.37577
G1 X134.070 Y172.420 E23.57842
G1 X132.778 Y174.333 E23.85264
G1 X130.914 Y175.696 E24.12687
G1 X127.942 Y176.390 E24.48937
G1 X81.494 Y176.390 E30.00578
G1 X79.219 Y175.993 E30.28000
G1 X76.698 Y174.375 E30.63579
G1 X60.547 Y157.892 E33.37650
G1 X59.239 Y155.990 E33.65072
G1 X58.690 Y154.094 E33.88514
G1 X52.344 Y107.182 E39.50733
G1 X48.698 Y68.708 E44.09717
G1 X48.992 Y66.014 E44.41904
G1 X53.152 Y53.114 E46.02880
G1 X54.200 Y51.124 E46.29590
G1 F1800.000 E45.29590
G92 E0
G1 X99.197 Y81.512 F7800.000
G1 E1.00000 F1800.000
G1 X88.248 Y90.553 E2.68646 F378.000
G1 X87.929 Y90.164 E2.74629
G1 X83.557 Y84.820 E3.56622
G1 X94.507 Y75.779 E5.25267
G1 X99.159 Y81.466 E6.12530
G1 X99.452 Y81.821 F7800.000
G1 F1800.000 E5.12530
G92 E0
G1 X80.800 Y81.789 F7800.000
G1 E1.00000 F1800.000
G1 X81.166 Y81.089 E1.09386 F378.000
G1 X84.022 Y82.584 E1.47665
G1 X82.433 Y85.575 E1.87891
G1 X82.511 Y89.301 E2.32154
G1 X79.280 Y89.102 E2.70603
G1 X79.359 Y84.548 E3.24701
G1 X80.423 Y82.512 E3.51980
G1 X80.061 Y82.218 E3.57522
G1 X79.661 Y82.546 E3.63667
G1 X79.375 Y82.702 E3.67529
G1 X79.066 Y82.795 E3.71368
G1 X78.742 Y82.827 E3.75235
G1 X78.420 Y82.795 E3.79077
G1 X78.111 Y82.702 E3.82914
G1 X77.825 Y82.546 E3.86776
G1 X77.576 Y82.341 E3.90611
G1 X77.370 Y82.091 E3.94460
G1 X77.217 Y81.806 E3.98292
G1 X77.122 Y81.499 E4.02119
G1 X77.090 Y81.175 E4.05979
G1 X77.122 Y80.849 E4.09871
G1 X77.217 Y80.544 E4.13669
G1 X77.370 Y80.257 E4.17528
G1 X77.575 Y80.010 E4.21338
G1 X77.825 Y79.799 E4.25225
G1 X78.112 Y79.648 E4.29076
G1 X78.420 Y79.552 E4.32905
G1 X78.742 Y79.523 E4.36744
G1 X79.066 Y79.552 E4.40608
G1 X79.374 Y79.648 E4.44438
G1 X79.661 Y79.799 E4.48290
G1 X79.911 Y80.010 E4.52177
G1 X80.116 Y80.257 E4.55986
G1 X80.269 Y80.544 E4.59846
G1 X80.365 Y80.851 E4.63662
G1 X80.394 Y81.175 E4.67532
G1 X80.350 Y81.657 E4.73282
G1 X80.743 Y81.773 E4.78141
G1 X80.757 Y81.392 F7800.000
G1 X73.476 Y92.106 F7800.000
G1 X74.073 Y99.506 E5.66315 F378.000
G1 X59.918 Y100.648 E7.34963
G1 X59.322 Y93.246 E8.23156
G1 X73.417 Y92.111 E9.91090
G1 X73.875 Y92.074 F7800.000
G1 X120.776 Y144.491 F7800.000
G1 X121.242 Y144.099 E9.98324 F540.000
G1 X121.797 Y143.809 E10.05753
G1 X122.352 Y143.646 E10.12627
G1 X122.959 Y143.577 E10.19885
G1 X123.408 Y143.628 E10.25256
G1 X123.569 Y143.646 E10.27176 F540.000
G1 X124.129 Y143.810 E10.34103
G1 X124.668 Y144.095 E10.41340
G1 X125.146 Y144.484 E10.48659
G1 X125.533 Y144.957 E10.55924
G1 X125.816 Y145.494 E10.63133
G1 X125.988 Y146.068 E10.70252
G1 X126.047 Y146.667 E10.77398
G1 X125.988 Y147.266 E10.84544
G1 X125.816 Y147.840 E10.91664
G1 X125.539 Y148.365 E10.98711
G1 X125.145 Y148.861 E11.06234
G1 X124.652 Y149.247 E11.13673
G1 X124.148 Y149.514 E11.20448
G1 X123.569 Y149.698 E11.27660
G1 X122.959 Y149.753 E11.34936
G1 X122.352 Y149.698 E11.42182
G1 X121.777 Y149.515 E11.49344
G1 X121.258 Y149.243 E11.56305
G1 X120.776 Y148.854 E11.63661
G1 X120.383 Y148.365 E11.71110
G1 X120.117 Y147.853 E11.77960
G1 X119.934 Y147.287 E11.85023
G1 X119.873 Y146.667 E11.92424
G1 X119.934 Y146.047 E11.99826
G1 X120.117 Y145.481 E12.06889
G1 X120.389 Y144.957 E12.13904
G1 X120.738 Y144.537 E12.20379
G1 X121.284 Y144.996 F7800.000
G1 X121.642 Y144.696 E12.25927 F540.000
G1 X122.065 Y144.475 E12.31595
G1 X122.494 Y144.349 E12.36905
G1 X122.593 Y144.338 E12.38090
G1 X122.959 Y144.296 E12.42468 F540.000
G1 X123.427 Y144.349 E12.48059
G1 X123.859 Y144.475 E12.53403
G1 X124.272 Y144.693 E12.58945
G1 X124.639 Y144.992 E12.64566
G1 X124.935 Y145.354 E12.70121
G1 X125.152 Y145.765 E12.75647
G1 X125.284 Y146.207 E12.81118
G1 X125.329 Y146.667 E12.86611
G1 X125.284 Y147.127 E12.92102
G1 X125.152 Y147.569 E12.97575
G1 X124.939 Y147.973 E13.03002
G1 X124.639 Y148.351 E13.08736
G1 X124.262 Y148.646 E13.14412
G1 X123.871 Y148.852 E13.19674
G1 X123.427 Y148.994 E13.25198
G1 X122.960 Y149.036 E13.30778
G1 X122.494 Y148.994 E13.36330
G1 X122.053 Y148.853 E13.41824
G1 X121.652 Y148.643 E13.47207
G1 X121.285 Y148.346 E13.52811
G1 X120.984 Y147.973 E13.58506
G1 X120.779 Y147.576 E13.63809
G1 X120.637 Y147.140 E13.69254
G1 X120.590 Y146.667 E13.74902
G1 X120.637 Y146.194 E13.80550
G1 X120.779 Y145.758 E13.85995
G1 X120.988 Y145.354 E13.91399
G1 X121.246 Y145.043 E13.96200
G1 X121.793 Y145.502 F7800.000
G1 X122.042 Y145.293 E14.00061 F378.000
G1 X122.334 Y145.140 E14.03969
G1 X122.636 Y145.052 E14.07715
G1 X122.960 Y145.014 E14.11582
G1 X123.247 Y145.047 E14.15013
G1 X123.589 Y145.140 E14.19227 F378.000
G1 X123.876 Y145.292 E14.23076
G1 X124.132 Y145.500 E14.26999
G1 X124.337 Y145.751 E14.30843
G1 X124.488 Y146.037 E14.34687
G1 X124.580 Y146.345 E14.38510
G1 X124.612 Y146.667 E14.42348
G1 X124.580 Y146.989 E14.46187
G1 X124.488 Y147.297 E14.50010
G1 X124.338 Y147.581 E14.53818
G1 X124.132 Y147.841 E14.57762
G1 X123.872 Y148.044 E14.61677
G1 X123.593 Y148.191 E14.65424
G1 X123.285 Y148.290 E14.69262
G1 X122.960 Y148.319 E14.73145
G1 X122.636 Y148.289 E14.77004
G1 X122.329 Y148.192 E14.80829
G1 X122.045 Y148.043 E14.84635
G1 X121.793 Y147.839 E14.88487
G1 X121.585 Y147.581 E14.92427
G1 X121.440 Y147.300 E14.96183
G1 X121.340 Y146.993 E15.00011
G1 X121.308 Y146.667 E15.03905
G1 X121.340 Y146.341 E15.07800
G1 X121.440 Y146.034 E15.11627
G1 X121.587 Y145.751 E15.15419
G1 X121.755 Y145.548 E15.18546
G1 X123.438 Y144.748 F7800.000
G1 X83.416 Y149.344 F7800.000
G1 X83.448 Y149.665 E15.22373 F378.000
G1 X83.416 Y149.988 E15.26225
G1 X83.321 Y150.299 E15.30097
G1 X83.167 Y150.586 E15.33954
G1 X82.962 Y150.833 E15.37771
G1 X82.712 Y151.041 E15.41642
G1 X82.427 Y151.191 E15.45458
G1 X82.118 Y151.290 E15.49314
G1 X81.796 Y151.316 E15.53152
G1 X81.469 Y151.290 E15.57047
G1 X81.175 Y151.195 E15.60714
G1 X80.882 Y151.044 E15.64631
G1 X80.584 Y150.787 E15.69301
G1 X80.423 Y150.582 E15.72401
G1 X80.269 Y150.301 E15.76207
G1 X80.174 Y149.988 E15.80095
G1 X80.142 Y149.665 E15.83949
G1 X80.174 Y149.344 E15.87775
G1 X80.269 Y149.031 E15.91665
G1 X80.423 Y148.749 E15.95478
G1 X80.637 Y148.493 E15.99446
G1 X80.921 Y148.269 E16.03732
G1 X81.166 Y148.141 E16.07023
G1 X81.492 Y148.043 E16.11065
G1 X81.796 Y148.015 E16.14688
G1 X82.120 Y148.045 E16.18547
G1 X82.430 Y148.144 E16.22417 F378.000
G1 X82.712 Y148.297 E16.26227
G1 X82.960 Y148.498 E16.30020
G1 X83.167 Y148.745 E16.33849
G1 X83.321 Y149.033 E16.37719
G1 X83.399 Y149.287 E16.40876
G1 X82.091 Y147.720 F7800.000
G1 X86.542 Y151.365 F7800.000
G1 X86.540 Y167.848 E18.36635 F540.000
G1 X83.322 Y167.848 E18.74847
G1 X83.322 Y152.334 E20.59094
G1 X83.510 Y152.235 E20.61616
G1 X83.977 Y151.847 E20.68827
G1 X84.358 Y151.387 E20.75916
G1 X84.646 Y150.851 E20.83146
G1 X84.824 Y150.268 E20.90380
G1 X84.883 Y149.664 E20.97590
G1 X84.824 Y149.063 E21.04769
G1 X84.646 Y148.481 E21.11993
G1 X84.356 Y147.940 E21.19282
G1 X83.966 Y147.475 E21.26489
G1 X83.510 Y147.106 E21.33453
G1 X82.995 Y146.824 E21.40432
G1 X82.404 Y146.636 E21.47792
G1 X81.797 Y146.581 E21.55037
G1 X81.219 Y146.633 E21.61923
G1 X80.625 Y146.812 E21.69292
G1 X80.173 Y147.048 E21.75345
G1 X79.657 Y147.449 E21.83107
G1 X79.228 Y147.957 E21.91002
G1 X78.946 Y148.474 E21.97996
G1 X78.766 Y149.063 E22.05312
G1 X78.707 Y149.664 E22.12486
G1 X78.766 Y150.269 E22.19704
G1 X78.946 Y150.857 E22.27008
G1 X79.223 Y151.365 E22.33874
G1 X66.980 Y151.365 E23.79272
G1 X65.590 Y138.798 E25.29425
G1 X79.650 Y137.628 E26.96985
G1 X76.450 Y103.269 E31.06808
G1 X60.678 Y104.577 E32.94773
G1 X60.437 Y102.037 E33.25077
G1 X75.611 Y100.815 E35.05872
G1 X74.785 Y90.567 E36.27965
G1 X59.468 Y91.801 E38.10473
G1 X57.374 Y69.718 E40.73921
G1 X62.715 Y69.198 E41.37648
G1 X61.535 Y56.816 E42.85365
G1 X66.028 Y56.373 E43.38984
G1 X67.199 Y68.748 E44.86616
G1 X72.659 Y68.217 E45.51762
G1 X74.343 Y79.837 E46.91209
G1 X76.001 Y79.649 E47.11025
G1 X75.715 Y80.563 E47.22401
G1 X75.655 Y81.176 E47.29706
G1 X75.715 Y81.783 E47.36954
G1 X75.894 Y82.361 E47.44145
G1 X76.178 Y82.889 E47.51262
G1 X76.561 Y83.356 E47.58433
G1 X77.023 Y83.735 E47.65532
G1 X77.556 Y84.026 E47.72749
G1 X77.938 Y84.142 E47.77485
G1 X77.828 Y90.444 E48.52341
G1 X83.972 Y90.822 E49.25446
G1 X83.915 Y88.121 E49.57533
G1 X84.297 Y87.980 E49.62370
G1 X87.227 Y91.562 E50.17324
G1 X85.987 Y92.586 E50.36426
G1 X92.528 Y100.584 E51.59139
G1 X100.428 Y110.139 E53.06386
G1 X112.190 Y124.526 E55.27092
G1 X119.865 Y133.812 E56.70165
G1 X127.826 Y143.172 E58.16099
G1 X136.029 Y136.481 E59.41822
G1 X138.395 Y134.530 E59.78238
G1 X140.113 Y136.976 E60.13739
G1 X126.114 Y149.539 E62.37133
G1 X126.114 Y167.848 E64.54574
G1 X122.888 Y167.848 E64.92880
G1 X122.888 Y151.365 E66.88640
G1 X86.602 Y151.365 E71.19590
G1 X87.256 Y152.079 F7800.000
G1 X87.254 Y168.562 E73.15350 F540.000
G1 X82.608 Y168.562 E73.70525
G1 X82.608 Y151.903 E75.68368
G1 X83.111 Y151.638 E75.75119
G1 X83.469 Y151.340 E75.80660
G1 X83.763 Y150.986 E75.86113
G1 X83.984 Y150.575 E75.91656
G1 X84.120 Y150.128 E75.97209
G1 X84.165 Y149.665 E76.02740
G1 X84.120 Y149.203 E76.08243
G1 X83.984 Y148.757 E76.13790
G1 X83.761 Y148.343 E76.19370
G1 X83.463 Y147.987 E76.24887
G1 X83.111 Y147.702 E76.30266
G1 X82.712 Y147.484 E76.35661
G1 X82.262 Y147.340 E76.41276
G1 X81.796 Y147.298 E76.46828
G1 X81.356 Y147.338 E76.52082
G1 X80.896 Y147.477 E76.57787
G1 X80.547 Y147.658 E76.62459
G1 X80.147 Y147.971 E76.68484
G1 X79.826 Y148.353 E76.74415
G1 X79.608 Y148.752 E76.79818
G1 X79.544 Y148.960 E76.82392
G1 X79.470 Y149.204 E76.85421
G1 X79.424 Y149.664 E76.90922
G1 X79.470 Y150.128 E76.96458
G1 X79.608 Y150.579 E77.02053
G1 X79.825 Y150.977 E77.07437
G1 X80.050 Y151.263 E77.11756
G1 X81.009 Y152.079 E77.26712
G1 X66.341 Y152.079 E79.00915
G1 X64.800 Y138.148 E80.67379
G1 X78.872 Y136.976 E82.35086
G1 X75.805 Y104.040 E86.27948
G1 X60.033 Y105.348 E88.15901
G1 X59.658 Y101.386 E88.63157
G1 X74.842 Y100.160 E90.44071
G1 X74.131 Y91.337 E91.49205
G1 X58.823 Y92.570 E93.31594
G1 X56.596 Y69.076 E96.11864
G1 X61.936 Y68.556 E96.75589
G1 X60.757 Y56.175 E98.23298
G1 X66.670 Y55.592 E98.93871
G1 X67.842 Y67.968 E100.41507
G1 X73.268 Y67.441 E101.06245
G1 X74.950 Y79.050 E102.45561
G1 X77.292 Y78.784 E102.73545
G1 X77.459 Y79.174 E102.78583
G1 X77.066 Y79.505 E102.84689
G1 X76.774 Y79.857 E102.90122
G1 X76.556 Y80.267 E102.95636
G1 X76.418 Y80.706 E103.01103
G1 X76.373 Y81.175 E103.06702
G1 X76.418 Y81.641 E103.12255
G1 X76.556 Y82.084 E103.17765
G1 X76.774 Y82.490 E103.23239
G1 X77.068 Y82.849 E103.28749
G1 X77.424 Y83.141 E103.34216
G1 X77.833 Y83.364 E103.39755
G1 X78.281 Y83.499 E103.45304
G1 X79.061 Y83.576 E103.54620
G1 X78.648 Y84.367 E103.65217
G1 X78.554 Y89.773 E104.29434
G1 X83.241 Y90.062 E104.85211
G1 X83.158 Y86.067 E105.32663
G1 X83.540 Y85.926 E105.37499
G1 X88.230 Y91.660 E106.25472
G1 X86.989 Y92.684 E106.44575
G1 X93.079 Y100.131 E107.58825
G1 X100.980 Y109.685 E109.06067
G1 X112.742 Y124.073 E111.26775
G1 X120.415 Y133.357 E112.69826
G1 X127.916 Y142.175 E114.07320
G1 X135.563 Y135.939 E115.24517
G1 X138.536 Y133.489 E115.70272
G1 X141.062 Y137.085 E116.22459
G1 X126.828 Y149.858 E118.49597
G1 X126.828 Y168.562 E120.71735
G1 X122.174 Y168.562 E121.27004
G1 X122.174 Y152.079 E123.22763
G1 X87.316 Y152.079 E127.36754
G1 X83.510 Y78.798 F7800.000
G1 X83.510 Y65.793 E128.91199 F540.000
G1 X88.568 Y65.793 E129.51272
G1 X88.568 Y52.149 E131.13316
G1 X93.630 Y52.149 E131.73427
G1 X93.630 Y65.793 E133.35470
G1 X98.756 Y65.793 E133.96350
G1 X98.770 Y78.734 E135.50043
G1 X94.704 Y73.764 E136.26307
G1 X85.217 Y81.597 E137.72426
G1 X81.377 Y79.587 E138.23899
G1 X81.102 Y79.071 E138.30846
G1 X83.451 Y78.804 E138.58914
G1 X82.796 Y78.160 F7800.000
G1 X82.796 Y65.079 E140.14268 F540.000
G1 X87.854 Y65.079 E140.74340
G1 X87.854 Y51.435 E142.36384
G1 X94.344 Y51.435 E143.13459
G1 X94.344 Y65.079 E144.75502
G1 X99.469 Y65.079 E145.36372
G1 X99.486 Y80.738 E147.22343
G1 X94.606 Y74.771 E148.13892
G1 X85.306 Y82.450 E149.57121
G1 X80.851 Y80.117 E150.16849
G1 X80.712 Y79.857 E150.20350
G1 X80.420 Y79.505 E150.25783
G1 X80.062 Y79.204 E150.31341
G1 X79.550 Y78.933 E150.38213
G1 X79.629 Y78.519 E150.43220
G1 X82.737 Y78.167 E150.80369
G1 X82.082 Y77.522 F7800.000
G1 X82.082 Y64.365 E152.36630 F378.000
G1 X87.140 Y64.365 E152.96703
G1 X87.140 Y50.721 E154.58746
G1 X95.058 Y50.721 E155.52785
G1 X95.058 Y64.365 E157.14828
G1 X100.182 Y64.365 E157.75688
G1 X100.203 Y82.700 E159.93444
G1 X87.992 Y92.782 E161.81506
G1 X93.631 Y99.677 E162.87293
G1 X101.531 Y109.231 E164.34529
G1 X113.293 Y123.619 E166.55240
G1 X120.925 Y132.852 E167.97504
G1 X128.006 Y141.179 E169.27323
G1 X135.097 Y135.397 E170.35993
G1 X138.677 Y132.447 E170.91087
G1 X142.011 Y137.193 E171.59961
G1 X127.542 Y150.177 E173.90841
G1 X127.542 Y169.276 E176.17676
G1 X121.460 Y169.276 E176.89909
G1 X121.460 Y152.793 E178.85668
G1 X87.970 Y152.793 E182.83410
G1 X87.968 Y169.276 E184.79170
G1 X81.894 Y169.276 E185.51308
G1 X81.894 Y152.793 E187.47068
G1 X65.701 Y152.793 E189.39379
G1 X64.009 Y137.497 E191.22153
G1 X78.094 Y136.324 E192.90007
G1 X75.159 Y104.810 E196.65908
G1 X59.389 Y106.118 E198.53850
G1 X55.818 Y68.434 E203.03401
G1 X61.158 Y67.914 E203.67122
G1 X59.978 Y55.534 E205.14824
G1 X67.312 Y54.812 E206.02351
G1 X68.486 Y67.188 E207.49992
G1 X73.877 Y66.664 E208.14321
G1 X75.558 Y78.262 E209.53505
G1 X82.022 Y77.529 E210.30774
G1 X82.482 Y77.507 F7800.000
G1 X74.745 Y80.293 F7800.000
G1 X75.197 Y80.745 E210.38364 F1080.000
G1 X75.214 Y81.774 E210.50585
G1 X63.100 Y69.660 E212.54035
G1 X62.178 Y69.750 E212.65042
G1 X77.425 Y84.997 E215.21131
G1 X77.408 Y85.992 E215.32948
G1 X61.256 Y69.840 E218.04238
G1 X60.333 Y69.930 E218.15245
G1 X77.390 Y86.987 E221.01737
G1 X77.373 Y87.982 E221.13555
G1 X59.411 Y70.020 E224.15248
G1 X58.488 Y70.110 E224.26255
G1 X77.356 Y88.977 E227.43150
G1 X77.338 Y89.972 E227.54968
G1 X57.957 Y70.591 E230.80494
G1 X58.063 Y71.709 E230.93835
G1 X114.706 Y128.352 E240.45212
G1 X109.997 Y122.631 F7800.000
G1 X78.340 Y90.974 E245.76921 F1080.000
G1 X79.419 Y91.040 E245.89756
G1 X105.463 Y117.085 E250.27194
G1 X100.929 Y111.538 F7800.000
G1 X80.498 Y91.107 E253.70359 F1080.000
G1 X81.577 Y91.173 E253.83195
G1 X96.154 Y105.750 E256.28031
G1 X91.369 Y99.953 F7800.000
G1 X82.655 Y91.240 E257.74385 F1080.000
G1 X83.734 Y91.306 E257.87221
G1 X86.826 Y94.398 E258.39146
G1 X85.654 Y92.214 F7800.000
G1 X84.474 Y91.034 E258.58972 F1080.000
G1 X84.452 Y90.000 E258.71255
G1 X86.209 Y91.757 E259.00757
G1 X75.407 Y92.090 F7800.000
G1 X129.315 Y145.997 E268.06187 F1080.000
G1 X129.849 Y145.519 E268.14700
G1 X128.001 Y143.671 E268.45731
G1 X128.559 Y143.216 E268.54276
G1 X130.382 Y145.040 E268.84904
G1 X130.916 Y144.561 E268.93417
G1 X129.116 Y142.762 E269.23641
G1 X129.674 Y142.307 E269.32185
G1 X131.449 Y144.083 E269.62006
G1 X131.983 Y143.604 E269.70519
G1 X130.231 Y141.852 E269.99937
G1 X130.789 Y141.398 E270.08481
G1 X132.516 Y143.125 E270.37495
G1 X133.050 Y142.646 E270.46009
G1 X131.346 Y140.943 E270.74619
G1 X131.904 Y140.488 E270.83164
G1 X133.583 Y142.168 E271.11371
G1 X134.117 Y141.689 E271.19884
G1 X132.461 Y140.033 E271.47688
G1 X133.019 Y139.579 E271.56233
G1 X134.650 Y141.210 E271.83633
G1 X135.184 Y140.731 E271.92146
G1 X133.576 Y139.124 E272.19143
