; generated by Slic3r 1.1.7 on 2014-10-22 at 19:56:34

; perimeters extrusion width = 0.40mm
; infill extrusion width = 0.42mm
; solid infill extrusion width = 0.42mm
; top infill extrusion width = 0.42mm

G21 ; set units to millimeters
M107
M190 S50 ; wait for bed temperature to be reached
M104 S250 ; set temperature
G28 ; home all axes

M109 S250 ; wait for temperature to be reached
G90 ; use absolute coordinates
G92 E0
M82 ; use absolute distances for extrusion
G1 F1800.000 E-1.00000
G92 E0
G1 Z0.400 F7800.000
G1 X83.815 Y80.938 F7800.000
G1 E1.00000 F1800.000
G1 X90.006 Y75.841 E1.95235 F1080.000
G1 X92.017 Y74.707 E2.22658
G1 X94.293 Y74.321 E2.50080
G1 X96.566 Y74.729 E2.77503
G1 X99.324 Y76.627 E3.17259 F1080.000
G1 X109.637 Y88.477 E5.03837
G1 X111.552 Y90.796 E5.39553
G1 X117.705 Y98.390 E6.55634
G1 X119.528 Y100.681 E6.90402
G1 X120.633 Y102.708 E7.17825
G1 X120.986 Y104.990 E7.45247
G1 X120.545 Y107.256 E7.72670
G1 X119.320 Y109.288 E8.00844
G1 X105.862 Y124.625 E10.43173
G1 X104.064 Y126.073 E10.70596
G1 X101.881 Y126.826 E10.98018
G1 X100.175 Y126.880 E11.18285
G1 X96.340 Y126.511 E11.64045
G1 X93.651 Y125.654 E11.97571
G1 X81.479 Y118.677 E13.64197
G1 X79.703 Y117.201 E13.91619
G1 X78.532 Y115.211 E14.19042
G1 X78.115 Y113.241 E14.42952
G1 X77.798 Y107.792 E15.07776
G1 X77.880 Y106.284 E15.25716
G1 X81.477 Y84.990 E17.82197
G1 X82.247 Y82.813 E18.09620
G1 X83.776 Y80.984 E18.37940
G1 F1800.000 E17.37940
G92 E0
G1 X102.714 Y106.132 F7800.000
G1 E1.00000 F1800.000
G1 X102.354 Y106.326 E1.04854 F378.000
G1 X101.952 Y106.362 E1.09646
G1 X101.567 Y106.250 E1.14415
G1 X101.253 Y105.991 E1.19245
G1 X101.063 Y105.635 E1.24040
G1 X101.021 Y105.233 E1.28832
G1 X101.140 Y104.844 E1.33661
G1 X101.396 Y104.528 E1.38498
G1 X101.752 Y104.343 E1.43261
G1 X102.154 Y104.300 E1.48064
G1 X102.275 Y104.337 E1.49569
G1 X102.538 Y104.419 E1.52832 F378.000
G1 X102.853 Y104.669 E1.57617
G1 X103.043 Y105.028 E1.62440
G1 X103.086 Y105.429 E1.67225
G1 X102.967 Y105.819 E1.72062
G1 X102.752 Y106.085 E1.76134
G1 F1800.000 E0.76134
G92 E0
G1 X102.290 Y104.063 F7800.000
G1 X102.639 Y107.734 F7800.000
G1 E1.00000 F1800.000
G1 X102.277 Y112.078 E1.51775 F540.000
G1 X97.128 Y111.583 E2.13209
G1 X97.765 Y105.002 E2.91730
G1 X102.289 Y97.438 E3.96407
G1 X102.895 Y98.213 E4.08091
G1 X108.671 Y105.327 E5.16919
G1 X104.505 Y105.271 E5.66399
G1 X104.434 Y104.603 E5.74379
G1 X103.975 Y103.737 E5.86009
G1 X103.216 Y103.133 E5.97529
G1 X102.295 Y102.849 E6.08980
G1 X101.332 Y102.951 E6.20483
G1 X100.474 Y103.398 E6.31977
G1 X99.854 Y104.161 E6.43653
G1 X99.571 Y105.093 E6.55221
G1 X99.671 Y106.060 E6.66765
G1 X100.126 Y106.913 E6.78246
G1 X100.885 Y107.539 E6.89927
G1 X101.812 Y107.808 E7.01393
G1 X102.579 Y107.739 E7.10543
G1 X100.429 Y112.617 F7800.000
G1 X99.816 Y118.980 E7.86457 F540.000
G1 X98.207 Y118.827 E8.05653
G1 X98.819 Y112.464 E8.81580
G1 X96.349 Y112.225 E9.11061
G1 X97.069 Y104.773 E9.99972
G1 X102.421 Y95.826 E11.23794
G1 X104.301 Y94.310 E11.52476
G1 X104.754 Y94.859 E11.60930
G1 X102.560 Y96.630 E11.94415
G1 X103.459 Y97.775 E12.11701
G1 X109.229 Y104.875 E13.20358
G1 X110.065 Y105.936 E13.36405
G1 X112.280 Y104.144 E13.70244
G1 X112.714 Y104.689 E13.78527
G1 X110.994 Y106.072 E14.04738
G1 X103.667 Y105.973 E14.91767
G1 X103.811 Y105.497 E14.97676
G1 X103.739 Y104.815 E15.05821
G1 X103.414 Y104.203 E15.14048
G1 X102.877 Y103.776 E15.22200
G1 X102.225 Y103.574 E15.30309
G1 X101.542 Y103.647 E15.38463
G1 X100.935 Y103.963 E15.46592
G1 X100.497 Y104.503 E15.54848
G1 X100.296 Y105.163 E15.63046
G1 X100.367 Y105.847 E15.71215
G1 X100.690 Y106.452 E15.79352
G1 X101.226 Y106.894 E15.87608
G1 X101.882 Y107.085 E15.95725
G1 X102.564 Y107.024 E16.03857
G1 X103.455 Y106.543 E16.15877
G1 X102.929 Y112.859 E16.91143
G1 X100.488 Y112.623 E17.20262
G1 X101.071 Y113.397 F7800.000
G1 X100.457 Y119.760 E17.96181 F378.000
G1 X97.426 Y119.469 E18.32333
G1 X98.040 Y113.106 E19.08257
G1 X95.569 Y112.867 E19.37739
G1 X96.374 Y104.545 E20.37040
G1 X101.874 Y95.349 E21.64300
G1 X104.402 Y93.311 E22.02867
G1 X105.771 Y94.969 E22.28399
G1 X103.560 Y96.742 E22.62063
G1 X106.535 Y100.435 E23.18381
G1 X110.175 Y104.922 E23.87003
G1 X112.390 Y103.136 E24.20800
G1 X113.714 Y104.799 E24.46039
G1 X111.241 Y106.790 E24.83742
G1 X104.159 Y106.694 E25.67861
G1 X103.581 Y113.639 E26.50628
G1 X101.131 Y113.403 E26.79861
G1 X100.673 Y113.358 F7800.000
G1 X97.675 Y111.099 F7800.000
G1 X97.716 Y111.139 E26.80542 F1080.000
G1 X98.953 Y111.258 E26.95300
G1 X97.774 Y110.079 E27.15102
G1 X97.872 Y109.060 E27.27263
G1 X100.190 Y111.377 E27.66184
G1 X101.427 Y111.497 E27.80943
G1 X97.971 Y108.041 E28.38984
G1 X98.069 Y107.022 E28.51146
G1 X101.881 Y110.834 E29.15171
G1 X101.967 Y109.802 E29.27469
G1 X98.168 Y106.002 E29.91282
G1 X99.150 Y105.867 E30.03058
G1 X98.323 Y105.039 E30.16960
G1 X99.154 Y104.753 E30.27406
G1 X99.057 Y104.656 E30.29040
G1 X101.528 Y108.244 F7800.000
G1 X102.053 Y108.770 E30.37871 F1080.000
G1 X99.086 Y104.069 F7800.000
G1 X100.106 Y102.611 E30.49703 F360.000
G1 X100.237 Y102.095 F7800.000
G1 X100.141 Y101.999 E30.51313 F1080.000
G1 X100.580 Y101.266 E30.61461
G1 X101.722 Y102.409 E30.80659
G1 X103.045 Y102.559 E30.96466
G1 X101.018 Y100.533 E31.30508
G1 X101.457 Y99.799 E31.40656
G1 X106.457 Y104.799 E32.24633
G1 X107.493 Y104.664 E32.37049
G1 X101.896 Y99.066 E33.31069
G1 X102.485 Y98.483 E33.40911
G1 X102.349 Y98.347 E33.43192
G1 X104.895 Y104.409 F7800.000
G1 X105.269 Y104.783 E33.49471 F1080.000
G1 X99.658 Y112.186 F7800.000
G1 X99.045 Y118.548 E34.67895 F360.000
G1 F1800.000 E33.67895
G92 E0
G1 X90.347 Y93.811 F7800.000
G1 E1.00000 F1800.000
G1 X93.280 Y95.252 E1.38811 F540.000
G1 X93.669 Y95.585 E1.44890
G1 X93.958 Y95.937 E1.50304
G1 X94.197 Y96.375 E1.56222
G1 X94.330 Y96.837 E1.61932
G1 X94.380 Y97.309 E1.67573
G1 X94.330 Y97.782 E1.73225
G1 X94.198 Y98.248 E1.78968
G1 X93.958 Y98.687 E1.84911
G1 X93.665 Y99.043 E1.90392
G1 X93.280 Y99.369 E1.96385
G1 X92.850 Y99.584 E2.02090
G1 X92.421 Y99.725 E2.07462
G1 X92.170 Y99.750 E2.10458
G1 X91.855 Y99.780 E2.14215
G1 X91.425 Y99.725 E2.19357
G1 X90.979 Y99.585 E2.24912
G1 X90.559 Y99.367 E2.30531
G1 X90.168 Y99.047 E2.36533
G1 X89.871 Y98.676 E2.42169
G1 X89.641 Y98.254 E2.47886
G1 X89.506 Y97.797 E2.53546
G1 X89.451 Y97.309 E2.59377
G1 X89.507 Y96.822 E2.65192
G1 X89.642 Y96.368 E2.70818
G1 X89.871 Y95.947 E2.76511
G1 X90.176 Y95.568 E2.82288
G1 X90.347 Y95.431 E2.84893
G1 X90.347 Y93.871 E3.03415
G1 X91.061 Y94.958 F7800.000
G1 X92.884 Y95.853 E3.27533 F540.000
G1 X93.156 Y96.087 E3.31800
G1 X93.364 Y96.339 E3.35676
G1 X93.532 Y96.648 E3.39853
G1 X93.626 Y96.974 E3.43887
G1 X93.662 Y97.310 E3.47895
G1 X93.627 Y97.647 E3.51917
G1 X93.533 Y97.975 E3.55977
G1 X93.364 Y98.285 E3.60169
G1 X93.154 Y98.540 E3.64086
G1 X92.884 Y98.769 E3.68297
G1 X92.578 Y98.922 E3.72355
G1 X92.272 Y99.022 E3.76180
G1 X92.100 Y99.039 E3.78240
G1 X91.879 Y99.060 E3.80873
G1 X91.570 Y99.022 E3.84566
G1 X91.252 Y98.922 E3.88524
G1 X90.954 Y98.768 E3.92513
G1 X90.679 Y98.542 E3.96741
G1 X90.468 Y98.279 E4.00747
G1 X90.304 Y97.979 E4.04801
G1 X90.209 Y97.655 E4.08811
G1 X90.170 Y97.310 E4.12943
G1 X90.210 Y96.965 E4.17057
G1 X90.305 Y96.644 E4.21042
G1 X90.468 Y96.345 E4.25082
G1 X90.683 Y96.076 E4.29173
G1 X91.061 Y95.765 E4.34986
G1 X91.061 Y95.018 E4.43861
G1 X91.775 Y96.104 F7800.000
G1 X92.488 Y96.454 E4.53286 F378.000
G1 X92.644 Y96.589 E4.55741
G1 X92.769 Y96.741 E4.58079
G1 X92.868 Y96.921 E4.60515
G1 X92.923 Y97.112 E4.62874
G1 X92.944 Y97.310 E4.65247
G1 X92.923 Y97.511 E4.67640
G1 X92.868 Y97.703 E4.70016
G1 X92.769 Y97.883 E4.72458
G1 X92.644 Y98.036 E4.74810
G1 X92.487 Y98.169 E4.77241
G1 X92.306 Y98.259 E4.79651
G1 X92.124 Y98.319 E4.81929
G1 X91.903 Y98.341 E4.84562
G1 X91.715 Y98.319 E4.86806
G1 X91.525 Y98.260 E4.89169
G1 X91.349 Y98.168 E4.91527
G1 X91.189 Y98.037 E4.93980
G1 X91.064 Y97.881 E4.96355
G1 X90.968 Y97.704 E4.98748
G1 X90.912 Y97.514 E5.01108
G1 X90.889 Y97.310 E5.03541
G1 X90.912 Y97.108 E5.05953
G1 X90.968 Y96.919 E5.08296
G1 X91.064 Y96.743 E5.10684
G1 X91.191 Y96.585 E5.13090
G1 X91.412 Y96.422 E5.16350
G1 X91.527 Y96.364 E5.17878
G1 X91.775 Y96.286 E5.20969
G1 X91.775 Y96.164 E5.22416
G1 X91.895 Y95.722 F7800.000
G1 X99.574 Y94.233 F7800.000
G1 X91.884 Y101.527 E6.48296 F540.000
G1 X90.190 Y106.991 E7.16244
G1 X86.607 Y106.061 E7.60205
G1 X88.132 Y97.787 E8.60125
G1 X89.797 Y87.076 E9.88860
G1 X92.101 Y85.175 E10.24338
G1 X92.976 Y86.260 E10.40883
G1 X99.536 Y94.187 E11.63088
G1 X100.170 Y93.833 F7800.000
G1 X102.070 Y92.271 E11.92297 F540.000
G1 X102.443 Y92.724 E11.99264
G1 X100.660 Y94.185 E12.26642
G1 X92.511 Y101.916 E13.60053
G1 X90.670 Y107.853 E14.33874
G1 X88.826 Y107.376 E14.56500
G1 X87.521 Y112.402 E15.18177
G1 X86.175 Y112.053 E15.34687
G1 X87.479 Y107.025 E15.96381
G1 X85.784 Y106.585 E16.17184
G1 X87.428 Y97.667 E17.24879
G1 X89.133 Y86.698 E18.56721
G1 X94.107 Y82.604 E19.33233
G1 X94.477 Y83.052 E19.40134
G1 X92.579 Y84.630 E19.69449
G1 X93.536 Y85.817 E19.87554
G1 X100.132 Y93.787 E21.10421
G1 X100.264 Y92.829 F7800.000
G1 X102.169 Y91.267 E21.39679 F378.000
G1 X103.449 Y92.822 E21.63598
G1 X101.139 Y94.715 E21.99066
G1 X93.137 Y102.306 E23.30057
G1 X91.150 Y108.716 E24.09752
G1 X89.338 Y108.246 E24.31991
G1 X88.033 Y113.272 E24.93664
G1 X85.305 Y112.565 E25.27133
G1 X86.609 Y107.537 E25.88825
G1 X84.961 Y107.109 E26.09043
G1 X86.724 Y97.547 E27.24513
G1 X88.469 Y86.320 E28.59463
G1 X94.205 Y81.599 E29.47686
G1 X95.483 Y83.149 E29.71548
G1 X93.575 Y84.722 E30.00909
G1 X94.096 Y85.374 E30.10821
G1 X100.225 Y92.783 E31.25027
G1 X100.518 Y93.138 F7800.000
G1 X92.198 Y100.247 F7800.000
G1 X92.256 Y100.306 E31.26011 F1080.000
G1 X91.814 Y100.907 E31.34868
G1 X91.031 Y100.123 E31.48027
G1 X91.369 Y101.505 E31.64920
G1 X88.485 Y98.620 E32.13371
G1 X89.105 Y98.198 E32.22285
G1 X88.854 Y97.946 E32.26510
G1 X88.322 Y99.500 F7800.000
G1 X91.123 Y102.301 E32.73542 F1080.000
G1 X90.876 Y103.097 E32.83440
G1 X88.160 Y100.381 E33.29054
G1 X87.998 Y101.261 E33.39686
G1 X90.629 Y103.893 E33.83882
G1 X90.382 Y104.689 E33.93779
G1 X87.836 Y102.142 E34.36556
G1 X87.673 Y103.022 E34.47189
G1 X90.136 Y105.485 E34.88546
G1 X89.889 Y106.280 E34.98444
G1 X87.511 Y103.903 E35.38383
G1 X87.349 Y104.783 E35.49016
G1 X88.640 Y106.074 E35.70707
G1 X87.231 Y105.709 E35.87992
G1 X87.186 Y105.663 E35.88749
G1 X88.938 Y97.423 F7800.000
G1 X88.866 Y97.050 E35.91277 F360.000
G1 X88.917 Y96.680 E35.93757
G1 X89.098 Y95.878 E35.99228
G1 X89.091 Y95.875 F7800.000
G1 X89.458 Y95.042 E36.16093 F360.000
G1 X89.612 Y93.053 E36.53063
G1 X89.576 Y91.738 F7800.000
G1 X91.818 Y93.979 E36.90717 F1080.000
G1 X94.840 Y98.037 F7800.000
G1 X94.808 Y98.004 E36.91260 F1080.000
G1 X94.849 Y97.010 E37.03082
G1 X95.371 Y97.533 E37.11862
G1 X95.903 Y97.029 E37.20562
G1 X89.716 Y90.841 E38.24483
G1 X89.855 Y89.945 E38.35256
G1 X96.434 Y96.525 E39.45763
G1 X96.966 Y96.020 E39.54463
G1 X89.994 Y89.049 E40.71558
G1 X90.134 Y88.153 E40.82330
G1 X97.497 Y95.516 E42.06012
G1 X98.029 Y95.012 E42.14712
G1 X90.323 Y87.306 E43.44145
G1 X90.880 Y86.828 E43.52868
G1 X98.555 Y94.502 E44.81766
G1 X96.992 Y91.904 F7800.000
G1 X91.448 Y86.360 E45.74882 F1080.000
G1 X92.168 Y86.045 E45.84224
G1 X92.015 Y85.891 E45.86802
G1 X88.242 Y106.856 F7800.000
G1 X86.938 Y111.882 E46.21346 F360.000
M106 S242
G1 F1800.000 E45.21346
G92 E0
G1 Z0.700 F7800.000
G1 X101.693 Y104.148 F7800.000
G1 E1.00000 F1800.000
G1 X102.174 Y104.097 E1.02412 F1800.000
G1 X102.415 Y104.172 E1.03674
G1 X102.633 Y104.239 E1.04808 F1800.000
G1 X103.010 Y104.539 E1.07214
G1 X103.238 Y104.969 E1.09640
G1 X103.289 Y105.448 E1.12046
G1 X103.147 Y105.914 E1.14476
G1 X102.844 Y106.289 E1.16881
G1 X102.413 Y106.521 E1.19324
G1 X101.933 Y106.564 E1.21730
G1 X101.471 Y106.430 E1.24128
G1 X101.095 Y106.120 E1.26559
G1 X100.868 Y105.694 E1.28966
G1 X100.818 Y105.214 E1.31377
G1 X100.960 Y104.749 E1.33802
G1 X101.267 Y104.370 E1.36236
G1 X101.640 Y104.176 E1.38334
G1 X102.848 Y105.088 F7800.000
G1 X102.883 Y105.410 E1.39948 F1260.000
G1 X102.787 Y105.723 E1.41582
G1 X102.584 Y105.975 E1.43197
G1 X102.295 Y106.130 E1.44832
G1 X101.972 Y106.159 E1.46452
G1 X101.662 Y106.069 E1.48061
G1 X101.411 Y105.862 E1.49687
G1 X101.258 Y105.575 E1.51308
G1 X101.224 Y105.253 E1.52924
G1 X101.320 Y104.940 E1.54556
G1 X101.525 Y104.686 E1.56185
G1 X101.811 Y104.538 E1.57791
G1 X102.134 Y104.503 E1.59414
G1 X102.443 Y104.599 E1.61024
G1 X102.696 Y104.800 E1.62638
G1 X102.820 Y105.035 E1.63964
G1 X103.158 Y105.180 F7800.000
G1 X110.095 Y105.766 F7800.000
G1 X112.431 Y103.874 E1.78962 F1800.000
G1 X113.006 Y104.598 E1.83572
G1 X111.032 Y106.187 E1.96214
G1 X103.513 Y106.085 E2.33728
G1 X103.695 Y105.487 E2.36851
G1 X103.627 Y104.849 E2.40048
G1 X103.324 Y104.278 E2.43275
G1 X102.823 Y103.879 E2.46473
G1 X102.213 Y103.690 E2.49656
G1 X101.576 Y103.758 E2.52856
G1 X101.009 Y104.053 E2.56045
G1 X100.600 Y104.557 E2.59283
G1 X100.412 Y105.174 E2.62501
G1 X100.478 Y105.814 E2.65706
G1 X100.780 Y106.378 E2.68899
G1 X101.280 Y106.791 E2.72137
G1 X101.893 Y106.969 E2.75323
G1 X102.530 Y106.912 E2.78514
G1 X103.104 Y106.603 E2.81767
G1 X103.365 Y106.281 E2.83829
G1 X103.584 Y106.370 E2.85008
G1 X103.033 Y112.984 E3.18120
G1 X100.531 Y112.742 E3.30659
G1 X99.919 Y119.104 E3.62548
G1 X98.082 Y118.930 E3.71751
G1 X98.695 Y112.566 E4.03647
G1 X96.224 Y112.327 E4.16031
G1 X96.958 Y104.737 E4.54078
G1 X102.331 Y95.750 E5.06313
G1 X104.453 Y94.042 E5.19904
G1 X105.055 Y94.772 E5.24626
G1 X102.733 Y96.638 E5.39487
G1 X103.619 Y97.756 E5.46604
G1 X103.983 Y98.245 E5.49644
G1 X109.057 Y104.450 E5.89634
G1 X110.058 Y105.719 E5.97697
G1 X110.157 Y105.198 F7800.000
G1 X112.495 Y103.311 E6.12688 F1800.000
G1 X113.567 Y104.661 E6.21292
G1 X111.168 Y106.589 E6.36646
G1 X103.975 Y106.492 E6.72534
G1 X103.398 Y113.421 E7.07223
G1 X100.891 Y113.179 E7.19789
G1 X100.277 Y119.541 E7.51680
G1 X97.645 Y119.289 E7.64871
G1 X98.258 Y112.926 E7.96765
G1 X95.787 Y112.687 E8.09150
G1 X96.569 Y104.609 E8.49641
G1 X102.024 Y95.485 E9.02678
G1 X104.510 Y93.483 E9.18602
G1 X105.619 Y94.826 E9.27295
G1 X103.293 Y96.701 E9.42196
G1 X104.299 Y97.999 E9.50389
G1 X109.369 Y104.198 E9.90341
G1 X110.119 Y105.151 E9.96394
G1 X110.218 Y104.630 F7800.000
G1 X112.555 Y102.744 E10.11378 F1260.000
G1 X114.125 Y104.720 E10.23967
G1 X111.304 Y106.991 E10.42036
G1 X104.343 Y106.897 E10.76768
G1 X103.763 Y113.858 E11.11617
G1 X101.251 Y113.615 E11.24209
G1 X100.636 Y119.978 E11.56102
G1 X97.208 Y119.649 E11.73283
G1 X97.822 Y113.286 E12.05176
G1 X95.351 Y113.047 E12.17561
G1 X96.179 Y104.481 E12.60497
G1 X101.722 Y95.215 E13.14364
G1 X104.568 Y92.924 E13.32590
G1 X106.187 Y94.886 E13.45280
G1 X103.854 Y96.763 E13.60221
G1 X104.615 Y97.754 E13.66452
G1 X109.680 Y103.947 E14.06366
G1 X110.181 Y104.583 E14.10408
G1 X110.468 Y104.942 F7800.000
G1 X109.723 Y105.738 F7800.000
G1 X109.568 Y105.893 E14.11556 F3600.000
G1 X108.981 Y105.885 E14.14625
G1 X109.461 Y105.405 E14.18175
G1 X109.199 Y105.072 E14.20389
G1 X108.393 Y105.877 E14.26340
G1 X107.806 Y105.869 E14.29409
G1 X108.936 Y104.739 E14.37760
G1 X108.670 Y104.410 E14.39972
G1 X107.219 Y105.861 E14.50698
G1 X106.631 Y105.853 E14.53767
G1 X108.403 Y104.082 E14.66855
G1 X108.135 Y103.755 E14.69065
G1 X106.044 Y105.845 E14.84513
G1 X105.457 Y105.838 E14.87582
G1 X107.867 Y103.427 E15.05391
G1 X107.599 Y103.100 E15.07602
G1 X104.869 Y105.830 E15.27772
G1 X104.282 Y105.822 E15.30841
G1 X107.331 Y102.772 E15.53372
G1 X107.064 Y102.445 E15.55582
G1 X103.965 Y105.544 E15.78478
G1 X103.919 Y104.994 E15.81358
G1 X106.796 Y102.117 E16.02616
G1 X106.528 Y101.790 E16.04826
G1 X103.775 Y104.543 E16.25167
G1 X103.569 Y104.154 E16.27467
G1 X106.260 Y101.462 E16.47352
G1 X105.992 Y101.135 E16.49563
G1 X103.255 Y103.872 E16.69788
G1 X102.912 Y103.619 E16.72012
G1 X105.725 Y100.807 E16.92790
G1 X105.457 Y100.480 E16.95000
G1 X102.458 Y103.479 E17.17159
G1 X101.893 Y103.449 E17.20116
G1 X105.189 Y100.152 E17.44471
G1 X104.921 Y99.825 E17.46681
G1 X96.937 Y107.810 E18.05676
G1 X96.873 Y108.469 E18.09135
